; generated by Slic3r 0.9.10b on 2013-09-12 at 10:08:42

; layer_height = 0.25
; perimeters = 3
; top_solid_layers = 3
; bottom_solid_layers = 3
; fill_density = 1
; perimeter_speed = 30
; infill_speed = 60
; travel_speed = 130
; nozzle_diameter = 0.35
; filament_diameter = 3
; extrusion_multiplier = .926
; perimeters extrusion width = 0.39mm
; infill extrusion width = 0.39mm
; solid infill extrusion width = 0.39mm
; top infill extrusion width = 0.39mm
; first layer extrusion width = 0.70mm

G21 ; set units to millimeters
M107
M190 S60 ; wait for bed temperature to be reached
M104 S220 ; set temperature
G28 ; home all axes
G1 Z5 F5000 ; lift nozzle
M109 S220 ; wait for temperature to be reached
G90 ; use absolute coordinates
G92 E0
M82 ; use absolute distances for extrusion
G1 F1800.000 E-1.00000
G92 E0
G1 Z0.350 F7800.000
G1 X82.210 Y60.824
G1 F1800.000 E1.00000
G1 X82.960 Y59.944 F540.000 E1.03313
G1 X85.230 Y57.724 E1.12410
G1 X86.120 Y56.994 E1.15708
G1 X87.130 Y56.424 E1.19031
G1 X90.010 Y55.124 E1.28084
G1 X91.100 Y54.744 E1.31392
G1 X92.240 Y54.554 E1.34703
G1 X95.400 Y54.314 E1.43783
G1 X96.560 Y54.334 E1.47107
G1 X97.700 Y54.554 E1.50434
G1 X100.740 Y55.414 E1.59486
G1 X101.810 Y55.814 E1.62759
G1 X102.790 Y56.394 E1.66021
G1 X105.370 Y58.234 E1.75101
G1 X106.260 Y58.994 E1.78454
G1 X107.000 Y59.904 E1.81815
G1 X108.780 Y62.524 E1.90890
G1 X109.340 Y63.524 E1.94174
G1 X109.720 Y64.604 E1.97454
G1 X110.500 Y67.664 E2.06502
G1 X110.690 Y68.804 E2.09813
G1 X110.670 Y69.954 E2.13109
G1 X110.360 Y73.104 E2.22177
G1 X110.150 Y74.234 E2.25471
G1 X109.740 Y75.314 E2.28780
G1 X108.370 Y78.174 E2.37866
G1 X107.780 Y79.174 E2.41193
G1 X107.020 Y80.064 E2.44546
G1 X104.750 Y82.274 E2.53623
G1 X103.860 Y83.004 E2.56922
G1 X102.860 Y83.564 E2.60205
G1 X99.980 Y84.864 E2.69259
G1 X98.890 Y85.244 E2.72566
G1 X97.750 Y85.434 E2.75877
G1 X94.590 Y85.674 E2.84957
G1 X93.440 Y85.654 E2.88253
G1 X92.310 Y85.444 E2.91546
G1 X89.270 Y84.594 E3.00590
G1 X88.180 Y84.184 E3.03927
G1 X87.190 Y83.594 E3.07229
G1 X84.610 Y81.744 E3.16325
G1 X83.730 Y80.994 E3.19638
G1 X83.000 Y80.094 E3.22958
G1 X81.220 Y77.484 E3.32010
G1 X80.650 Y76.474 E3.35333
G1 X80.270 Y75.384 E3.38640
G1 X79.490 Y72.314 E3.47715
G1 X79.300 Y71.184 E3.50998
G1 X79.320 Y70.034 E3.54294
G1 X79.630 Y66.884 E3.63363
G1 X79.840 Y65.744 E3.66684
G1 X80.250 Y64.664 E3.69994
G1 X81.620 Y61.814 E3.79054
G1 X82.162 Y60.905 E3.82088
G1 F1800.000 E2.82088
G92 E0
G1 X95.124 Y74.026 F7800.000
G1 F1800.000 E1.00000
G1 X95.570 Y75.076 F540.000 E1.03269
G1 X95.189 Y77.358 E1.09899
G1 X95.077 Y77.735 E1.11024
G1 X94.209 Y78.541 E1.14419
G1 X93.893 Y77.834 E1.16637
G1 X94.094 Y77.170 E1.18624
G1 X94.426 Y75.248 E1.24214
G1 X94.734 Y74.839 E1.25681
G1 X95.083 Y74.111 E1.27994
G1 X95.198 Y74.647 F7800.000
G1 X96.306 Y74.968
G1 X96.405 Y74.638 F540.000 E1.28981
G1 X96.493 Y73.741 E1.31563
G1 X97.272 Y74.575 E1.34832
G1 X97.695 Y76.850 E1.41462
G1 X97.718 Y77.242 E1.42588
G1 X97.177 Y78.296 E1.45983
G1 X96.639 Y77.740 E1.48201
G1 X96.601 Y77.048 E1.50187
G1 X96.256 Y75.128 E1.55777
G1 X96.278 Y75.057 E1.55989
G1 X96.642 Y74.890 F7800.000
G1 X97.934 Y74.389
G1 X97.907 Y73.878 F540.000 E1.57456
G1 X97.683 Y73.005 E1.60038
G1 X98.699 Y73.522 E1.63306
G1 X99.875 Y75.515 E1.69937
G1 X100.031 Y75.876 E1.71062
G1 X99.883 Y77.051 E1.74457
G1 X99.187 Y76.713 E1.76675
G1 X98.915 Y76.075 E1.78662
G1 X97.981 Y74.470 E1.83983
G1 X98.314 Y74.046 F7800.000
G1 X99.258 Y73.121
G1 X99.058 Y72.650 F540.000 E1.85450
G1 X98.548 Y71.906 E1.88032
G1 X99.681 Y72.044 E1.91301
G1 X101.467 Y73.515 E1.97931
G1 X101.737 Y73.801 E1.99057
G1 X102.001 Y74.956 E2.02452
G1 X101.231 Y74.876 E2.04670
G1 X100.757 Y74.370 E2.06657
G1 X99.330 Y73.181 E2.11978
G1 X99.498 Y72.668 F7800.000
G1 X100.069 Y71.476
G1 X99.719 Y71.102 F540.000 E2.13445
G1 X98.986 Y70.577 E2.16027
G1 X100.098 Y70.320 E2.19295
G1 X102.279 Y71.091 E2.25926
G1 X102.631 Y71.267 E2.27051
G1 X103.273 Y72.263 E2.30446
G1 X102.523 Y72.451 E2.32664
G1 X101.904 Y72.137 E2.34651
G1 X100.157 Y71.508 E2.39972
G1 X100.139 Y70.969 F7800.000
G1 X100.268 Y69.654
G1 X99.811 Y69.422 F540.000 E2.41439
G1 X98.943 Y69.179 E2.44021
G1 X99.900 Y68.557 E2.47290
G1 X102.214 Y68.536 E2.53920
G1 X102.604 Y68.581 E2.55046
G1 X103.548 Y69.296 E2.58441
G1 X102.907 Y69.730 E2.60659
G1 X102.219 Y69.647 E2.62645
G1 X100.362 Y69.653 E2.67967
G1 X100.160 Y69.153 F7800.000
G1 X99.832 Y67.873
G1 X99.323 Y67.811 F540.000 E2.69434
G1 X98.425 Y67.880 E2.72016
G1 X99.111 Y66.968 E2.75284
G1 X101.278 Y66.157 E2.81915
G1 X101.660 Y66.066 E2.83040
G1 X102.792 Y66.415 E2.86435
G1 X102.338 Y67.042 E2.88653
G1 X101.663 Y67.199 E2.90640
G1 X99.920 Y67.840 E2.95961
G1 X99.560 Y67.439 F7800.000
G1 X98.813 Y66.349
G1 X98.314 Y66.464 F540.000 E2.97428
G1 X97.493 Y66.836 E3.00010
G1 X97.826 Y65.745 E3.03279
G1 X99.585 Y64.241 E3.09909
G1 X99.913 Y64.025 E3.11035
G1 X101.096 Y63.966 E3.14430
G1 X100.884 Y64.711 E3.16647
G1 X100.303 Y65.089 E3.18634
G1 X98.884 Y66.288 E3.23956
G1 X98.409 Y66.034 F7800.000
G1 X97.334 Y65.265
G1 X96.905 Y65.544 F540.000 E3.25422
G1 X96.261 Y66.174 E3.28005
G1 X96.200 Y65.035 E3.31273
G1 X97.339 Y63.021 E3.37903
G1 X97.573 Y62.705 E3.39029
G1 X98.665 Y62.245 E3.42424
G1 X98.720 Y63.017 E3.44642
G1 X98.303 Y63.572 E3.46629
G1 X97.380 Y65.183 E3.51950
G1 X96.847 Y65.107 F7800.000
G1 X95.574 Y64.752
G1 X95.266 Y65.161 F540.000 E3.53417
G1 X94.876 Y65.974 E3.55999
G1 X94.430 Y64.924 E3.59268
G1 X94.811 Y62.642 E3.65898
G1 X94.923 Y62.265 E3.67024
G1 X95.792 Y61.459 E3.70419
G1 X96.107 Y62.166 E3.72636
G1 X95.906 Y62.830 E3.74623
G1 X95.590 Y64.660 E3.79945
G1 X95.062 Y64.771 F7800.000
G1 X93.744 Y64.872
G1 X93.595 Y65.362 F540.000 E3.81411
G1 X93.507 Y66.259 E3.83994
G1 X92.728 Y65.425 E3.87262
G1 X92.305 Y63.150 E3.93892
G1 X92.282 Y62.758 E3.95018
G1 X92.823 Y61.704 E3.98413
G1 X93.361 Y62.260 E4.00631
G1 X93.399 Y62.952 E4.02618
G1 X93.727 Y64.780 E4.07939
G1 X93.270 Y65.065 F7800.000
G1 X92.066 Y65.611
G1 X92.093 Y66.122 F540.000 E4.09406
G1 X92.317 Y66.995 E4.11988
G1 X91.301 Y66.478 E4.15257
G1 X90.125 Y64.485 E4.21887
G1 X89.969 Y64.124 E4.23013
G1 X90.117 Y62.949 E4.26408
G1 X90.813 Y63.287 E4.28625
G1 X91.085 Y63.925 E4.30612
G1 X92.019 Y65.530 E4.35934
G1 X91.686 Y65.954 F7800.000
G1 X90.742 Y66.879
G1 X90.942 Y67.350 F540.000 E4.37400
G1 X91.452 Y68.094 E4.39983
G1 X90.319 Y67.956 E4.43251
G1 X88.533 Y66.485 E4.49881
G1 X88.263 Y66.199 E4.51007
G1 X87.999 Y65.044 E4.54402
G1 X88.769 Y65.124 E4.56620
G1 X89.243 Y65.630 E4.58607
G1 X90.670 Y66.819 E4.63928
G1 X90.502 Y67.332 F7800.000
G1 X89.931 Y68.524
G1 X90.281 Y68.898 F540.000 E4.65395
G1 X91.014 Y69.423 E4.67977
G1 X89.902 Y69.680 E4.71246
G1 X87.721 Y68.909 E4.77876
G1 X87.369 Y68.733 E4.79002
G1 X86.727 Y67.737 E4.82396
G1 X87.477 Y67.549 E4.84614
G1 X88.096 Y67.863 E4.86601
G1 X89.843 Y68.492 E4.91923
G1 X89.861 Y69.031 F7800.000
G1 X89.732 Y70.346
G1 X90.189 Y70.578 F540.000 E4.93389
G1 X91.057 Y70.821 E4.95972
G1 X90.100 Y71.443 E4.99240
G1 X87.786 Y71.464 E5.05870
G1 X87.396 Y71.419 E5.06996
G1 X86.452 Y70.704 E5.10391
G1 X87.093 Y70.270 E5.12609
G1 X87.781 Y70.353 E5.14596
G1 X89.638 Y70.347 E5.19917
G1 X89.840 Y70.847 F7800.000
G1 X90.168 Y72.127
G1 X90.677 Y72.189 F540.000 E5.21384
G1 X91.575 Y72.120 E5.23966
G1 X90.889 Y73.032 E5.27235
G1 X88.722 Y73.843 E5.33865
G1 X88.340 Y73.934 E5.34991
G1 X87.208 Y73.585 E5.38385
G1 X87.662 Y72.958 E5.40603
G1 X88.337 Y72.801 E5.42590
G1 X90.080 Y72.160 E5.47911
G1 X90.440 Y72.561 F7800.000
G1 X91.187 Y73.651
G1 X91.686 Y73.536 F540.000 E5.49378
G1 X92.507 Y73.164 E5.51960
G1 X92.174 Y74.255 E5.55229
G1 X90.415 Y75.758 E5.61859
G1 X90.087 Y75.975 E5.62985
G1 X88.904 Y76.034 E5.66380
G1 X89.116 Y75.289 E5.68598
G1 X89.697 Y74.911 E5.70585
G1 X91.116 Y73.712 E5.75906
G1 X91.591 Y73.966 F7800.000
G1 X92.666 Y74.735
G1 X93.095 Y74.456 F540.000 E5.77373
G1 X93.739 Y73.826 E5.79955
G1 X93.800 Y74.965 E5.83224
G1 X92.661 Y76.979 E5.89854
G1 X92.427 Y77.295 E5.90979
G1 X91.335 Y77.755 E5.94374
G1 X91.280 Y76.983 E5.96592
G1 X91.697 Y76.428 E5.98579
G1 X92.620 Y74.817 E6.03900
G1 X93.153 Y74.893 F7800.000
G1 F1800.000 E5.03900
G92 E0
G1 X94.513 Y77.640 F7800.000
G1 F1800.000 E1.00000
G1 X94.445 Y77.572 F360.000 E1.00131
G1 X94.702 Y77.411 E1.00540
G1 X94.540 Y77.249 E1.00850
G1 X94.779 Y77.071 E1.01253
G1 X94.601 Y76.893 E1.01593
G1 X94.838 Y76.713 E1.01996
G1 X94.663 Y76.537 E1.02332
G1 X94.898 Y76.355 E1.02735
G1 X94.724 Y76.181 E1.03067
G1 X94.958 Y75.998 E1.03469
G1 X94.786 Y75.826 E1.03799
G1 X95.017 Y75.640 E1.04200
G1 X94.847 Y75.470 E1.04526
G1 X95.077 Y75.283 E1.04928
G1 X95.014 Y75.220 E1.05048
G1 F1800.000 E0.05048
G92 E0
G1 X97.150 Y77.356 F7800.000
G1 F1800.000 E1.00000
G1 X97.066 Y77.272 F360.000 E1.00160
G1 X97.253 Y77.041 E1.00562
G1 X97.017 Y76.806 E1.01012
G1 X97.179 Y76.550 E1.01421
G1 X96.926 Y76.297 E1.01905
G1 X97.084 Y76.037 E1.02316
G1 X96.834 Y75.788 E1.02793
G1 X96.988 Y75.525 E1.03206
G1 X96.743 Y75.279 E1.03676
G1 X96.893 Y75.012 E1.04090
G1 X96.795 Y74.914 E1.04279
G1 F1800.000 E0.04279
G92 E0
G1 X99.558 Y76.008 F7800.000
G1 F1800.000 E1.00000
G1 X99.179 Y75.630 F360.000 E1.00724
G1 X99.160 Y75.192 E1.01316
G1 X98.598 Y74.631 E1.02390
G1 X98.560 Y74.176 E1.03008
G1 X98.366 Y73.981 E1.03380
G1 F1800.000 E0.03380
G92 E0
G1 X101.122 Y73.817 F7800.000
G1 F1800.000 E1.00000
G1 X101.268 Y73.963 F360.000 E1.00280
G1 X100.229 Y73.341 F7800.000
G1 X99.559 Y72.672 F360.000 E1.01560
G1 X100.566 Y71.174 F7800.000
G1 X100.242 Y70.851 F360.000 E1.02179
G1 X100.888 Y71.079 E1.03105
G1 X101.218 Y71.409 E1.03737
G1 X101.533 Y71.307 E1.04185
G1 X101.870 Y71.644 E1.04830
G1 X102.201 Y71.558 E1.05292
G1 X102.421 Y71.778 E1.05714
G1 F1800.000 E0.05714
G92 E0
G1 X100.142 Y69.082 F7800.000
G1 F1800.000 E1.00000
G1 X100.068 Y69.008 F360.000 E1.00141
G1 X100.482 Y69.004 E1.00701
G1 X100.678 Y69.200 E1.01075
G1 X100.895 Y69.000 E1.01475
G1 X101.093 Y69.198 E1.01854
G1 X101.309 Y68.996 E1.02253
G1 X101.509 Y69.197 E1.02637
G1 X101.722 Y68.993 E1.03036
G1 X101.925 Y69.195 E1.03424
G1 X102.136 Y68.989 E1.03823
G1 X102.354 Y69.208 E1.04242
G1 F1800.000 E0.04242
G92 E0
G1 X99.714 Y67.401 F7800.000
G1 F1800.000 E1.00000
G1 X99.586 Y67.273 F360.000 E1.00245
G1 X99.889 Y67.160 E1.00683
G1 X100.043 Y67.313 E1.00977
G1 X100.193 Y67.046 E1.01391
G1 X100.348 Y67.201 E1.01688
G1 X100.496 Y66.932 E1.02103
G1 X100.653 Y67.089 E1.02402
G1 X100.800 Y66.819 E1.02818
G1 X100.958 Y66.976 E1.03120
G1 X101.104 Y66.705 E1.03537
G1 X101.263 Y66.864 E1.03841
G1 X101.407 Y66.591 E1.04259
G1 X101.572 Y66.756 E1.04573
G1 X101.823 Y66.590 E1.04981
G1 X101.910 Y66.677 E1.05147
G1 F1800.000 E0.05147
G92 E0
G1 X98.312 Y66.000 F7800.000
G1 F1800.000 E1.00000
G1 X98.272 Y65.959 F360.000 E1.00078
G1 X98.496 Y65.767 E1.00478
G1 X98.636 Y65.906 E1.00744
G1 X98.862 Y65.715 E1.01145
G1 X98.721 Y65.575 E1.01413
G1 X98.946 Y65.382 E1.01813
G1 X99.088 Y65.524 E1.02084
G1 X99.314 Y65.333 E1.02485
G1 X99.171 Y65.190 E1.02758
G1 X99.396 Y64.998 E1.03158
G1 X99.540 Y65.142 E1.03433
G1 X99.766 Y64.950 E1.03834
G1 X99.621 Y64.805 E1.04111
G1 X99.846 Y64.613 E1.04512
G1 X99.992 Y64.759 E1.04792
G1 X100.240 Y64.590 E1.05198
G1 X100.119 Y64.468 E1.05431
G1 F1800.000 E0.05431
G92 E0
G1 X96.901 Y65.006 F7800.000
G1 F1800.000 E1.00000
G1 X96.796 Y64.901 F360.000 E1.00201
G1 X96.946 Y64.634 E1.00615
G1 X97.091 Y64.779 E1.00891
G1 X97.243 Y64.513 E1.01305
G1 X97.097 Y64.368 E1.01584
G1 X97.248 Y64.101 E1.01998
G1 X97.395 Y64.248 E1.02280
G1 X97.547 Y63.983 E1.02693
G1 X97.398 Y63.834 E1.02977
G1 X97.549 Y63.568 E1.03391
G1 X97.699 Y63.717 E1.03678
G1 X97.851 Y63.452 E1.04091
G1 X97.700 Y63.301 E1.04380
G1 X97.882 Y63.066 E1.04782
G1 X98.016 Y63.201 E1.05040
G1 X98.195 Y62.962 E1.05443
G1 X98.176 Y62.943 E1.05480
G1 F1800.000 E0.05480
G92 E0
G1 X94.994 Y64.768 F7800.000
G1 F1800.000 E1.00000
G1 X94.926 Y64.700 F360.000 E1.00131
G1 X95.156 Y64.513 E1.00533
G1 X94.985 Y64.342 E1.00859
G1 X95.217 Y64.157 E1.01260
G1 X95.045 Y63.985 E1.01590
G1 X95.279 Y63.801 E1.01992
G1 X95.105 Y63.627 E1.02325
G1 X95.340 Y63.445 E1.02727
G1 X95.164 Y63.269 E1.03064
G1 X95.402 Y63.089 E1.03467
G1 X95.224 Y62.912 E1.03806
G1 X95.463 Y62.734 E1.04210
G1 X95.303 Y62.573 E1.04516
G1 X95.497 Y62.350 E1.04916
G1 X95.560 Y62.413 E1.05036
G1 F1800.000 E0.05036
G92 E0
G1 X93.210 Y65.070 F7800.000
G1 F1800.000 E1.00000
G1 X93.102 Y64.962 F360.000 E1.00207
G1 X93.253 Y64.696 E1.00621
G1 X93.007 Y64.450 E1.01091
G1 X93.161 Y64.187 E1.01503
G1 X92.912 Y63.937 E1.01981
G1 X93.070 Y63.678 E1.02392
G1 X92.816 Y63.425 E1.02876
G1 X92.978 Y63.169 E1.03285
G1 X92.746 Y62.937 E1.03729
G1 X92.932 Y62.706 E1.04131
G1 X92.857 Y62.631 E1.04276
G1 F1800.000 E0.04276
G92 E0
G1 X91.633 Y65.997 F7800.000
G1 F1800.000 E1.00000
G1 X91.411 Y65.774 F360.000 E1.00426
G1 X91.373 Y65.320 E1.01043
G1 X90.811 Y64.757 E1.02118
G1 X90.792 Y64.321 E1.02709
G1 X90.444 Y63.974 E1.03374
G1 F1800.000 E0.03374
G92 E0
G1 X88.994 Y66.279 F7800.000
G1 F1800.000 E1.00000
G1 X88.672 Y65.956 F360.000 E1.00617
G1 X89.895 Y66.762 E1.02598
G1 X90.425 Y67.292 E1.03613
G1 F1800.000 E0.03613
G92 E0
G1 X87.840 Y68.463 F7800.000
G1 F1800.000 E1.00000
G1 X87.542 Y68.165 F360.000 E1.00570
G1 X88.162 Y68.368 E1.01453
G1 X88.499 Y68.704 E1.02097
G1 X88.814 Y68.602 E1.02545
G1 X89.144 Y68.932 E1.03177
G1 X89.466 Y68.837 E1.03631
G1 X89.790 Y69.161 E1.04250
G1 F1800.000 E0.04250
G92 E0
G1 X87.885 Y71.011 F7800.000
G1 F1800.000 E1.00000
G1 X87.669 Y70.795 F360.000 E1.00413
G1 X88.095 Y70.804 E1.00990
G1 X88.298 Y71.007 E1.01378
G1 X88.511 Y70.803 E1.01777
G1 X88.712 Y71.003 E1.02160
G1 X88.927 Y70.802 E1.02559
G1 X89.125 Y71.000 E1.02938
G1 X89.343 Y70.800 E1.03338
G1 X89.539 Y70.996 E1.03712
G1 X89.899 Y70.939 E1.04206
G1 X89.952 Y70.992 E1.04307
G1 F1800.000 E0.04307
G92 E0
G1 X88.206 Y73.419 F7800.000
G1 F1800.000 E1.00000
G1 X88.106 Y73.319 F360.000 E1.00191
G1 X88.445 Y73.240 E1.00661
G1 X88.608 Y73.403 E1.00973
G1 X88.752 Y73.130 E1.01390
G1 X88.911 Y73.289 E1.01695
G1 X89.057 Y73.018 E1.02111
G1 X89.215 Y73.176 E1.02413
G1 X89.362 Y72.906 E1.02829
G1 X89.518 Y73.062 E1.03128
G1 X89.667 Y72.794 E1.03543
G1 X89.822 Y72.948 E1.03840
G1 X89.972 Y72.681 E1.04254
G1 X90.126 Y72.835 E1.04547
G1 X90.310 Y72.601 E1.04949
G1 X90.429 Y72.721 E1.05178
G1 F1800.000 E0.05178
G92 E0
G1 X89.901 Y75.531 F7800.000
G1 F1800.000 E1.00000
G1 X89.772 Y75.402 F360.000 E1.00247
G1 X90.019 Y75.231 E1.00652
G1 X90.165 Y75.377 E1.00932
G1 X90.390 Y75.185 E1.01332
G1 X90.245 Y75.040 E1.01610
G1 X90.471 Y74.849 E1.02010
G1 X90.615 Y74.993 E1.02286
G1 X90.840 Y74.801 E1.02686
G1 X90.697 Y74.658 E1.02959
G1 X90.923 Y74.467 E1.03359
G1 X91.065 Y74.608 E1.03630
G1 X91.290 Y74.416 E1.04030
G1 X91.149 Y74.276 E1.04299
G1 X91.376 Y74.085 E1.04699
G1 X91.515 Y74.224 E1.04965
G1 X91.740 Y74.031 E1.05365
G1 X91.704 Y73.996 E1.05433
G1 F1800.000 E0.05433
G92 E0
G1 X91.838 Y77.051 F7800.000
G1 F1800.000 E1.00000
G1 X91.813 Y77.026 F360.000 E1.00048
G1 X91.992 Y76.788 E1.00451
G1 X92.132 Y76.928 E1.00719
G1 X92.308 Y76.686 E1.01123
G1 X92.157 Y76.535 E1.01412
G1 X92.309 Y76.270 E1.01825
G1 X92.458 Y76.419 E1.02112
G1 X92.609 Y76.153 E1.02526
G1 X92.461 Y76.004 E1.02810
G1 X92.613 Y75.739 E1.03223
G1 X92.760 Y75.886 E1.03505
G1 X92.910 Y75.619 E1.03919
G1 X92.765 Y75.474 E1.04198
G1 X92.916 Y75.208 E1.04611
G1 X93.061 Y75.353 E1.04888
G1 X93.212 Y75.086 E1.05302
G1 X93.112 Y74.986 E1.05493
M106 S255
M104 S215 ; set temperature
G1 F1800.000 E0.05493
G92 E0
G1 Z0.600 F7800.000
G1 X94.510 Y76.198
G1 F1800.000 E1.00000
G1 X94.971 Y75.581 F1079.256 E1.00971
G1 X95.135 Y75.956 E1.01487
G1 X94.929 Y77.191 E1.03065
G1 X94.615 Y78.244 E1.04450
G1 X93.970 Y78.839 E1.05556
G1 X93.852 Y78.764 E1.05732
G1 X94.350 Y77.124 E1.07893
G1 X94.500 Y76.255 E1.09005
G1 X94.150 Y76.022 F7800.000
G1 X94.499 Y75.569 F1079.256 E1.09725
G1 X94.332 Y75.336 E1.10086
G1 X93.480 Y72.925 E1.13310
G1 X93.462 Y72.617 E1.13699
G1 X93.572 Y72.592 E1.13841
G1 X94.610 Y75.420 E1.17638
G1 X95.058 Y74.820 E1.18582
G1 X95.533 Y75.906 E1.20076
