; generated by Slic3r 0.9.10b on 2013-08-15 at 11:49:07

; layer_height = 0.25
; perimeters = 5
; top_solid_layers = 3
; bottom_solid_layers = 3
; fill_density = .1
; perimeter_speed = 30
; infill_speed = 70
; travel_speed = 130
; nozzle_diameter = 0.35
; filament_diameter = 3
; extrusion_multiplier = .926
; perimeters extrusion width = 0.39mm
; infill extrusion width = 0.39mm
; solid infill extrusion width = 0.39mm
; top infill extrusion width = 0.39mm
; support material extrusion width = 0.39mm
; first layer extrusion width = 0.70mm

G21 ; set units to millimeters
M107
M190 S60 ; wait for bed temperature to be reached
M104 S220 ; set temperature
G28 ; home all axes
G1 Z5 F5000 ; lift nozzle
M109 S220 ; wait for temperature to be reached
G90 ; use absolute coordinates
G92 E0
M82 ; use absolute distances for extrusion
G1 F1800.000 E-1.00000
G92 E0
G1 Z0.350 F7800.000
G1 X21.460 Y47.130
G1 F1800.000 E1.00000
G1 X22.710 Y46.750 F540.000 E1.03743
G1 X24.000 Y46.630 E1.07455
G1 X166.190 Y46.630 E5.14853
G1 X167.480 Y46.750 E5.18565
G1 X168.730 Y47.130 E5.22309
G1 X169.870 Y47.740 E5.26013
G1 X170.870 Y48.570 E5.29737
G1 X171.700 Y49.570 E5.33460
G1 X172.310 Y50.710 E5.37165
G1 X172.690 Y51.960 E5.40908
G1 X172.810 Y53.250 E5.44620
G1 X172.810 Y87.000 E6.41319
G1 X172.690 Y88.290 E6.45031
G1 X172.310 Y89.540 E6.48775
G1 X171.700 Y90.680 E6.52479
G1 X170.870 Y91.680 E6.56203
G1 X169.870 Y92.510 E6.59926
G1 X168.730 Y93.120 E6.63631
G1 X167.480 Y93.500 E6.67374
G1 X166.190 Y93.620 E6.71086
G1 X24.000 Y93.620 E10.78484
G1 X22.710 Y93.500 E10.82196
G1 X21.460 Y93.120 E10.85939
G1 X20.320 Y92.510 E10.89644
G1 X19.320 Y91.680 E10.93367
G1 X18.490 Y90.680 E10.97091
G1 X17.880 Y89.540 E11.00795
G1 X17.500 Y88.290 E11.04538
G1 X17.380 Y87.000 E11.08250
G1 X17.380 Y53.250 E12.04950
G1 X17.500 Y51.960 E12.08662
G1 X17.880 Y50.710 E12.12405
G1 X18.490 Y49.570 E12.16110
G1 X19.320 Y48.570 E12.19833
G1 X20.320 Y47.740 E12.23557
G1 X21.377 Y47.174 E12.26993
G1 F1800.000 E11.26993
G92 E0
G1 X24.000 Y58.255 F7800.000
G1 F1800.000 E1.00000
G1 X163.486 Y58.255 F1080.000 E4.99652
G1 X163.485 Y57.005 E5.03233
G1 X24.000 Y57.005 E9.02881
G1 X24.000 Y55.756 E9.06462
G1 X163.484 Y55.756 E13.06107
G1 X163.483 Y54.506 E13.09688
G1 X24.000 Y54.506 E17.09330
G1 X24.000 Y53.256 E17.12911
G1 X163.482 Y53.256 E21.12549
G1 X163.482 Y53.256 F7800.000
G1 X166.197 Y53.256 F1080.000 E21.20330
G1 X166.197 Y54.506 E21.23911
G1 X163.483 Y54.506 E21.31688
G1 X163.484 Y55.756 E21.35269
G1 X166.197 Y55.756 E21.43043
G1 X166.197 Y57.005 E21.46624
G1 X163.485 Y57.005 E21.54395
G1 X163.486 Y58.255 E21.57976
G1 X166.197 Y58.255 E21.65743
G1 F1800.000 E20.65743
G92 E0
G1 X169.000 Y51.257 F7800.000
G1 X163.488 Y59.505
G1 F1800.000 E1.00000
G1 X152.481 Y59.505 F1080.000 E1.31536
G1 X152.481 Y60.755 E1.35117
G1 X163.489 Y60.755 E1.66656
G1 X163.490 Y62.005 E1.70237
G1 X152.481 Y62.005 E2.01779
G1 X152.481 Y63.254 E2.05360
G1 X163.491 Y63.254 E2.36905
G1 X163.492 Y64.504 E2.40486
G1 X152.481 Y64.504 E2.72035
G1 X152.481 Y65.754 E2.75616
G1 X163.493 Y65.754 E3.07168
G1 X163.494 Y67.004 E3.10749
G1 X152.481 Y67.004 E3.42305
G1 X152.481 Y68.253 E3.45885
G1 X163.496 Y68.253 E3.77444
G1 X163.497 Y69.503 E3.81025
G1 X152.481 Y69.503 E4.12587
G1 X152.481 Y70.753 E4.16168
G1 X163.498 Y70.753 E4.47733
G1 X163.499 Y72.003 E4.51314
G1 X152.481 Y72.003 E4.82883
G1 X152.481 Y73.253 E4.86463
G1 X163.500 Y73.253 E5.18035
G1 X163.501 Y74.502 E5.21616
G1 X152.481 Y74.502 E5.53191
G1 X152.481 Y75.752 E5.56772
G1 X163.502 Y75.752 E5.88351
G1 X163.699 Y77.002 E5.91976
G1 X152.284 Y77.002 E6.24684
G1 X152.284 Y78.252 E6.28265
G1 X163.701 Y78.252 E6.60976
G1 X163.701 Y79.501 E6.64556
G1 X152.284 Y79.501 E6.97268
G1 X152.284 Y80.751 E7.00849
G1 X163.701 Y80.751 E7.33560
G1 X163.701 Y82.001 E7.37141
G1 X152.284 Y82.001 E7.69852
G1 X152.284 Y83.251 E7.73433
G1 X163.700 Y83.251 E8.06143
G1 F1800.000 E7.06143
G92 E0
G1 X166.197 Y87.000 F7800.000
G1 F1800.000 E1.00000
G1 X24.000 Y87.000 F1080.000 E5.07419
G1 X24.000 Y85.750 E5.11000
G1 X166.197 Y85.750 E9.18418
G1 X166.197 Y84.501 E9.21999
G1 X24.000 Y84.501 E13.29418
G1 F1800.000 E12.29418
G92 E0
G1 X26.303 Y83.251 F7800.000
G1 F1800.000 E1.00000
G1 X37.697 Y83.251 F1080.000 E1.32647
G1 X37.697 Y82.001 E1.36228
G1 X26.303 Y82.001 E1.68875
G1 X26.303 Y80.751 E1.72456
G1 X37.697 Y80.751 E2.05104
G1 X37.697 Y79.501 E2.08684
G1 X26.303 Y79.501 E2.41332
G1 X26.303 Y78.252 E2.44913
G1 X37.697 Y78.252 E2.77560
G1 X37.697 Y77.002 E2.81141
G1 X26.303 Y77.002 E3.13788
G1 X26.500 Y75.752 E3.17413
G1 X37.500 Y75.752 E3.48931
G1 X37.500 Y74.502 E3.52511
G1 X26.500 Y74.502 E3.84029
G1 X26.500 Y73.253 E3.87610
G1 X37.500 Y73.253 E4.19127
G1 X37.500 Y72.003 E4.22708
G1 X26.500 Y72.003 E4.54225
G1 X26.500 Y70.753 E4.57806
G1 X37.500 Y70.753 E4.89323
G1 X37.500 Y69.503 E4.92904
G1 X26.500 Y69.503 E5.24422
G1 X26.500 Y68.253 E5.28003
G1 X37.500 Y68.253 E5.59520
G1 X37.500 Y67.004 E5.63101
G1 X26.500 Y67.004 E5.94618
G1 X26.500 Y65.754 E5.98199
G1 X37.500 Y65.754 E6.29716
G1 X37.500 Y64.504 E6.33297
G1 X26.500 Y64.504 E6.64815
G1 X26.500 Y63.254 E6.68395
G1 X37.500 Y63.254 E6.99913
G1 X37.500 Y62.005 E7.03494
G1 X26.500 Y62.005 E7.35011
G1 X26.500 Y60.755 E7.38592
G1 X37.500 Y60.755 E7.70109
G1 X37.500 Y59.505 E7.73690
G1 X26.500 Y59.505 E8.05207
G1 F1800.000 E7.05207
G92 E0
G1 X55.490 Y59.505 F7800.000
G1 F1800.000 E1.00000
G1 X44.390 Y59.505 F1080.000 E1.31804
G1 X44.390 Y60.755 E1.35385
G1 X55.490 Y60.755 E1.67189
G1 X55.490 Y62.005 E1.70769
G1 X44.390 Y62.005 E2.02573
G1 X44.390 Y63.254 E2.06154
G1 X55.490 Y63.254 E2.37958
G1 X55.490 Y64.504 E2.41539
G1 X44.390 Y64.504 E2.73343
G1 X44.390 Y65.754 E2.76924
G1 X55.490 Y65.754 E3.08728
G1 X55.490 Y67.004 E3.12308
G1 X44.390 Y67.004 E3.44112
G1 X44.390 Y68.253 E3.47693
G1 X55.490 Y68.253 E3.79497
G1 X55.490 Y69.503 E3.83078
G1 X44.390 Y69.503 E4.14882
G1 X44.390 Y70.753 E4.18463
G1 X55.490 Y70.753 E4.50267
G1 X55.490 Y72.003 E4.53847
G1 X44.390 Y72.003 E4.85651
G1 X44.390 Y73.253 E4.89232
G1 X55.490 Y73.253 E5.21036
G1 X55.490 Y74.502 E5.24617
G1 X44.390 Y74.502 E5.56421
G1 X44.390 Y75.752 E5.60002
G1 X55.490 Y75.752 E5.91806
G1 X55.687 Y77.002 E5.95431
G1 X44.193 Y77.002 E6.28364
G1 X44.193 Y78.252 E6.31945
G1 X55.687 Y78.252 E6.64879
G1 X55.687 Y79.501 E6.68460
G1 X44.193 Y79.501 E7.01394
G1 X44.193 Y80.751 E7.04975
G1 X55.687 Y80.751 E7.37908
G1 X55.687 Y82.001 E7.41489
G1 X44.193 Y82.001 E7.74423
G1 X44.193 Y83.251 E7.78004
G1 X55.687 Y83.251 E8.10938
G1 F1800.000 E7.10938
G92 E0
G1 X73.682 Y83.251 F7800.000
G1 F1800.000 E1.00000
G1 X62.288 Y83.251 F1080.000 E1.32647
G1 X62.288 Y82.001 E1.36228
G1 X73.682 Y82.001 E1.68875
G1 X73.682 Y80.751 E1.72456
G1 X62.288 Y80.751 E2.05104
G1 X62.288 Y79.501 E2.08684
G1 X73.682 Y79.501 E2.41332
G1 X73.682 Y78.252 E2.44913
G1 X62.288 Y78.252 E2.77560
G1 X62.288 Y77.002 E2.81141
G1 X73.682 Y77.002 E3.13788
G1 X73.485 Y75.752 E3.17413
G1 X62.485 Y75.752 E3.48931
G1 X62.485 Y74.502 E3.52511
G1 X73.485 Y74.502 E3.84029
G1 X73.485 Y73.253 E3.87610
G1 X62.485 Y73.253 E4.19127
G1 X62.485 Y72.003 E4.22708
G1 X73.485 Y72.003 E4.54225
G1 X73.485 Y70.753 E4.57806
G1 X62.485 Y70.753 E4.89323
G1 X62.485 Y69.503 E4.92904
G1 X73.485 Y69.503 E5.24422
G1 X73.485 Y68.253 E5.28003
G1 X62.485 Y68.253 E5.59520
G1 X62.485 Y67.004 E5.63101
G1 X73.485 Y67.004 E5.94618
G1 X73.485 Y65.754 E5.98199
G1 X62.485 Y65.754 E6.29716
G1 X62.485 Y64.504 E6.33297
G1 X73.485 Y64.504 E6.64815
G1 X73.485 Y63.254 E6.68395
G1 X62.485 Y63.254 E6.99913
G1 X62.485 Y62.005 E7.03494
G1 X73.485 Y62.005 E7.35011
G1 X73.485 Y60.755 E7.38592
G1 X62.485 Y60.755 E7.70109
G1 X62.485 Y59.505 E7.73690
G1 X73.485 Y59.505 E8.05207
G1 F1800.000 E7.05207
G92 E0
G1 X91.472 Y59.505 F7800.000
G1 F1800.000 E1.00000
G1 X80.471 Y59.505 F1080.000 E1.31517
G1 X80.471 Y60.755 E1.35098
G1 X91.472 Y60.755 E1.66616
G1 X91.472 Y62.005 E1.70196
G1 X80.471 Y62.005 E2.01714
G1 X80.471 Y63.254 E2.05295
G1 X91.472 Y63.254 E2.36812
G1 X91.472 Y64.504 E2.40393
G1 X80.471 Y64.504 E2.71910
G1 X80.471 Y65.754 E2.75491
G1 X91.472 Y65.754 E3.07008
G1 X91.472 Y67.004 E3.10589
G1 X80.471 Y67.004 E3.42107
G1 X80.471 Y68.253 E3.45687
G1 X91.472 Y68.253 E3.77205
G1 X91.472 Y69.503 E3.80786
G1 X80.471 Y69.503 E4.12303
G1 X80.471 Y70.753 E4.15884
G1 X91.472 Y70.753 E4.47401
G1 X91.472 Y72.003 E4.50982
G1 X80.471 Y72.003 E4.82500
G1 X80.471 Y73.253 E4.86080
G1 X91.472 Y73.253 E5.17598
G1 X91.472 Y74.502 E5.21179
G1 X80.471 Y74.502 E5.52696
G1 X80.471 Y75.752 E5.56277
G1 X91.472 Y75.752 E5.87794
G1 X91.669 Y77.002 E5.91419
G1 X80.274 Y77.002 E6.24067
G1 X80.274 Y78.252 E6.27647
G1 X91.669 Y78.252 E6.60295
G1 X91.669 Y79.501 E6.63876
G1 X80.274 Y79.501 E6.96523
G1 X80.274 Y80.751 E7.00104
G1 X91.669 Y80.751 E7.32751
G1 X91.669 Y82.001 E7.36332
G1 X80.274 Y82.001 E7.68979
G1 X80.274 Y83.251 E7.72560
G1 X91.669 Y83.251 E8.05207
G1 F1800.000 E7.05207
G92 E0
G1 X109.668 Y83.251 F7800.000
G1 F1800.000 E1.00000
G1 X98.273 Y83.251 F1080.000 E1.32647
G1 X98.273 Y82.001 E1.36228
G1 X109.668 Y82.001 E1.68875
G1 X109.668 Y80.751 E1.72456
G1 X98.273 Y80.751 E2.05104
G1 X98.273 Y79.501 E2.08684
G1 X109.668 Y79.501 E2.41332
G1 X109.668 Y78.252 E2.44913
G1 X98.273 Y78.252 E2.77560
G1 X98.273 Y77.002 E2.81141
G1 X109.668 Y77.002 E3.13788
G1 X109.471 Y75.752 E3.17413
G1 X98.470 Y75.752 E3.48931
G1 X98.470 Y74.502 E3.52511
G1 X109.471 Y74.502 E3.84029
G1 X109.471 Y73.253 E3.87610
G1 X98.470 Y73.253 E4.19127
G1 X98.470 Y72.003 E4.22708
G1 X109.471 Y72.003 E4.54225
G1 X109.471 Y70.753 E4.57806
G1 X98.470 Y70.753 E4.89323
G1 X98.470 Y69.503 E4.92904
G1 X109.471 Y69.503 E5.24422
G1 X109.471 Y68.253 E5.28003
G1 X98.470 Y68.253 E5.59520
G1 X98.470 Y67.004 E5.63101
G1 X109.471 Y67.004 E5.94618
G1 X109.471 Y65.754 E5.98199
G1 X98.470 Y65.754 E6.29716
G1 X98.470 Y64.504 E6.33297
G1 X109.471 Y64.504 E6.64815
G1 X109.471 Y63.254 E6.68395
G1 X98.470 Y63.254 E6.99913
G1 X98.470 Y62.005 E7.03494
G1 X109.471 Y62.005 E7.35011
G1 X109.471 Y60.755 E7.38592
G1 X98.470 Y60.755 E7.70109
G1 X98.470 Y59.505 E7.73690
G1 X109.471 Y59.505 E8.05207
G1 F1800.000 E7.05207
G92 E0
G1 X127.499 Y59.505 F7800.000
G1 F1800.000 E1.00000
G1 X116.499 Y59.505 F1080.000 E1.31517
G1 X116.499 Y60.755 E1.35098
G1 X127.499 Y60.755 E1.66616
G1 X127.499 Y62.005 E1.70196
G1 X116.499 Y62.005 E2.01714
G1 X116.499 Y63.254 E2.05295
G1 X127.499 Y63.254 E2.36812
G1 X127.499 Y64.504 E2.40393
G1 X116.499 Y64.504 E2.71910
G1 X116.499 Y65.754 E2.75491
G1 X127.499 Y65.754 E3.07009
G1 X127.499 Y67.004 E3.10589
G1 X116.499 Y67.004 E3.42107
G1 X116.499 Y68.253 E3.45688
G1 X127.499 Y68.253 E3.77205
G1 X127.499 Y69.503 E3.80786
G1 X116.499 Y69.503 E4.12303
G1 X116.499 Y70.753 E4.15884
G1 X127.499 Y70.753 E4.47401
G1 X127.499 Y72.003 E4.50982
G1 X116.499 Y72.003 E4.82500
G1 X116.499 Y73.253 E4.86080
G1 X127.499 Y73.253 E5.17598
G1 X127.499 Y74.502 E5.21179
G1 X116.499 Y74.502 E5.52696
G1 X116.499 Y75.752 E5.56277
G1 X127.499 Y75.752 E5.87794
G1 X127.696 Y77.002 E5.91419
G1 X116.302 Y77.002 E6.24067
G1 X116.302 Y78.252 E6.27648
G1 X127.696 Y78.252 E6.60295
G1 X127.696 Y79.501 E6.63876
G1 X116.302 Y79.501 E6.96523
G1 X116.302 Y80.751 E7.00104
G1 X127.696 Y80.751 E7.32751
G1 X127.696 Y82.001 E7.36332
G1 X116.302 Y82.001 E7.68979
G1 X116.302 Y83.251 E7.72560
G1 X127.696 Y83.251 E8.05207
G1 F1800.000 E7.05207
G92 E0
G1 X145.702 Y83.251 F7800.000
G1 F1800.000 E1.00000
G1 X134.308 Y83.251 F1080.000 E1.32647
G1 X134.308 Y82.001 E1.36228
G1 X145.702 Y82.001 E1.68875
G1 X145.702 Y80.751 E1.72456
G1 X134.308 Y80.751 E2.05104
G1 X134.308 Y79.501 E2.08684
G1 X145.702 Y79.501 E2.41332
G1 X145.702 Y78.252 E2.44913
G1 X134.308 Y78.252 E2.77560
G1 X134.308 Y77.002 E2.81141
G1 X145.702 Y77.002 E3.13788
G1 X145.505 Y75.752 E3.17413
G1 X134.505 Y75.752 E3.48931
G1 X134.505 Y74.502 E3.52511
G1 X145.505 Y74.502 E3.84029
G1 X145.505 Y73.253 E3.87610
G1 X134.505 Y73.253 E4.19127
G1 X134.505 Y72.003 E4.22708
G1 X145.505 Y72.003 E4.54225
G1 X145.505 Y70.753 E4.57806
G1 X134.505 Y70.753 E4.89323
G1 X134.505 Y69.503 E4.92904
G1 X145.505 Y69.503 E5.24422
G1 X145.505 Y68.253 E5.28003
G1 X134.505 Y68.253 E5.59520
G1 X134.505 Y67.004 E5.63101
G1 X145.505 Y67.004 E5.94618
G1 X145.505 Y65.754 E5.98199
G1 X134.505 Y65.754 E6.29716
G1 X134.505 Y64.504 E6.33297
G1 X145.505 Y64.504 E6.64815
G1 X145.505 Y63.254 E6.68395
G1 X134.505 Y63.254 E6.99913
G1 X134.505 Y62.005 E7.03494
G1 X145.505 Y62.005 E7.35011
G1 X145.505 Y60.755 E7.38592
G1 X134.505 Y60.755 E7.70109
G1 X134.505 Y59.505 E7.73690
G1 X145.505 Y59.505 E8.05207
M106 S183
M104 S215 ; set temperature
G1 F1800.000 E7.05207
G92 E0
G1 Z0.500 F7800.000
G1 X167.243 Y49.500
G1 X145.505 Y52.578
G1 F1800.000 E1.00000
G1 X144.000 Y52.697 F3600.000 E1.01142
G1 X144.000 Y76.903 E1.19447
G1 X136.500 Y76.903 F7800.000
G1 X136.500 Y52.697 F3600.000 E1.37753
G1 F1800.000 E0.37753
G92 E0
G1 X127.499 Y52.618 F7800.000
G1 F1800.000 E1.00000
G1 X126.500 Y52.697 F3600.000 E1.00758
G1 X126.500 Y76.903 E1.19063
G1 X124.000 Y76.903 F7800.000
G1 X124.000 Y52.697 F3600.000 E1.37369
G1 X121.500 Y52.697 E1.39260
G1 X121.500 Y87.500 E1.65579
G1 X119.000 Y76.903 F7800.000
G1 X119.000 Y52.697 F3600.000 E1.83884
G1 X116.500 Y52.697 E1.85775
G1 X116.500 Y76.903 E2.04080
G1 F1800.000 E1.04080
G92 E0
G1 X109.000 Y76.903 F7800.000
G1 F1800.000 E1.00000
G1 X109.000 Y52.697 F3600.000 E1.18306
G1 X106.500 Y52.697 E1.20196
G1 X106.500 Y76.903 E1.38502
G1 X101.500 Y76.903 F7800.000
G1 X101.500 Y52.697 F3600.000 E1.56807
G1 X104.000 Y52.697 E1.58698
G1 X104.000 Y87.500 E1.85017
G1 X99.000 Y76.903 F7800.000
G1 X99.000 Y52.697 F3600.000 E2.03323
G1 F1800.000 E1.03323
G92 E0
G1 X91.472 Y52.502 F7800.000
G1 F1800.000 E1.00000
G1 X89.000 Y52.697 F3600.000 E1.01875
G1 X89.000 Y76.903 E1.20180
G1 X84.000 Y76.903 F7800.000
G1 X84.000 Y52.697 F3600.000 E1.38486
G1 X86.500 Y52.697 E1.40377
G1 X86.500 Y87.500 E1.66696
G1 X81.500 Y76.903 F7800.000
G1 X81.500 Y52.697 F3600.000 E1.85001
G1 X80.472 Y52.616 E1.85781
G1 F1800.000 E0.85781
G92 E0
G1 X71.500 Y76.903 F7800.000
G1 F1800.000 E1.00000
G1 X71.500 Y52.697 F3600.000 E1.18306
G1 X69.000 Y52.697 E1.20196
G1 X69.000 Y87.500 E1.46515
G1 X66.500 Y87.500 F7800.000
G1 X66.500 Y52.697 F3600.000 E1.72834
G1 X64.000 Y52.697 E1.74725
G1 X64.000 Y76.903 E1.93031
G1 F1800.000 E0.93031
G92 E0
G1 X54.000 Y76.903 F7800.000
G1 F1800.000 E1.00000
G1 X54.000 Y52.697 F3600.000 E1.18306
G1 X51.500 Y52.697 E1.20196
G1 X51.500 Y87.500 E1.46515
G1 X49.000 Y87.500 F7800.000
G1 X49.000 Y52.697 F3600.000 E1.72834
G1 X46.500 Y52.697 E1.74725
G1 X46.500 Y76.903 E1.93031
G1 F1800.000 E0.93031
G92 E0
G1 X36.500 Y76.903 F7800.000
G1 F1800.000 E1.00000
G1 X36.500 Y52.697 F3600.000 E1.18306
G1 X34.000 Y52.697 E1.20196
G1 X34.000 Y87.500 E1.46515
G1 X31.500 Y87.500 F7800.000
G1 X31.500 Y52.697 F3600.000 E1.72834
G1 X29.000 Y52.697 E1.74725
G1 X29.000 Y76.903 E1.93031
G1 X26.500 Y76.903 F7800.000
G1 X26.500 Y76.903 F3600.000 E1.93031
G1 X26.500 Y58.500 F7800.000
G1 X26.500 Y52.500 F3600.000 E1.97568
G1 F1800.000 E0.97568
G92 E0
G1 X139.000 Y87.500 F7800.000
G1 F1800.000 E1.00000
G1 X139.000 Y52.697 F3600.000 E1.26319
G1 X141.500 Y52.697 E1.28210
G1 X141.500 Y87.500 E1.54529
G1 X156.500 Y87.500 F7800.000
G1 X156.500 Y52.697 F3600.000 E1.80848
G1 X159.000 Y52.697 E1.82739
G1 X159.000 Y87.500 E2.09058
G1 X161.500 Y76.903 F7800.000
G1 X161.500 Y52.697 F3600.000 E2.27363
G1 X154.000 Y52.697 F7800.000
G1 X154.000 Y76.903 F3600.000 E2.45669
G1 F1800.000 E1.45669
G92 E0
G1 Z0.600 F7800.000
G1 X146.500 Y84.500
G1 F1800.000 E1.00000
G1 X146.500 Y87.500 F3600.000 E1.03781
G1 X149.000 Y87.500 E1.06932
G1 X149.000 Y84.500 E1.10714
G1 X151.500 Y84.500 E1.13865
G1 X151.500 Y87.500 E1.17646
G1 X164.000 Y87.500 F7800.000
G1 X164.000 Y84.500 F3600.000 E1.21428
G1 F1800.000 E0.21428
G92 E0
G1 X164.000 Y58.500 F7800.000
G1 F1800.000 E1.00000
G1 X164.000 Y52.500 F3600.000 E1.07562
G1 F1800.000 E0.07562
G92 E0
G1 X161.500 Y52.697 F7800.000
G1 F1800.000 E1.00000
G1 X161.500 Y87.500 F3600.000 E1.43865
G1 X159.000 Y87.500 E1.47016
G1 X159.000 Y52.697 E1.90882
