; generated by Slic3r 0.9.10b on 2013-08-12 at 09:42:50

; layer_height = 0.25
; perimeters = 5
; top_solid_layers = 3
; bottom_solid_layers = 3
; fill_density = 0
; perimeter_speed = 30
; infill_speed = 70
; travel_speed = 130
; nozzle_diameter = 0.35
; filament_diameter = 3
; extrusion_multiplier = .926
; perimeters extrusion width = 0.39mm
; infill extrusion width = 0.39mm
; solid infill extrusion width = 0.39mm
; top infill extrusion width = 0.39mm
; support material extrusion width = 0.39mm
; first layer extrusion width = 0.70mm

G21 ; set units to millimeters
M107
M190 S60 ; wait for bed temperature to be reached
M104 S220 ; set temperature
G28 ; home all axes
G1 Z5 F5000 ; lift nozzle
M109 S220 ; wait for temperature to be reached
G90 ; use absolute coordinates
G92 E0
M82 ; use absolute distances for extrusion
G1 F1800.000 E-1.00000
G92 E0
G1 Z0.350 F7800.000
G1 X26.460 Y77.130
G1 F1800.000 E1.00000
G1 X27.710 Y76.750 F540.000 E1.03743
G1 X29.000 Y76.630 E1.07455
G1 X171.190 Y76.630 E5.14853
G1 X172.480 Y76.750 E5.18565
G1 X173.730 Y77.130 E5.22309
G1 X174.870 Y77.740 E5.26013
G1 X175.870 Y78.570 E5.29737
G1 X176.700 Y79.570 E5.33460
G1 X177.310 Y80.710 E5.37165
G1 X177.690 Y81.960 E5.40908
G1 X177.810 Y83.250 E5.44620
G1 X177.810 Y117.000 E6.41319
G1 X177.690 Y118.290 E6.45031
G1 X177.310 Y119.540 E6.48775
G1 X176.700 Y120.680 E6.52479
G1 X175.870 Y121.680 E6.56203
G1 X174.870 Y122.510 E6.59926
G1 X173.730 Y123.120 E6.63631
G1 X172.480 Y123.500 E6.67374
G1 X171.190 Y123.620 E6.71086
G1 X29.000 Y123.620 E10.78484
G1 X27.710 Y123.500 E10.82196
G1 X26.460 Y123.120 E10.85939
G1 X25.320 Y122.510 E10.89644
G1 X24.320 Y121.680 E10.93367
G1 X23.490 Y120.680 E10.97091
G1 X22.880 Y119.540 E11.00795
G1 X22.500 Y118.290 E11.04538
G1 X22.380 Y117.000 E11.08250
G1 X22.380 Y83.250 E12.04950
G1 X22.500 Y81.960 E12.08662
G1 X22.880 Y80.710 E12.12405
G1 X23.490 Y79.570 E12.16110
G1 X24.320 Y78.570 E12.19833
G1 X25.320 Y77.740 E12.23557
G1 X26.377 Y77.174 E12.26993
G1 F1800.000 E11.26993
G92 E0
G1 X29.000 Y88.255 F7800.000
G1 F1800.000 E1.00000
G1 X168.486 Y88.255 F1080.000 E4.99652
G1 X168.485 Y87.005 E5.03233
G1 X29.000 Y87.005 E9.02881
G1 X29.000 Y85.756 E9.06462
G1 X168.484 Y85.756 E13.06107
G1 X168.483 Y84.506 E13.09688
G1 X29.000 Y84.506 E17.09330
G1 X29.000 Y83.256 E17.12911
G1 X168.482 Y83.256 E21.12549
G1 X168.482 Y83.256 F7800.000
G1 X171.197 Y83.256 F1080.000 E21.20330
G1 X171.197 Y84.506 E21.23911
G1 X168.483 Y84.506 E21.31688
G1 X168.484 Y85.756 E21.35269
G1 X171.197 Y85.756 E21.43043
G1 X171.197 Y87.005 E21.46624
G1 X168.485 Y87.005 E21.54395
G1 X168.486 Y88.255 E21.57976
G1 X171.197 Y88.255 E21.65743
G1 F1800.000 E20.65743
G92 E0
G1 X174.000 Y81.257 F7800.000
G1 X168.488 Y89.505
G1 F1800.000 E1.00000
G1 X157.481 Y89.505 F1080.000 E1.31536
G1 X157.481 Y90.755 E1.35117
G1 X168.489 Y90.755 E1.66656
G1 X168.490 Y92.005 E1.70237
G1 X157.481 Y92.005 E2.01779
G1 X157.481 Y93.254 E2.05360
G1 X168.491 Y93.254 E2.36905
G1 X168.492 Y94.504 E2.40486
G1 X157.481 Y94.504 E2.72035
G1 X157.481 Y95.754 E2.75616
G1 X168.493 Y95.754 E3.07168
G1 X168.494 Y97.004 E3.10749
G1 X157.481 Y97.004 E3.42305
G1 X157.481 Y98.253 E3.45885
G1 X168.496 Y98.253 E3.77444
G1 X168.497 Y99.503 E3.81025
G1 X157.481 Y99.503 E4.12587
G1 X157.481 Y100.753 E4.16168
G1 X168.498 Y100.753 E4.47733
G1 X168.499 Y102.003 E4.51314
G1 X157.481 Y102.003 E4.82883
G1 X157.481 Y103.253 E4.86463
G1 X168.500 Y103.253 E5.18035
G1 X168.501 Y104.502 E5.21616
G1 X157.481 Y104.502 E5.53191
G1 X157.481 Y105.752 E5.56772
G1 X168.502 Y105.752 E5.88351
G1 X168.699 Y107.002 E5.91976
G1 X157.284 Y107.002 E6.24684
G1 X157.284 Y108.252 E6.28265
G1 X168.701 Y108.252 E6.60976
G1 X168.701 Y109.501 E6.64556
G1 X157.284 Y109.501 E6.97268
G1 X157.284 Y110.751 E7.00849
G1 X168.701 Y110.751 E7.33560
G1 X168.701 Y112.001 E7.37141
G1 X157.284 Y112.001 E7.69852
G1 X157.284 Y113.251 E7.73433
G1 X168.700 Y113.251 E8.06143
G1 F1800.000 E7.06143
G92 E0
G1 X171.197 Y117.000 F7800.000
G1 F1800.000 E1.00000
G1 X29.000 Y117.000 F1080.000 E5.07419
G1 X29.000 Y115.750 E5.11000
G1 X171.197 Y115.750 E9.18418
G1 X171.197 Y114.501 E9.21999
G1 X29.000 Y114.501 E13.29418
G1 F1800.000 E12.29418
G92 E0
G1 X31.303 Y113.251 F7800.000
G1 F1800.000 E1.00000
G1 X42.697 Y113.251 F1080.000 E1.32647
G1 X42.697 Y112.001 E1.36228
G1 X31.303 Y112.001 E1.68875
G1 X31.303 Y110.751 E1.72456
G1 X42.697 Y110.751 E2.05104
G1 X42.697 Y109.501 E2.08684
G1 X31.303 Y109.501 E2.41332
G1 X31.303 Y108.252 E2.44913
G1 X42.697 Y108.252 E2.77560
G1 X42.697 Y107.002 E2.81141
G1 X31.303 Y107.002 E3.13788
G1 X31.500 Y105.752 E3.17413
G1 X42.500 Y105.752 E3.48931
G1 X42.500 Y104.502 E3.52511
G1 X31.500 Y104.502 E3.84029
G1 X31.500 Y103.253 E3.87610
G1 X42.500 Y103.253 E4.19127
G1 X42.500 Y102.003 E4.22708
G1 X31.500 Y102.003 E4.54225
G1 X31.500 Y100.753 E4.57806
G1 X42.500 Y100.753 E4.89323
G1 X42.500 Y99.503 E4.92904
G1 X31.500 Y99.503 E5.24422
G1 X31.500 Y98.253 E5.28003
G1 X42.500 Y98.253 E5.59520
G1 X42.500 Y97.004 E5.63101
G1 X31.500 Y97.004 E5.94618
G1 X31.500 Y95.754 E5.98199
G1 X42.500 Y95.754 E6.29716
G1 X42.500 Y94.504 E6.33297
G1 X31.500 Y94.504 E6.64815
G1 X31.500 Y93.254 E6.68395
G1 X42.500 Y93.254 E6.99913
G1 X42.500 Y92.005 E7.03494
G1 X31.500 Y92.005 E7.35011
G1 X31.500 Y90.755 E7.38592
G1 X42.500 Y90.755 E7.70109
G1 X42.500 Y89.505 E7.73690
G1 X31.500 Y89.505 E8.05207
G1 F1800.000 E7.05207
G92 E0
G1 X60.490 Y89.505 F7800.000
G1 F1800.000 E1.00000
G1 X49.390 Y89.505 F1080.000 E1.31804
G1 X49.390 Y90.755 E1.35385
G1 X60.490 Y90.755 E1.67189
G1 X60.490 Y92.005 E1.70769
G1 X49.390 Y92.005 E2.02573
G1 X49.390 Y93.254 E2.06154
G1 X60.490 Y93.254 E2.37958
G1 X60.490 Y94.504 E2.41539
G1 X49.390 Y94.504 E2.73343
G1 X49.390 Y95.754 E2.76924
G1 X60.490 Y95.754 E3.08728
G1 X60.490 Y97.004 E3.12308
G1 X49.390 Y97.004 E3.44112
G1 X49.390 Y98.253 E3.47693
G1 X60.490 Y98.253 E3.79497
G1 X60.490 Y99.503 E3.83078
G1 X49.390 Y99.503 E4.14882
G1 X49.390 Y100.753 E4.18463
G1 X60.490 Y100.753 E4.50267
G1 X60.490 Y102.003 E4.53847
G1 X49.390 Y102.003 E4.85651
G1 X49.390 Y103.253 E4.89232
G1 X60.490 Y103.253 E5.21036
G1 X60.490 Y104.502 E5.24617
G1 X49.390 Y104.502 E5.56421
G1 X49.390 Y105.752 E5.60002
G1 X60.490 Y105.752 E5.91806
G1 X60.687 Y107.002 E5.95431
G1 X49.193 Y107.002 E6.28364
G1 X49.193 Y108.252 E6.31945
G1 X60.687 Y108.252 E6.64879
G1 X60.687 Y109.501 E6.68460
G1 X49.193 Y109.501 E7.01394
G1 X49.193 Y110.751 E7.04975
G1 X60.687 Y110.751 E7.37908
G1 X60.687 Y112.001 E7.41489
G1 X49.193 Y112.001 E7.74423
G1 X49.193 Y113.251 E7.78004
G1 X60.687 Y113.251 E8.10938
G1 F1800.000 E7.10938
G92 E0
G1 X78.682 Y113.251 F7800.000
G1 F1800.000 E1.00000
G1 X67.288 Y113.251 F1080.000 E1.32647
G1 X67.288 Y112.001 E1.36228
G1 X78.682 Y112.001 E1.68875
G1 X78.682 Y110.751 E1.72456
G1 X67.288 Y110.751 E2.05104
G1 X67.288 Y109.501 E2.08684
G1 X78.682 Y109.501 E2.41332
G1 X78.682 Y108.252 E2.44913
G1 X67.288 Y108.252 E2.77560
G1 X67.288 Y107.002 E2.81141
G1 X78.682 Y107.002 E3.13788
G1 X78.485 Y105.752 E3.17413
G1 X67.485 Y105.752 E3.48931
G1 X67.485 Y104.502 E3.52511
G1 X78.485 Y104.502 E3.84029
G1 X78.485 Y103.253 E3.87610
G1 X67.485 Y103.253 E4.19127
G1 X67.485 Y102.003 E4.22708
G1 X78.485 Y102.003 E4.54225
G1 X78.485 Y100.753 E4.57806
G1 X67.485 Y100.753 E4.89323
G1 X67.485 Y99.503 E4.92904
G1 X78.485 Y99.503 E5.24422
G1 X78.485 Y98.253 E5.28003
G1 X67.485 Y98.253 E5.59520
G1 X67.485 Y97.004 E5.63101
G1 X78.485 Y97.004 E5.94618
G1 X78.485 Y95.754 E5.98199
G1 X67.485 Y95.754 E6.29716
G1 X67.485 Y94.504 E6.33297
G1 X78.485 Y94.504 E6.64815
G1 X78.485 Y93.254 E6.68395
G1 X67.485 Y93.254 E6.99913
G1 X67.485 Y92.005 E7.03494
G1 X78.485 Y92.005 E7.35011
G1 X78.485 Y90.755 E7.38592
G1 X67.485 Y90.755 E7.70109
G1 X67.485 Y89.505 E7.73690
G1 X78.485 Y89.505 E8.05207
G1 F1800.000 E7.05207
G92 E0
G1 X96.472 Y89.505 F7800.000
G1 F1800.000 E1.00000
G1 X85.471 Y89.505 F1080.000 E1.31517
G1 X85.471 Y90.755 E1.35098
G1 X96.472 Y90.755 E1.66616
G1 X96.472 Y92.005 E1.70196
G1 X85.471 Y92.005 E2.01714
G1 X85.471 Y93.254 E2.05295
G1 X96.472 Y93.254 E2.36812
G1 X96.472 Y94.504 E2.40393
G1 X85.471 Y94.504 E2.71910
G1 X85.471 Y95.754 E2.75491
G1 X96.472 Y95.754 E3.07008
G1 X96.472 Y97.004 E3.10589
G1 X85.471 Y97.004 E3.42107
G1 X85.471 Y98.253 E3.45687
G1 X96.472 Y98.253 E3.77205
G1 X96.472 Y99.503 E3.80786
G1 X85.471 Y99.503 E4.12303
G1 X85.471 Y100.753 E4.15884
G1 X96.472 Y100.753 E4.47401
G1 X96.472 Y102.003 E4.50982
G1 X85.471 Y102.003 E4.82500
G1 X85.471 Y103.253 E4.86080
G1 X96.472 Y103.253 E5.17598
G1 X96.472 Y104.502 E5.21179
G1 X85.471 Y104.502 E5.52696
G1 X85.471 Y105.752 E5.56277
G1 X96.472 Y105.752 E5.87794
G1 X96.669 Y107.002 E5.91419
G1 X85.274 Y107.002 E6.24067
G1 X85.274 Y108.252 E6.27647
G1 X96.669 Y108.252 E6.60295
G1 X96.669 Y109.501 E6.63876
G1 X85.274 Y109.501 E6.96523
G1 X85.274 Y110.751 E7.00104
G1 X96.669 Y110.751 E7.32751
G1 X96.669 Y112.001 E7.36332
G1 X85.274 Y112.001 E7.68979
G1 X85.274 Y113.251 E7.72560
G1 X96.669 Y113.251 E8.05207
G1 F1800.000 E7.05207
G92 E0
G1 X114.668 Y113.251 F7800.000
G1 F1800.000 E1.00000
G1 X103.273 Y113.251 F1080.000 E1.32647
G1 X103.273 Y112.001 E1.36228
G1 X114.668 Y112.001 E1.68875
G1 X114.668 Y110.751 E1.72456
G1 X103.273 Y110.751 E2.05104
G1 X103.273 Y109.501 E2.08684
G1 X114.668 Y109.501 E2.41332
G1 X114.668 Y108.252 E2.44913
G1 X103.273 Y108.252 E2.77560
G1 X103.273 Y107.002 E2.81141
G1 X114.668 Y107.002 E3.13788
G1 X114.471 Y105.752 E3.17413
G1 X103.470 Y105.752 E3.48931
G1 X103.470 Y104.502 E3.52511
G1 X114.471 Y104.502 E3.84029
G1 X114.471 Y103.253 E3.87610
G1 X103.470 Y103.253 E4.19127
G1 X103.470 Y102.003 E4.22708
G1 X114.471 Y102.003 E4.54225
G1 X114.471 Y100.753 E4.57806
G1 X103.470 Y100.753 E4.89323
G1 X103.470 Y99.503 E4.92904
G1 X114.471 Y99.503 E5.24422
G1 X114.471 Y98.253 E5.28003
G1 X103.470 Y98.253 E5.59520
G1 X103.470 Y97.004 E5.63101
G1 X114.471 Y97.004 E5.94618
G1 X114.471 Y95.754 E5.98199
G1 X103.470 Y95.754 E6.29716
G1 X103.470 Y94.504 E6.33297
G1 X114.471 Y94.504 E6.64815
G1 X114.471 Y93.254 E6.68395
G1 X103.470 Y93.254 E6.99913
G1 X103.470 Y92.005 E7.03494
G1 X114.471 Y92.005 E7.35011
G1 X114.471 Y90.755 E7.38592
G1 X103.470 Y90.755 E7.70109
G1 X103.470 Y89.505 E7.73690
G1 X114.471 Y89.505 E8.05207
G1 F1800.000 E7.05207
G92 E0
G1 X132.499 Y89.505 F7800.000
G1 F1800.000 E1.00000
G1 X121.499 Y89.505 F1080.000 E1.31517
G1 X121.499 Y90.755 E1.35098
G1 X132.499 Y90.755 E1.66616
G1 X132.499 Y92.005 E1.70196
G1 X121.499 Y92.005 E2.01714
G1 X121.499 Y93.254 E2.05295
G1 X132.499 Y93.254 E2.36812
G1 X132.499 Y94.504 E2.40393
G1 X121.499 Y94.504 E2.71910
G1 X121.499 Y95.754 E2.75491
G1 X132.499 Y95.754 E3.07009
G1 X132.499 Y97.004 E3.10589
G1 X121.499 Y97.004 E3.42107
G1 X121.499 Y98.253 E3.45688
G1 X132.499 Y98.253 E3.77205
G1 X132.499 Y99.503 E3.80786
G1 X121.499 Y99.503 E4.12303
G1 X121.499 Y100.753 E4.15884
G1 X132.499 Y100.753 E4.47401
G1 X132.499 Y102.003 E4.50982
G1 X121.499 Y102.003 E4.82500
G1 X121.499 Y103.253 E4.86080
G1 X132.499 Y103.253 E5.17598
G1 X132.499 Y104.502 E5.21179
G1 X121.499 Y104.502 E5.52696
G1 X121.499 Y105.752 E5.56277
G1 X132.499 Y105.752 E5.87794
G1 X132.696 Y107.002 E5.91419
G1 X121.302 Y107.002 E6.24067
G1 X121.302 Y108.252 E6.27648
G1 X132.696 Y108.252 E6.60295
G1 X132.696 Y109.501 E6.63876
G1 X121.302 Y109.501 E6.96523
G1 X121.302 Y110.751 E7.00104
G1 X132.696 Y110.751 E7.32751
G1 X132.696 Y112.001 E7.36332
G1 X121.302 Y112.001 E7.68979
G1 X121.302 Y113.251 E7.72560
G1 X132.696 Y113.251 E8.05207
G1 F1800.000 E7.05207
G92 E0
G1 X150.702 Y113.251 F7800.000
G1 F1800.000 E1.00000
G1 X139.308 Y113.251 F1080.000 E1.32647
G1 X139.308 Y112.001 E1.36228
G1 X150.702 Y112.001 E1.68875
G1 X150.702 Y110.751 E1.72456
G1 X139.308 Y110.751 E2.05104
G1 X139.308 Y109.501 E2.08684
G1 X150.702 Y109.501 E2.41332
G1 X150.702 Y108.252 E2.44913
G1 X139.308 Y108.252 E2.77560
G1 X139.308 Y107.002 E2.81141
G1 X150.702 Y107.002 E3.13788
G1 X150.505 Y105.752 E3.17413
G1 X139.505 Y105.752 E3.48931
G1 X139.505 Y104.502 E3.52511
G1 X150.505 Y104.502 E3.84029
G1 X150.505 Y103.253 E3.87610
G1 X139.505 Y103.253 E4.19127
G1 X139.505 Y102.003 E4.22708
G1 X150.505 Y102.003 E4.54225
G1 X150.505 Y100.753 E4.57806
G1 X139.505 Y100.753 E4.89323
G1 X139.505 Y99.503 E4.92904
G1 X150.505 Y99.503 E5.24422
G1 X150.505 Y98.253 E5.28003
G1 X139.505 Y98.253 E5.59520
G1 X139.505 Y97.004 E5.63101
G1 X150.505 Y97.004 E5.94618
G1 X150.505 Y95.754 E5.98199
G1 X139.505 Y95.754 E6.29716
G1 X139.505 Y94.504 E6.33297
G1 X150.505 Y94.504 E6.64815
G1 X150.505 Y93.254 E6.68395
G1 X139.505 Y93.254 E6.99913
G1 X139.505 Y92.005 E7.03494
G1 X150.505 Y92.005 E7.35011
G1 X150.505 Y90.755 E7.38592
G1 X139.505 Y90.755 E7.70109
G1 X139.505 Y89.505 E7.73690
G1 X150.505 Y89.505 E8.05207
M106 S183
M104 S215 ; set temperature
G1 F1800.000 E7.05207
G92 E0
G1 Z0.500 F7800.000
G1 X172.243 Y79.500
G1 X150.505 Y82.578
G1 F1800.000 E1.00000
G1 X149.000 Y82.697 F3600.000 E1.01142
G1 X149.000 Y106.903 E1.19447
G1 X141.500 Y106.903 F7800.000
G1 X141.500 Y82.697 F3600.000 E1.37753
G1 F1800.000 E0.37753
G92 E0
G1 X132.499 Y82.618 F7800.000
G1 F1800.000 E1.00000
G1 X131.500 Y82.697 F3600.000 E1.00758
G1 X131.500 Y106.903 E1.19063
G1 X129.000 Y106.903 F7800.000
G1 X129.000 Y82.697 F3600.000 E1.37369
G1 X126.500 Y82.697 E1.39260
G1 X126.500 Y117.500 E1.65579
G1 X124.000 Y106.903 F7800.000
G1 X124.000 Y82.697 F3600.000 E1.83884
G1 X121.500 Y82.697 E1.85775
G1 X121.500 Y106.903 E2.04080
G1 F1800.000 E1.04080
G92 E0
G1 X114.000 Y106.903 F7800.000
G1 F1800.000 E1.00000
G1 X114.000 Y82.697 F3600.000 E1.18306
G1 X111.500 Y82.697 E1.20196
G1 X111.500 Y106.903 E1.38502
G1 X106.500 Y106.903 F7800.000
G1 X106.500 Y82.697 F3600.000 E1.56807
G1 X109.000 Y82.697 E1.58698
G1 X109.000 Y117.500 E1.85017
G1 X104.000 Y106.903 F7800.000
G1 X104.000 Y82.697 F3600.000 E2.03323
G1 F1800.000 E1.03323
G92 E0
G1 X96.472 Y82.502 F7800.000
G1 F1800.000 E1.00000
G1 X94.000 Y82.697 F3600.000 E1.01875
G1 X94.000 Y106.903 E1.20180
G1 X89.000 Y106.903 F7800.000
G1 X89.000 Y82.697 F3600.000 E1.38486
G1 X91.500 Y82.697 E1.40377
G1 X91.500 Y117.500 E1.66696
G1 X86.500 Y106.903 F7800.000
G1 X86.500 Y82.697 F3600.000 E1.85001
G1 X85.472 Y82.616 E1.85781
G1 F1800.000 E0.85781
G92 E0
G1 X76.500 Y106.903 F7800.000
G1 F1800.000 E1.00000
G1 X76.500 Y82.697 F3600.000 E1.18306
G1 X74.000 Y82.697 E1.20196
G1 X74.000 Y117.500 E1.46515
G1 X71.500 Y117.500 F7800.000
G1 X71.500 Y82.697 F3600.000 E1.72834
G1 X69.000 Y82.697 E1.74725
G1 X69.000 Y106.903 E1.93031
G1 F1800.000 E0.93031
G92 E0
G1 X59.000 Y106.903 F7800.000
G1 F1800.000 E1.00000
G1 X59.000 Y82.697 F3600.000 E1.18306
G1 X56.500 Y82.697 E1.20196
G1 X56.500 Y117.500 E1.46515
G1 X54.000 Y117.500 F7800.000
G1 X54.000 Y82.697 F3600.000 E1.72834
G1 X51.500 Y82.697 E1.74725
G1 X51.500 Y106.903 E1.93031
G1 F1800.000 E0.93031
G92 E0
G1 X41.500 Y106.903 F7800.000
G1 F1800.000 E1.00000
G1 X41.500 Y82.697 F3600.000 E1.18306
G1 X39.000 Y82.697 E1.20196
G1 X39.000 Y117.500 E1.46515
G1 X36.500 Y117.500 F7800.000
G1 X36.500 Y82.697 F3600.000 E1.72834
G1 X34.000 Y82.697 E1.74725
G1 X34.000 Y106.903 E1.93031
G1 X31.500 Y106.903 F7800.000
G1 X31.500 Y106.903 F3600.000 E1.93031
G1 X31.500 Y88.500 F7800.000
G1 X31.500 Y82.500 F3600.000 E1.97568
G1 F1800.000 E0.97568
G92 E0
G1 X144.000 Y117.500 F7800.000
G1 F1800.000 E1.00000
G1 X144.000 Y82.697 F3600.000 E1.26319
G1 X146.500 Y82.697 E1.28210
G1 X146.500 Y117.500 E1.54529
G1 X161.500 Y117.500 F7800.000
G1 X161.500 Y82.697 F3600.000 E1.80848
G1 X164.000 Y82.697 E1.82739
G1 X164.000 Y117.500 E2.09058
G1 X166.500 Y106.903 F7800.000
G1 X166.500 Y82.697 F3600.000 E2.27363
G1 X159.000 Y82.697 F7800.000
G1 X159.000 Y106.903 F3600.000 E2.45669
G1 F1800.000 E1.45669
G92 E0
G1 Z0.600 F7800.000
G1 X151.500 Y114.500
G1 F1800.000 E1.00000
G1 X151.500 Y117.500 F3600.000 E1.03781
G1 X154.000 Y117.500 E1.06932
G1 X154.000 Y114.500 E1.10714
G1 X156.500 Y114.500 E1.13865
G1 X156.500 Y117.500 E1.17646
G1 X169.000 Y117.500 F7800.000
G1 X169.000 Y114.500 F3600.000 E1.21428
G1 F1800.000 E0.21428
G92 E0
