; generated by Slic3r 0.9.10b on 2013-08-15 at 11:29:46

; layer_height = 0.25
; perimeters = 5
; top_solid_layers = 3
; bottom_solid_layers = 3
; fill_density = .2
; perimeter_speed = 30
; infill_speed = 70
; travel_speed = 130
; nozzle_diameter = 0.35
; filament_diameter = 3
; extrusion_multiplier = .926
; perimeters extrusion width = 0.39mm
; infill extrusion width = 0.39mm
; solid infill extrusion width = 0.39mm
; top infill extrusion width = 0.39mm
; support material extrusion width = 0.39mm
; first layer extrusion width = 0.70mm

G21 ; set units to millimeters
M107
M190 S60 ; wait for bed temperature to be reached
M104 S220 ; set temperature
G28 ; home all axes
G1 Z5 F5000 ; lift nozzle
M109 S220 ; wait for temperature to be reached
G90 ; use absolute coordinates
G92 E0
M82 ; use absolute distances for extrusion
G1 F1800.000 E-1.00000
G92 E0
G1 Z0.350 F7800.000
G1 X23.950 Y47.130
G1 F1800.000 E1.00000
G1 X25.200 Y46.750 F540.000 E1.03743
G1 X26.490 Y46.630 E1.07455
G1 X163.480 Y46.630 E4.99954
G1 X164.770 Y46.750 E5.03666
G1 X166.020 Y47.130 E5.07410
G1 X167.160 Y47.740 E5.11114
G1 X168.160 Y48.570 E5.14838
G1 X168.990 Y49.570 E5.18561
G1 X169.600 Y50.710 E5.22266
G1 X169.980 Y51.960 E5.26009
G1 X170.100 Y53.250 E5.29721
G1 X170.120 Y75.750 E5.94187
G1 X170.050 Y76.760 E5.97088
G1 X169.820 Y77.750 E6.00000
G1 X166.260 Y89.000 E6.33809
G1 X165.700 Y90.280 E6.37812
G1 X164.890 Y91.410 E6.41795
G1 X163.850 Y92.340 E6.45793
G1 X162.650 Y93.050 E6.49787
G1 X161.330 Y93.480 E6.53765
G1 X159.940 Y93.620 E6.57768
G1 X29.990 Y93.620 E10.30096
G1 X28.600 Y93.480 E10.34099
G1 X27.270 Y93.040 E10.38113
G1 X26.060 Y92.340 E10.42118
G1 X25.030 Y91.390 E10.46133
G1 X24.220 Y90.250 E10.50139
G1 X23.660 Y88.970 E10.54142
G1 X20.160 Y77.720 E10.87899
G1 X19.940 Y76.750 E10.90749
G1 X19.870 Y75.750 E10.93621
G1 X19.870 Y53.250 E11.58088
G1 X19.990 Y51.960 E11.61800
G1 X20.370 Y50.710 E11.65543
G1 X20.980 Y49.570 E11.69247
G1 X21.810 Y48.570 E11.72971
G1 X22.810 Y47.740 E11.76694
G1 X23.867 Y47.174 E11.80130
G1 F1800.000 E10.80130
G92 E0
G1 X37.500 Y53.256 F7800.000
G1 F1800.000 E1.00000
G1 X26.500 Y53.256 F1080.000 E1.31517
G1 X26.500 Y54.506 E1.35098
G1 X37.500 Y54.506 E1.66616
G1 X37.500 Y55.756 E1.70196
G1 X26.500 Y55.756 E2.01714
G1 X26.500 Y57.005 E2.05295
G1 X37.500 Y57.005 E2.36812
G1 X37.500 Y58.255 E2.40393
G1 X26.500 Y58.255 E2.71910
G1 X26.500 Y59.505 E2.75491
G1 X37.500 Y59.505 E3.07009
G1 X37.500 Y60.755 E3.10589
G1 X26.500 Y60.755 E3.42107
G1 X26.500 Y62.005 E3.45688
G1 X37.500 Y62.005 E3.77205
G1 X37.500 Y63.254 E3.80786
G1 X26.500 Y63.254 E4.12303
G1 X26.500 Y64.504 E4.15884
G1 X37.500 Y64.504 E4.47401
G1 X37.500 Y65.754 E4.50982
G1 X26.500 Y65.754 E4.82500
G1 X26.500 Y67.004 E4.86080
G1 X37.500 Y67.004 E5.17598
G1 X37.500 Y68.253 E5.21179
G1 X26.500 Y68.253 E5.52696
G1 X26.500 Y69.503 E5.56277
G1 X37.500 Y69.503 E5.87794
G1 X37.500 Y70.753 E5.91375
G1 X26.500 Y70.753 E6.22892
G1 X26.500 Y72.003 E6.26473
G1 X37.500 Y72.003 E6.57991
G1 X37.500 Y73.253 E6.61572
G1 X26.500 Y73.253 E6.93089
G1 X26.500 Y74.502 E6.96670
G1 X37.500 Y74.502 E7.28187
G1 X37.500 Y75.752 E7.31768
G1 X26.500 Y75.752 E7.63285
G1 X30.000 Y77.002 E7.73934
G1 X34.000 Y77.002 E7.85395
G1 X34.000 Y78.252 E7.88976
G1 X30.000 Y78.252 E8.00437
G1 X30.000 Y79.501 E8.04018
G1 X34.000 Y79.501 E8.15479
G1 X34.000 Y80.751 E8.19060
G1 X30.000 Y80.751 E8.30521
G1 X30.000 Y82.001 E8.34102
G1 X34.000 Y82.001 E8.45563
G1 X34.000 Y83.251 E8.49144
G1 X30.000 Y83.251 E8.60605
G1 X30.000 Y84.501 E8.64186
G1 X34.000 Y84.501 E8.75647
G1 X34.000 Y85.750 E8.79228
G1 X30.000 Y85.750 E8.90689
G1 X30.000 Y87.000 E8.94270
G1 X34.000 Y87.000 E9.05731
G1 F1800.000 E8.05731
G92 E0
G1 X25.670 Y90.500 F7800.000
G1 X51.955 Y87.000
G1 F1800.000 E1.00000
G1 X47.954 Y87.000 F1080.000 E1.11461
G1 X47.954 Y85.750 E1.15042
G1 X51.955 Y85.750 E1.26503
G1 X51.955 Y84.501 E1.30084
G1 X47.954 Y84.501 E1.41545
G1 X47.954 Y83.251 E1.45126
G1 X51.955 Y83.251 E1.56587
G1 X51.955 Y82.001 E1.60168
G1 X47.954 Y82.001 E1.71629
G1 X47.954 Y80.751 E1.75210
G1 X51.955 Y80.751 E1.86672
G1 X51.955 Y79.501 E1.90252
G1 X47.954 Y79.501 E2.01714
G1 X47.954 Y78.252 E2.05294
G1 X51.955 Y78.252 E2.16756
G1 X51.955 Y77.002 E2.20336
G1 X47.954 Y77.002 E2.31798
G1 X44.390 Y75.752 E2.42621
G1 X55.490 Y75.752 E2.74424
G1 X55.490 Y74.502 E2.78005
G1 X44.390 Y74.502 E3.09809
G1 X44.390 Y73.253 E3.13390
G1 X55.490 Y73.253 E3.45194
G1 X55.490 Y72.003 E3.48775
G1 X44.390 Y72.003 E3.80579
G1 X44.390 Y70.753 E3.84160
G1 X55.490 Y70.753 E4.15963
G1 X55.490 Y69.503 E4.19544
G1 X44.390 Y69.503 E4.51348
G1 X44.390 Y68.253 E4.54929
G1 X55.490 Y68.253 E4.86733
G1 X55.490 Y67.004 E4.90314
G1 X44.390 Y67.004 E5.22118
G1 X44.390 Y65.754 E5.25698
G1 X55.490 Y65.754 E5.57502
G1 X55.490 Y64.504 E5.61083
G1 X44.390 Y64.504 E5.92887
G1 X44.390 Y63.254 E5.96468
G1 X55.490 Y63.254 E6.28272
G1 X55.490 Y62.005 E6.31853
G1 X44.390 Y62.005 E6.63657
G1 X44.390 Y60.755 E6.67237
G1 X55.490 Y60.755 E6.99041
G1 X55.490 Y59.505 E7.02622
G1 X44.390 Y59.505 E7.34426
G1 X44.390 Y58.255 E7.38007
G1 X55.490 Y58.255 E7.69811
G1 X55.490 Y57.005 E7.73392
G1 X44.390 Y57.005 E8.05196
G1 X44.390 Y55.756 E8.08776
G1 X55.490 Y55.756 E8.40580
G1 X55.490 Y54.506 E8.44161
G1 X44.390 Y54.506 E8.75965
G1 X44.390 Y53.256 E8.79546
G1 X55.490 Y53.256 E9.11350
G1 F1800.000 E8.11350
G92 E0
G1 X73.485 Y53.256 F7800.000
G1 F1800.000 E1.00000
G1 X62.485 Y53.256 F1080.000 E1.31517
G1 X62.485 Y54.506 E1.35098
G1 X73.485 Y54.506 E1.66616
G1 X73.485 Y55.756 E1.70196
G1 X62.485 Y55.756 E2.01714
G1 X62.485 Y57.005 E2.05295
G1 X73.485 Y57.005 E2.36812
G1 X73.485 Y58.255 E2.40393
G1 X62.485 Y58.255 E2.71910
G1 X62.485 Y59.505 E2.75491
G1 X73.485 Y59.505 E3.07009
G1 X73.485 Y60.755 E3.10589
G1 X62.485 Y60.755 E3.42107
G1 X62.485 Y62.005 E3.45688
G1 X73.485 Y62.005 E3.77205
G1 X73.485 Y63.254 E3.80786
G1 X62.485 Y63.254 E4.12303
G1 X62.485 Y64.504 E4.15884
G1 X73.485 Y64.504 E4.47401
G1 X73.485 Y65.754 E4.50982
G1 X62.485 Y65.754 E4.82500
G1 X62.485 Y67.004 E4.86080
G1 X73.485 Y67.004 E5.17598
G1 X73.485 Y68.253 E5.21179
G1 X62.485 Y68.253 E5.52696
G1 X62.485 Y69.503 E5.56277
G1 X73.485 Y69.503 E5.87794
G1 X73.485 Y70.753 E5.91375
G1 X62.485 Y70.753 E6.22893
G1 X62.485 Y72.003 E6.26473
G1 X73.485 Y72.003 E6.57991
G1 X73.485 Y73.253 E6.61572
G1 X62.485 Y73.253 E6.93089
G1 X62.485 Y74.502 E6.96670
G1 X73.485 Y74.502 E7.28187
G1 X73.485 Y75.752 E7.31768
G1 X62.485 Y75.752 E7.63285
G1 X66.016 Y77.002 E7.74016
G1 X70.016 Y77.002 E7.85478
G1 X70.016 Y78.252 E7.89059
G1 X66.016 Y78.252 E8.00520
G1 X66.016 Y79.501 E8.04101
G1 X70.016 Y79.501 E8.15562
G1 X70.016 Y80.751 E8.19143
G1 X66.016 Y80.751 E8.30604
G1 X66.016 Y82.001 E8.34185
G1 X70.016 Y82.001 E8.45646
G1 X70.016 Y83.251 E8.49227
G1 X66.016 Y83.251 E8.60688
G1 X66.016 Y84.501 E8.64269
G1 X70.016 Y84.501 E8.75730
G1 X70.016 Y85.750 E8.79311
G1 X66.016 Y85.750 E8.90772
G1 X66.016 Y87.000 E8.94353
G1 X70.016 Y87.000 E9.05814
G1 F1800.000 E8.05814
G92 E0
G1 X88.034 Y87.000 F7800.000
G1 F1800.000 E1.00000
G1 X84.034 Y87.000 F1080.000 E1.11461
G1 X84.034 Y85.750 E1.15042
G1 X88.034 Y85.750 E1.26503
G1 X88.034 Y84.501 E1.30084
G1 X84.034 Y84.501 E1.41545
G1 X84.034 Y83.251 E1.45126
G1 X88.034 Y83.251 E1.56587
G1 X88.034 Y82.001 E1.60168
G1 X84.034 Y82.001 E1.71629
G1 X84.034 Y80.751 E1.75210
G1 X88.034 Y80.751 E1.86672
G1 X88.034 Y79.501 E1.90252
G1 X84.034 Y79.501 E2.01714
G1 X84.034 Y78.252 E2.05294
G1 X88.034 Y78.252 E2.16756
G1 X88.034 Y77.002 E2.20336
G1 X84.034 Y77.002 E2.31798
G1 X80.471 Y75.752 E2.42615
G1 X91.472 Y75.752 E2.74132
G1 X91.472 Y74.502 E2.77713
G1 X80.471 Y74.502 E3.09230
G1 X80.471 Y73.253 E3.12811
G1 X91.472 Y73.253 E3.44329
G1 X91.472 Y72.003 E3.47909
G1 X80.471 Y72.003 E3.79427
G1 X80.471 Y70.753 E3.83008
G1 X91.472 Y70.753 E4.14525
G1 X91.472 Y69.503 E4.18106
G1 X80.471 Y69.503 E4.49623
G1 X80.471 Y68.253 E4.53204
G1 X91.472 Y68.253 E4.84721
G1 X91.472 Y67.004 E4.88302
G1 X80.471 Y67.004 E5.19820
G1 X80.471 Y65.754 E5.23401
G1 X91.472 Y65.754 E5.54918
G1 X91.472 Y64.504 E5.58499
G1 X80.471 Y64.504 E5.90016
G1 X80.471 Y63.254 E5.93597
G1 X91.472 Y63.254 E6.25114
G1 X91.472 Y62.005 E6.28695
G1 X80.471 Y62.005 E6.60213
G1 X80.471 Y60.755 E6.63793
G1 X91.472 Y60.755 E6.95311
G1 X91.472 Y59.505 E6.98892
G1 X80.471 Y59.505 E7.30409
G1 X80.471 Y58.255 E7.33990
G1 X91.472 Y58.255 E7.65507
G1 X91.472 Y57.005 E7.69088
G1 X80.471 Y57.005 E8.00605
G1 X80.471 Y55.756 E8.04186
G1 X91.472 Y55.756 E8.35704
G1 X91.472 Y54.506 E8.39284
G1 X80.471 Y54.506 E8.70802
G1 X80.471 Y53.256 E8.74383
G1 X91.472 Y53.256 E9.05900
G1 F1800.000 E8.05900
G92 E0
G1 X109.471 Y53.256 F7800.000
G1 F1800.000 E1.00000
G1 X98.470 Y53.256 F1080.000 E1.31517
G1 X98.470 Y54.506 E1.35098
G1 X109.471 Y54.506 E1.66616
G1 X109.471 Y55.756 E1.70196
G1 X98.470 Y55.756 E2.01714
G1 X98.470 Y57.005 E2.05295
G1 X109.471 Y57.005 E2.36812
G1 X109.471 Y58.255 E2.40393
G1 X98.470 Y58.255 E2.71910
G1 X98.470 Y59.505 E2.75491
G1 X109.471 Y59.505 E3.07009
G1 X109.471 Y60.755 E3.10589
G1 X98.470 Y60.755 E3.42107
G1 X98.470 Y62.005 E3.45688
G1 X109.471 Y62.005 E3.77205
G1 X109.471 Y63.254 E3.80786
G1 X98.470 Y63.254 E4.12303
G1 X98.470 Y64.504 E4.15884
G1 X109.471 Y64.504 E4.47401
G1 X109.471 Y65.754 E4.50982
G1 X98.470 Y65.754 E4.82500
G1 X98.470 Y67.004 E4.86080
G1 X109.471 Y67.004 E5.17598
G1 X109.471 Y68.253 E5.21179
G1 X98.470 Y68.253 E5.52696
G1 X98.470 Y69.503 E5.56277
G1 X109.471 Y69.503 E5.87794
G1 X109.471 Y70.753 E5.91375
G1 X98.470 Y70.753 E6.22893
G1 X98.470 Y72.003 E6.26473
G1 X109.471 Y72.003 E6.57991
G1 X109.471 Y73.253 E6.61572
G1 X98.470 Y73.253 E6.93089
G1 X98.470 Y74.502 E6.96670
G1 X109.471 Y74.502 E7.28187
G1 X109.471 Y75.752 E7.31768
G1 X98.470 Y75.752 E7.63285
G1 X102.039 Y77.002 E7.74119
G1 X106.039 Y77.002 E7.85580
G1 X106.039 Y78.252 E7.89161
G1 X102.039 Y78.252 E8.00622
G1 X102.039 Y79.501 E8.04203
G1 X106.039 Y79.501 E8.15664
G1 X106.039 Y80.751 E8.19245
G1 X102.039 Y80.751 E8.30706
G1 X102.039 Y82.001 E8.34287
G1 X106.039 Y82.001 E8.45748
G1 X106.039 Y83.251 E8.49329
G1 X102.039 Y83.251 E8.60790
G1 X102.039 Y84.501 E8.64371
G1 X106.039 Y84.501 E8.75832
G1 X106.039 Y85.750 E8.79413
G1 X102.039 Y85.750 E8.90874
G1 X102.039 Y87.000 E8.94455
G1 X106.039 Y87.000 E9.05916
G1 F1800.000 E8.05916
G92 E0
G1 X123.949 Y87.000 F7800.000
G1 F1800.000 E1.00000
G1 X119.949 Y87.000 F1080.000 E1.11461
G1 X119.949 Y85.750 E1.15042
G1 X123.949 Y85.750 E1.26503
G1 X123.949 Y84.501 E1.30084
G1 X119.949 Y84.501 E1.41545
G1 X119.949 Y83.251 E1.45126
G1 X123.949 Y83.251 E1.56587
G1 X123.949 Y82.001 E1.60168
G1 X119.949 Y82.001 E1.71629
G1 X119.949 Y80.751 E1.75210
G1 X123.949 Y80.751 E1.86672
G1 X123.949 Y79.501 E1.90252
G1 X119.949 Y79.501 E2.01714
G1 X119.949 Y78.252 E2.05294
G1 X123.949 Y78.252 E2.16756
G1 X123.949 Y77.002 E2.20336
G1 X119.949 Y77.002 E2.31798
G1 X116.499 Y75.752 E2.42310
G1 X127.499 Y75.752 E2.73827
G1 X127.499 Y74.502 E2.77408
G1 X116.499 Y74.502 E3.08926
G1 X116.499 Y73.253 E3.12507
G1 X127.499 Y73.253 E3.44024
G1 X127.499 Y72.003 E3.47605
G1 X116.499 Y72.003 E3.79122
G1 X116.499 Y70.753 E3.82703
G1 X127.499 Y70.753 E4.14220
G1 X127.499 Y69.503 E4.17801
G1 X116.499 Y69.503 E4.49319
G1 X116.499 Y68.253 E4.52899
G1 X127.499 Y68.253 E4.84417
G1 X127.499 Y67.004 E4.87998
G1 X116.499 Y67.004 E5.19515
G1 X116.499 Y65.754 E5.23096
G1 X127.499 Y65.754 E5.54613
G1 X127.499 Y64.504 E5.58194
G1 X116.499 Y64.504 E5.89711
G1 X116.499 Y63.254 E5.93292
G1 X127.499 Y63.254 E6.24810
G1 X127.499 Y62.005 E6.28391
G1 X116.499 Y62.005 E6.59908
G1 X116.499 Y60.755 E6.63489
G1 X127.499 Y60.755 E6.95006
G1 X127.499 Y59.505 E6.98587
G1 X116.499 Y59.505 E7.30104
G1 X116.499 Y58.255 E7.33685
G1 X127.499 Y58.255 E7.65203
G1 X127.499 Y57.005 E7.68783
G1 X116.499 Y57.005 E8.00301
G1 X116.499 Y55.756 E8.03882
G1 X127.499 Y55.756 E8.35399
G1 X127.499 Y54.506 E8.38980
G1 X116.499 Y54.506 E8.70497
G1 X116.499 Y53.256 E8.74078
G1 X127.499 Y53.256 E9.05596
G1 F1800.000 E8.05596
G92 E0
G1 X145.505 Y53.256 F7800.000
G1 F1800.000 E1.00000
G1 X134.505 Y53.256 F1080.000 E1.31517
G1 X134.505 Y54.506 E1.35098
G1 X145.505 Y54.506 E1.66616
G1 X145.505 Y55.756 E1.70196
G1 X134.505 Y55.756 E2.01714
G1 X134.505 Y57.005 E2.05295
G1 X145.505 Y57.005 E2.36812
G1 X145.505 Y58.255 E2.40393
G1 X134.505 Y58.255 E2.71910
G1 X134.505 Y59.505 E2.75491
G1 X145.505 Y59.505 E3.07009
G1 X145.505 Y60.755 E3.10589
G1 X134.505 Y60.755 E3.42107
G1 X134.505 Y62.005 E3.45688
G1 X145.505 Y62.005 E3.77205
G1 X145.505 Y63.254 E3.80786
G1 X134.505 Y63.254 E4.12303
G1 X134.505 Y64.504 E4.15884
G1 X145.505 Y64.504 E4.47401
G1 X145.505 Y65.754 E4.50982
G1 X134.505 Y65.754 E4.82500
G1 X134.505 Y67.004 E4.86080
G1 X145.505 Y67.004 E5.17598
G1 X145.505 Y68.253 E5.21179
G1 X134.505 Y68.253 E5.52696
G1 X134.505 Y69.503 E5.56277
G1 X145.505 Y69.503 E5.87794
G1 X145.505 Y70.753 E5.91375
G1 X134.505 Y70.753 E6.22892
G1 X134.505 Y72.003 E6.26473
G1 X145.505 Y72.003 E6.57991
G1 X145.505 Y73.253 E6.61572
G1 X134.505 Y73.253 E6.93089
G1 X134.505 Y74.502 E6.96670
G1 X145.505 Y74.502 E7.28187
G1 X145.505 Y75.752 E7.31768
G1 X134.505 Y75.752 E7.63285
G1 X138.043 Y77.002 E7.74038
G1 X142.044 Y77.002 E7.85499
G1 X142.044 Y78.252 E7.89080
G1 X138.043 Y78.252 E8.00541
G1 X138.043 Y79.501 E8.04122
G1 X142.044 Y79.501 E8.15583
G1 X142.044 Y80.751 E8.19164
G1 X138.043 Y80.751 E8.30625
G1 X138.043 Y82.001 E8.34206
G1 X142.044 Y82.001 E8.45667
G1 X142.044 Y83.251 E8.49248
G1 X138.043 Y83.251 E8.60709
G1 X138.043 Y84.501 E8.64290
G1 X142.044 Y84.501 E8.75751
G1 X142.044 Y85.750 E8.79332
G1 X138.043 Y85.750 E8.90793
G1 X138.043 Y87.000 E8.94374
G1 X142.044 Y87.000 E9.05835
G1 F1800.000 E8.05835
G92 E0
G1 X159.940 Y87.000 F7800.000
G1 F1800.000 E1.00000
G1 X155.940 Y87.000 F1080.000 E1.11461
G1 X155.940 Y85.750 E1.15042
G1 X159.940 Y85.750 E1.26503
G1 X159.940 Y84.501 E1.30084
G1 X155.940 Y84.501 E1.41545
G1 X155.940 Y83.251 E1.45126
G1 X159.940 Y83.251 E1.56587
G1 X159.940 Y82.001 E1.60168
G1 X155.940 Y82.001 E1.71629
G1 X155.940 Y80.751 E1.75210
G1 X159.940 Y80.751 E1.86672
G1 X159.940 Y79.501 E1.90252
G1 X155.940 Y79.501 E2.01714
G1 X155.940 Y78.252 E2.05294
G1 X159.940 Y78.252 E2.16756
G1 X159.940 Y77.002 E2.20336
G1 X155.940 Y77.002 E2.31798
G1 X152.481 Y75.752 E2.42336
G1 X163.502 Y75.752 E2.73915
G1 X163.501 Y74.502 E2.77496
G1 X152.481 Y74.502 E3.09071
G1 X152.481 Y73.253 E3.12652
G1 X163.500 Y73.253 E3.44224
G1 X163.499 Y72.003 E3.47804
G1 X152.481 Y72.003 E3.79373
G1 X152.481 Y70.753 E3.82954
G1 X163.498 Y70.753 E4.14519
G1 X163.497 Y69.503 E4.18100
G1 X152.481 Y69.503 E4.49662
G1 X152.481 Y68.253 E4.53243
G1 X163.496 Y68.253 E4.84802
G1 X163.494 Y67.004 E4.88383
G1 X152.481 Y67.004 E5.19938
G1 X152.481 Y65.754 E5.23519
G1 X163.493 Y65.754 E5.55071
G1 X163.492 Y64.504 E5.58652
G1 X152.481 Y64.504 E5.90201
G1 X152.481 Y63.254 E5.93782
G1 X163.491 Y63.254 E6.25327
G1 X163.490 Y62.005 E6.28908
G1 X152.481 Y62.005 E6.60451
G1 X152.481 Y60.755 E6.64031
G1 X163.489 Y60.755 E6.95570
G1 X163.488 Y59.505 E6.99151
G1 X152.481 Y59.505 E7.30687
G1 X152.481 Y58.255 E7.34268
G1 X163.486 Y58.255 E7.65800
G1 X163.485 Y57.005 E7.69381
G1 X152.481 Y57.005 E8.00910
G1 X152.481 Y55.756 E8.04491
G1 X163.484 Y55.756 E8.36017
G1 X163.483 Y54.506 E8.39598
G1 X152.481 Y54.506 E8.71121
G1 X152.481 Y53.256 E8.74702
G1 X163.482 Y53.256 E9.06221
M106 S240
M104 S215 ; set temperature
G1 F1800.000 E8.06221
G92 E0
G1 Z0.500 F7800.000
G1 X161.500 Y76.706
G1 F1800.000 E1.00000
G1 X161.500 Y52.697 F3600.000 E1.18157
G1 X159.000 Y52.697 E1.20047
G1 X159.000 Y87.303 E1.46217
G1 X156.500 Y87.303 E1.48108
G1 X156.500 Y52.697 E1.74278
G1 X154.000 Y52.697 E1.76168
G1 X154.000 Y76.706 E1.94325
G1 F1800.000 E0.94325
G92 E0
G1 X144.000 Y76.706 F7800.000
G1 F1800.000 E1.00000
G1 X144.000 Y52.697 F3600.000 E1.18157
G1 X141.500 Y52.697 E1.20047
G1 X141.500 Y87.303 E1.46217
G1 X139.000 Y87.303 E1.48108
G1 X139.000 Y52.697 E1.74278
G1 X136.500 Y52.697 E1.76168
G1 X136.500 Y76.706 E1.94325
G1 F1800.000 E0.94325
G92 E0
G1 X126.500 Y76.706 F7800.000
