; generated by Slic3r 0.9.10b on 2013-09-12 at 10:09:38

; layer_height = 0.25
; perimeters = 3
; top_solid_layers = 3
; bottom_solid_layers = 3
; fill_density = 1
; perimeter_speed = 30
; infill_speed = 60
; travel_speed = 130
; nozzle_diameter = 0.35
; filament_diameter = 3
; extrusion_multiplier = .926
; perimeters extrusion width = 0.39mm
; infill extrusion width = 0.39mm
; solid infill extrusion width = 0.39mm
; top infill extrusion width = 0.39mm
; first layer extrusion width = 0.70mm

G21 ; set units to millimeters
M107
M190 S60 ; wait for bed temperature to be reached
M104 S220 ; set temperature
G28 ; home all axes
G1 Z5 F5000 ; lift nozzle
M109 S220 ; wait for temperature to be reached
G90 ; use absolute coordinates
G92 E0
M82 ; use absolute distances for extrusion
G1 F1800.000 E-1.00000
G92 E0
G1 Z0.350 F7800.000
G1 X38.341 Y20.026
G1 F1800.000 E1.00000
G1 X38.631 Y19.476 F540.000 E1.01781
G1 X38.971 Y18.956 E1.03562
G1 X39.221 Y18.606 E1.04794
G1 X39.931 Y17.776 E1.07923
G1 X40.241 Y17.466 E1.09180
G1 X41.071 Y16.756 E1.12309
G1 X41.941 Y16.166 E1.15321
G1 X42.491 Y15.876 E1.17102
G1 X42.881 Y15.696 E1.18333
G1 X43.421 Y15.476 E1.20004
G1 X43.981 Y15.306 E1.21680
G1 X44.401 Y15.196 E1.22924
G1 X45.451 Y15.006 E1.25982
G1 X45.871 Y14.966 E1.27190
G1 X46.501 Y14.946 E1.28996
G1 X143.481 Y14.946 E4.06860
G1 X144.091 Y14.966 E4.08609
G1 X144.521 Y15.006 E4.09846
G1 X145.591 Y15.196 E4.12960
G1 X146.011 Y15.306 E4.14204
G1 X146.571 Y15.476 E4.15881
G1 X147.111 Y15.696 E4.17551
G1 X147.501 Y15.876 E4.18782
G1 X148.051 Y16.166 E4.20564
G1 X148.921 Y16.756 E4.23575
G1 X149.751 Y17.466 E4.26705
G1 X150.481 Y18.226 E4.29724
G1 X150.841 Y18.706 E4.31443
G1 X151.081 Y19.056 E4.32659
G1 X151.581 Y19.906 E4.35485
G1 X151.771 Y20.296 E4.36728
G1 X152.021 Y20.896 E4.38590
G1 X152.221 Y21.516 E4.40457
G1 X152.441 Y22.416 E4.43111
G1 X156.491 Y44.446 E5.07288
G1 X156.981 Y47.776 E5.16932
G1 X157.041 Y48.376 E5.18660
G1 X157.221 Y51.566 E5.27814
G1 X157.231 Y52.136 E5.29448
G1 X157.131 Y55.396 E5.38793
G1 X157.091 Y55.956 E5.40401
G1 X156.701 Y59.316 E5.50093
G1 X156.611 Y59.886 E5.51746
G1 X155.901 Y63.346 E5.61866
G1 X155.771 Y63.856 E5.63374
G1 X154.731 Y67.446 E5.74083
G1 X154.581 Y67.926 E5.75524
G1 X153.191 Y71.646 E5.86902
G1 X153.001 Y72.096 E5.88302
G1 X151.221 Y75.956 E6.00480
G1 X151.031 Y76.336 E6.01698
G1 X148.851 Y80.366 E6.14825
G1 X145.741 Y85.336 E6.31623
G1 X142.701 Y89.626 E6.46688
G1 X142.171 Y90.276 E6.49091
G1 X112.271 Y122.906 E7.75896
G1 X111.251 Y123.816 E7.79813
G1 X110.061 Y124.486 E7.83726
G1 X108.751 Y124.906 E7.87667
G1 X107.391 Y125.046 E7.91584
G1 X82.601 Y125.046 E8.62612
G1 X81.241 Y124.906 E8.66529
G1 X79.931 Y124.486 E8.70471
G1 X78.741 Y123.816 E8.74383
G1 X77.721 Y122.906 E8.78300
G1 X47.821 Y90.276 E10.05105
G1 X47.291 Y89.626 E10.07508
G1 X44.251 Y85.336 E10.22573
G1 X41.361 Y80.736 E10.38138
G1 X41.151 Y80.376 E10.39332
G1 X38.961 Y76.346 E10.52473
G1 X38.761 Y75.946 E10.53755
G1 X36.801 Y71.646 E10.67294
G1 X35.411 Y67.926 E10.78673
G1 X34.221 Y63.856 E10.90822
G1 X34.091 Y63.346 E10.92330
G1 X33.381 Y59.886 E11.02450
G1 X33.291 Y59.316 E11.04103
G1 X32.901 Y55.956 E11.13795
G1 X32.861 Y55.396 E11.15404
G1 X32.761 Y52.136 E11.24748
G1 X32.771 Y51.566 E11.26382
G1 X32.951 Y48.376 E11.35536
G1 X33.011 Y47.776 E11.37264
G1 X33.501 Y44.446 E11.46908
G1 X37.551 Y22.416 E12.11085
G1 X37.771 Y21.516 E12.13740
G1 X37.941 Y20.956 E12.15416
G1 X38.302 Y20.111 E12.18049
G1 F1800.000 E11.18049
G92 E0
G1 X45.394 Y23.409 F7800.000
G1 F1800.000 E1.00000
G1 X45.525 Y23.222 F540.000 E1.00656
G1 X45.687 Y23.060 E1.01312
G1 X45.875 Y22.928 E1.01968
G1 X46.082 Y22.832 E1.02624
G1 X46.303 Y22.772 E1.03280
G1 X46.532 Y22.752 E1.03936
G1 X46.760 Y22.772 E1.04593
G1 X46.981 Y22.832 E1.05249
G1 X47.188 Y22.928 E1.05905
G1 X47.376 Y23.060 E1.06561
G1 X47.538 Y23.222 E1.07217
G1 X47.669 Y23.409 E1.07873
G1 X47.766 Y23.617 E1.08529
G1 X47.825 Y23.838 E1.09185
G1 X47.845 Y24.066 E1.09841
G1 X47.825 Y24.294 E1.10497
G1 X47.766 Y24.515 E1.11153
G1 X47.669 Y24.723 E1.11809
G1 X47.538 Y24.910 E1.12465
G1 X47.376 Y25.072 E1.13121
G1 X47.188 Y25.204 E1.13778
G1 X46.981 Y25.300 E1.14434
G1 X46.760 Y25.360 E1.15090
G1 X46.532 Y25.380 E1.15746
G1 X46.303 Y25.360 E1.16402
G1 X46.082 Y25.300 E1.17058
G1 X45.875 Y25.204 E1.17714
G1 X45.687 Y25.072 E1.18370
G1 X45.525 Y24.910 E1.19026
G1 X45.394 Y24.723 E1.19682
G1 X45.297 Y24.515 E1.20338
G1 X45.238 Y24.294 E1.20994
G1 X45.218 Y24.066 E1.21650
G1 X45.238 Y23.838 E1.22306
G1 X45.297 Y23.617 E1.22963
G1 X45.354 Y23.494 E1.23350
G1 X45.623 Y23.416 F7800.000
G1 F1800.000 E0.23350
G92 E0
G1 X142.155 Y24.066 F7800.000
G1 F1800.000 E1.00000
G1 X142.175 Y23.838 F540.000 E1.00656
G1 X142.234 Y23.617 E1.01312
G1 X142.331 Y23.409 E1.01968
G1 X142.462 Y23.222 E1.02624
G1 X142.624 Y23.060 E1.03280
G1 X142.812 Y22.928 E1.03936
G1 X143.019 Y22.832 E1.04593
G1 X143.240 Y22.772 E1.05249
G1 X143.468 Y22.752 E1.05905
G1 X143.697 Y22.772 E1.06561
G1 X143.918 Y22.832 E1.07217
G1 X144.125 Y22.928 E1.07873
G1 X144.313 Y23.060 E1.08529
G1 X144.475 Y23.222 E1.09185
G1 X144.643 Y23.489 E1.10091
G1 X144.703 Y23.617 E1.10494
G1 X144.762 Y23.838 E1.11150
G1 X144.782 Y24.066 E1.11807
G1 X144.762 Y24.294 E1.12463
G1 X144.703 Y24.515 E1.13119
G1 X144.606 Y24.723 E1.13775
G1 X144.475 Y24.910 E1.14431
G1 X144.313 Y25.072 E1.15087
G1 X144.125 Y25.204 E1.15743
G1 X143.918 Y25.300 E1.16399
G1 X143.697 Y25.360 E1.17055
G1 X143.468 Y25.380 E1.17711
G1 X143.240 Y25.360 E1.18367
G1 X143.019 Y25.300 E1.19023
G1 X142.812 Y25.204 E1.19679
G1 X142.624 Y25.072 E1.20335
G1 X142.462 Y24.910 E1.20992
G1 X142.331 Y24.723 E1.21648
G1 X142.234 Y24.515 E1.22304
G1 X142.175 Y24.294 E1.22960
G1 X142.163 Y24.159 E1.23347
G1 X142.356 Y23.957 F7800.000
G1 F1800.000 E0.23347
G92 E0
G1 X146.480 Y41.261 F7800.000
G1 F1800.000 E1.00000
G1 X147.130 Y43.191 F540.000 E1.05835
G1 X147.824 Y46.065 E1.14306
G1 X148.257 Y48.980 E1.22750
G1 X148.430 Y51.968 E1.31326
G1 X148.335 Y55.039 E1.40128
G1 X147.961 Y58.210 E1.49277
G1 X147.289 Y61.499 E1.58893
G1 X146.298 Y64.920 E1.69098
G1 X144.962 Y68.488 E1.80015
G1 X143.252 Y72.218 E1.91770
G1 X141.136 Y76.120 E2.04490
G1 X139.791 Y78.272 E2.11761
G1 X136.827 Y77.483 E2.20549
G1 X135.401 Y81.381 E2.32440
G1 X134.553 Y83.060 E2.37832
G1 X133.616 Y84.437 E2.42602
G1 X132.595 Y85.556 E2.46942
G1 X131.376 Y86.536 E2.51424
G1 X130.292 Y87.330 E2.55273
G1 X130.514 Y85.461 E2.60665
G1 X126.446 Y84.672 E2.72539
G1 X125.304 Y88.886 E2.85047
G1 X124.394 Y91.570 E2.93166
G1 X124.008 Y92.491 E2.96029
G1 X123.216 Y93.993 E3.00893
G1 X122.725 Y94.659 E3.03266
G1 X121.947 Y95.390 E3.06324
G1 X119.854 Y97.615 E3.15076
G1 X115.900 Y102.324 E3.32693
G1 X114.399 Y104.206 E3.39590
G1 X111.892 Y103.725 E3.46904
G1 X110.790 Y106.493 E3.55439
G1 X109.851 Y109.245 E3.63771
G1 X109.589 Y110.430 E3.67249
G1 X109.565 Y110.716 E3.68070
G1 X107.909 Y112.519 E3.75084
G1 X106.679 Y114.068 E3.80751
G1 X105.913 Y115.399 E3.85150
G1 X105.612 Y116.176 E3.87539
G1 X105.234 Y116.146 E3.88625
G1 X103.434 Y115.857 E3.93849
G1 X102.131 Y115.468 E3.97742
G1 X101.217 Y115.046 E4.00628
G1 X100.545 Y114.605 E4.02933
G1 X100.024 Y114.131 E4.04949
G1 X99.605 Y113.601 E4.06886
G1 X99.286 Y113.025 E4.08771
G1 X99.023 Y112.304 E4.10970
G1 X98.835 Y111.343 E4.13775
G1 X98.771 Y109.486 E4.19099
G1 X98.689 Y109.158 E4.20067
G1 X98.807 Y108.868 E4.20964
G1 X99.122 Y108.337 E4.22736
G1 X100.001 Y107.269 E4.26696
G1 X101.748 Y105.629 E4.33563
G1 X105.909 Y102.401 E4.48651
G1 X103.816 Y98.999 E4.60094
G1 X99.548 Y101.024 E4.73629
G1 X98.624 Y101.542 E4.76665
G1 X98.820 Y99.355 E4.82957
G1 X99.223 Y97.350 E4.88814
G1 X99.795 Y95.621 E4.94034
G1 X100.523 Y94.124 E4.98803
G1 X101.407 Y92.819 E5.03318
G1 X102.436 Y91.699 E5.07675
G1 X103.692 Y90.688 E5.12296
G1 X105.196 Y89.806 E5.17293
G1 X109.093 Y88.199 E5.29369
G1 X107.845 Y84.288 E5.41131
G1 X105.279 Y84.880 E5.48677
G1 X101.882 Y85.866 E5.58811
G1 X102.378 Y84.368 E5.63333
G1 X102.923 Y83.268 E5.66851
G1 X103.794 Y82.006 E5.71244
G1 X104.919 Y80.818 E5.75932
G1 X106.361 Y79.683 E5.81189
G1 X108.184 Y78.609 E5.87252
G1 X110.355 Y77.655 E5.94045
G1 X114.692 Y76.257 E6.07103
G1 X114.033 Y72.451 E6.18168
G1 X111.301 Y72.537 E6.25999
G1 X113.940 Y69.016 E6.38605
G1 X115.850 Y66.173 E6.48418
G1 X116.051 Y65.849 E6.49511
G1 X116.949 Y64.597 E6.53925
G1 X118.018 Y63.421 E6.58477
G1 X119.302 Y62.310 E6.63345
G1 X120.828 Y61.277 E6.68622
G1 X122.623 Y60.341 E6.74423
G1 X124.718 Y59.522 E6.80868
G1 X128.872 Y58.367 E6.93222
G1 X128.219 Y54.421 E7.04682
G1 X126.142 Y54.540 E7.10643
G1 X130.066 Y50.616 E7.26543
G1 X130.308 Y50.445 E7.27391
G1 X132.860 Y48.815 E7.36067
G1 X134.883 Y47.719 E7.42659
G1 X137.821 Y46.398 E7.51889
G1 X140.369 Y45.308 E7.59830
G1 X142.945 Y43.980 E7.68132
G1 X144.847 Y42.717 E7.74674
G1 X146.410 Y41.324 E7.80673
G1 X145.747 Y41.077 F7800.000
G1 X146.686 Y39.919 F540.000 E7.84947
G1 X147.731 Y43.018 E7.94317
G1 X148.438 Y45.946 E8.02948
G1 X148.879 Y48.916 E8.11552
G1 X149.055 Y51.960 E8.20287
G1 X148.959 Y55.086 E8.29247
G1 X148.578 Y58.310 E8.38549
G1 X147.896 Y61.648 E8.48312
G1 X146.892 Y65.116 E8.58657
G1 X145.540 Y68.728 E8.69706
G1 X143.812 Y72.497 E8.81586
G1 X141.677 Y76.435 E8.94421
G1 X140.077 Y78.995 E9.03069
G1 X137.218 Y78.234 E9.11545
G1 X135.976 Y81.630 E9.21906
G1 X135.092 Y83.378 E9.27518
G1 X134.108 Y84.825 E9.32533
G1 X133.024 Y86.012 E9.37138
G1 X131.757 Y87.032 E9.41798
G1 X130.250 Y88.135 E9.47149
G1 X129.487 Y88.810 E9.50068
G1 X129.825 Y85.964 E9.58280
G1 X126.897 Y85.396 E9.66827
G1 X125.902 Y89.068 E9.77726
G1 X124.978 Y91.791 E9.85963
G1 X124.574 Y92.758 E9.88967
G1 X123.747 Y94.326 E9.94046
G1 X123.198 Y95.069 E9.96694
G1 X122.385 Y95.836 E9.99898
G1 X120.321 Y98.030 E10.08527
G1 X116.383 Y102.720 E10.26072
G1 X114.652 Y104.891 E10.34028
G1 X112.282 Y104.436 E10.40944
G1 X111.376 Y106.709 E10.47954
G1 X110.453 Y109.414 E10.56142
G1 X110.208 Y110.524 E10.59400
G1 X110.173 Y110.935 E10.60580
G1 X109.872 Y111.322 E10.61985
G1 X108.383 Y112.927 E10.68257
G1 X107.198 Y114.420 E10.73721
G1 X106.479 Y115.669 E10.77851
G1 X106.026 Y116.837 E10.81438
G1 X105.159 Y116.766 E10.83930
G1 X103.294 Y116.467 E10.89341
G1 X101.910 Y116.054 E10.93479
G1 X100.913 Y115.594 E10.96626
G1 X100.160 Y115.100 E10.99206
G1 X99.566 Y114.559 E11.01510
G1 X99.083 Y113.948 E11.03738
G1 X98.716 Y113.286 E11.05910
G1 X98.419 Y112.472 E11.08390
G1 X98.212 Y111.415 E11.11478
G1 X98.149 Y109.573 E11.16757
G1 X98.062 Y109.224 E11.17788
G1 X98.116 Y108.909 E11.18703
G1 X98.245 Y108.590 E11.19690
G1 X98.610 Y107.976 E11.21735
G1 X99.544 Y106.841 E11.25947
G1 X101.342 Y105.153 E11.33013
G1 X105.083 Y102.251 E11.46579
G1 X103.578 Y99.804 E11.54810
G1 X99.835 Y101.579 E11.66679
G1 X97.993 Y102.612 E11.72728
G1 X97.987 Y101.648 E11.75490
G1 X98.201 Y99.265 E11.82346
G1 X98.618 Y97.190 E11.88408
G1 X99.215 Y95.385 E11.93857
G1 X99.980 Y93.810 E11.98873
G1 X100.915 Y92.430 E12.03650
G1 X102.007 Y91.242 E12.08273
G1 X103.336 Y90.172 E12.13160
G1 X104.918 Y89.244 E12.18415
G1 X108.323 Y87.841 E12.28967
G1 X107.425 Y85.026 E12.37431
G1 X105.436 Y85.485 E12.43278
G1 X102.533 Y86.328 E12.51940
G1 X101.073 Y86.910 E12.56443
G1 X101.290 Y85.667 E12.60057
G1 X101.798 Y84.130 E12.64697
G1 X102.383 Y82.950 E12.68470
G1 X103.307 Y81.611 E12.73131
G1 X104.497 Y80.355 E12.78088
G1 X106.008 Y79.166 E12.83596
G1 X107.899 Y78.052 E12.89885
G1 X110.133 Y77.070 E12.96875
G1 X113.984 Y75.828 E13.08469
G1 X113.510 Y73.093 E13.16425
G1 X110.022 Y73.202 E13.26424
G1 X113.431 Y68.654 E13.42708
G1 X115.325 Y65.835 E13.52440
G1 X115.530 Y65.502 E13.53560
G1 X116.462 Y64.203 E13.58141
G1 X117.581 Y62.973 E13.62903
G1 X118.921 Y61.813 E13.67984
G1 X120.507 Y60.740 E13.73469
G1 X122.364 Y59.771 E13.79470
G1 X124.520 Y58.928 E13.86102
G1 X128.164 Y57.916 E13.96939
G1 X127.694 Y55.077 E14.05183
G1 X124.541 Y55.257 E14.14232
G1 X129.662 Y50.136 E14.34983
G1 X129.959 Y49.926 E14.36026
G1 X132.543 Y48.277 E14.44808
G1 X134.605 Y47.159 E14.51529
G1 X137.570 Y45.825 E14.60843
G1 X140.103 Y44.742 E14.68736
G1 X142.628 Y43.441 E14.76875
G1 X144.464 Y42.221 E14.83191
G1 X145.677 Y41.139 E14.87848
G1 X145.294 Y40.644 F7800.000
G1 X146.012 Y39.759 F540.000 E14.91115
G1 X146.414 Y39.066 E14.93410
G1 X146.692 Y38.370 E14.95557
G1 X147.338 Y39.895 E15.00302
G1 X148.332 Y42.844 E15.09219
G1 X149.052 Y45.826 E15.18008
G1 X149.501 Y48.852 E15.26772
G1 X149.681 Y51.951 E15.35667
G1 X149.583 Y55.132 E15.44784
G1 X149.196 Y58.409 E15.54239
G1 X148.503 Y61.798 E15.64149
G1 X147.485 Y65.313 E15.74635
G1 X146.117 Y68.968 E15.85817
G1 X144.371 Y72.777 E15.97820
G1 X142.217 Y76.750 E16.10771
G1 X139.316 Y81.391 E16.26451
G1 X139.021 Y81.279 E16.27355
G1 X139.336 Y79.444 E16.32687
G1 X137.609 Y78.984 E16.37807
G1 X136.550 Y81.879 E16.46638
G1 X135.632 Y83.696 E16.52471
G1 X134.600 Y85.214 E16.57729
G1 X133.454 Y86.469 E16.62600
G1 X132.138 Y87.528 E16.67439
G1 X130.643 Y88.622 E16.72747
G1 X128.673 Y90.365 E16.80282
G1 X129.136 Y86.467 E16.91529
G1 X127.348 Y86.120 E16.96748
G1 X126.500 Y89.251 E17.06040
G1 X125.563 Y92.012 E17.14394
G1 X125.140 Y93.025 E17.17540
G1 X124.278 Y94.659 E17.22834
G1 X123.672 Y95.480 E17.25755
G1 X123.267 Y95.881 E17.27390
G1 X122.823 Y96.283 E17.29107
G1 X120.788 Y98.446 E17.37614
G1 X116.867 Y103.115 E17.55085
G1 X114.385 Y106.228 E17.66491
G1 X114.243 Y106.178 E17.66922
G1 X114.243 Y105.449 E17.69012
G1 X112.671 Y105.147 E17.73598
G1 X111.963 Y106.926 E17.79085
G1 X111.056 Y109.583 E17.87128
G1 X110.827 Y110.619 E17.90167
G1 X110.782 Y111.154 E17.91705
G1 X110.561 Y111.473 E17.92818
G1 X110.341 Y111.735 E17.93798
G1 X108.858 Y113.334 E18.00047
G1 X107.716 Y114.772 E18.05308
G1 X107.044 Y115.940 E18.09168
G1 X106.707 Y116.807 E18.11834
G1 X106.555 Y117.471 E18.13786
G1 X105.875 Y117.451 E18.15735
G1 X105.084 Y117.387 E18.18010
G1 X103.155 Y117.078 E18.23608
G1 X101.689 Y116.640 E18.27991
G1 X100.608 Y116.142 E18.31400
G1 X99.776 Y115.595 E18.34254
G1 X99.107 Y114.986 E18.36846
G1 X98.562 Y114.296 E18.39366
G1 X98.145 Y113.546 E18.41824
G1 X97.815 Y112.640 E18.44586
G1 X97.589 Y111.486 E18.47956
G1 X97.526 Y109.660 E18.53189
G1 X97.449 Y109.347 E18.54113
G1 X97.437 Y109.200 E18.54538
G1 X97.452 Y109.000 E18.55111
G1 X97.519 Y108.719 E18.55938
G1 X97.683 Y108.312 E18.57198
G1 X98.097 Y107.616 E18.59516
G1 X99.087 Y106.413 E18.63981
G1 X100.936 Y104.678 E18.71245
G1 X104.257 Y102.101 E18.83290
G1 X103.339 Y100.609 E18.88308
G1 X100.122 Y102.135 E18.98510
G1 X97.375 Y103.675 E19.07533
G1 X97.362 Y101.622 E19.13414
G1 X97.582 Y99.175 E19.20453
G1 X98.012 Y97.030 E19.26722
G1 X98.634 Y95.149 E19.32398
G1 X99.438 Y93.497 E19.37662
G1 X100.424 Y92.041 E19.42699
G1 X101.579 Y90.785 E19.47590
G1 X102.980 Y89.657 E19.52743
G1 X104.639 Y88.683 E19.58255
G1 X107.552 Y87.482 E19.67283
G1 X107.004 Y85.764 E19.72450
G1 X105.594 Y86.090 E19.76597
G1 X102.736 Y86.920 E19.85123
G1 X100.349 Y87.870 E19.92484
G1 X100.373 Y87.284 E19.94165
G1 X100.683 Y85.515 E19.99311
G1 X101.219 Y83.892 E20.04208
G1 X101.843 Y82.632 E20.08238
G1 X102.821 Y81.217 E20.13165
G1 X104.075 Y79.892 E20.18391
G1 X105.654 Y78.649 E20.24151
G1 X107.614 Y77.495 E20.30667
G1 X109.910 Y76.485 E20.37854
G1 X113.276 Y75.400 E20.47985
G1 X112.987 Y73.734 E20.52829
G1 X108.742 Y73.867 E20.64997
G1 X112.921 Y68.292 E20.84959
G1 X114.799 Y65.496 E20.94611
G1 X115.010 Y65.155 E20.95758
G1 X115.975 Y63.809 E21.00504
G1 X117.144 Y62.525 E21.05478
G1 X118.541 Y61.316 E21.10771
G1 X120.186 Y60.202 E21.16465
G1 X122.105 Y59.202 E21.22665
G1 X124.322 Y58.335 E21.29486
G1 X127.456 Y57.464 E21.38804
G1 X127.169 Y55.733 E21.43832
G1 X122.940 Y55.975 E21.55970
G1 X129.258 Y49.656 E21.81571
G1 X129.611 Y49.407 E21.82809
G1 X132.225 Y47.738 E21.91696
G1 X134.328 Y46.599 E21.98548
G1 X137.319 Y45.253 E22.07945
G1 X139.836 Y44.177 E22.15790
G1 X142.311 Y42.901 E22.23766
G1 X144.081 Y41.725 E22.29856
G1 X145.224 Y40.707 E22.34241
G1 X144.840 Y40.211 F7800.000
G1 X145.496 Y39.403 F378.000 E22.37224
G1 X145.851 Y38.792 E22.39249
G1 X146.078 Y38.223 E22.41005
