; generated by Slic3r 0.9.10b on 2013-08-31 at 11:00:33

; layer_height = 0.25
; perimeters = 3
; top_solid_layers = 3
; bottom_solid_layers = 3
; fill_density = 0.2
; perimeter_speed = 30
; infill_speed = 60
; travel_speed = 130
; nozzle_diameter = 0.5
; filament_diameter = 3
; extrusion_multiplier = .926
; perimeters extrusion width = 0.84mm
; infill extrusion width = 0.84mm
; solid infill extrusion width = 0.84mm
; top infill extrusion width = 0.84mm
; first layer extrusion width = 0.70mm

G21 ; set units to millimeters
M107
M190 S60 ; wait for bed temperature to be reached
M104 S220 ; set temperature
G28 ; home all axes
G1 Z5 F5000 ; lift nozzle
M109 S220 ; wait for temperature to be reached
G90 ; use absolute coordinates
G92 E0
M82 ; use absolute distances for extrusion
G1 F1800.000 E-1.00000
G92 E0
G1 Z0.350 F7800.000
G1 X54.425 Y70.622
G1 F1800.000 E1.00000
G1 X114.525 Y29.852 F540.000 E3.18798
G1 X147.745 Y10.032 E4.35342
G1 X148.905 Y9.492 E4.39196
G1 X150.135 Y9.172 E4.43025
G1 X151.415 Y9.102 E4.46888
G1 X152.685 Y9.272 E4.50748
G1 X153.895 Y9.682 E4.54597
G1 X155.005 Y10.322 E4.58457
G1 X155.965 Y11.152 E4.62281
G1 X159.585 Y14.942 E4.78071
G1 X160.485 Y16.122 E4.82542
G1 X161.095 Y17.462 E4.86977
G1 X161.405 Y18.902 E4.91415
G1 X161.375 Y20.382 E4.95875
G1 X161.035 Y21.822 E5.00333
G1 X160.795 Y22.482 E5.02448
G1 X160.545 Y23.062 E5.04351
G1 X160.255 Y23.612 E5.06224
G1 X112.365 Y103.802 E7.87622
G1 X92.985 Y132.592 E8.92180
G1 X89.195 Y137.492 E9.10843
G1 X88.755 Y138.002 E9.12872
G1 X88.275 Y138.462 E9.14875
G1 X64.695 Y158.802 E10.08694
G1 X63.685 Y159.562 E10.12502
G1 X56.075 Y164.522 E10.39869
G1 X55.335 Y164.942 E10.42433
G1 X54.555 Y165.262 E10.44973
G1 X53.765 Y165.482 E10.47444
G1 X53.045 Y165.592 E10.49638
G1 X52.565 Y165.642 E10.51092
G1 X51.835 Y165.682 E10.53295
G1 X51.115 Y165.632 E10.55469
G1 X50.075 Y165.512 E10.58623
G1 X48.975 Y165.292 E10.62003
G1 X47.935 Y164.892 E10.65360
G1 X47.345 Y164.602 E10.67340
G1 X34.805 Y157.852 E11.10246
G1 X33.865 Y157.262 E11.13590
G1 X20.395 Y148.022 E11.62802
G1 X19.345 Y147.122 E11.66968
G1 X18.505 Y146.032 E11.71114
G1 X17.905 Y144.792 E11.75264
G1 X17.575 Y143.452 E11.79422
G1 X17.475 Y142.732 E11.81612
G1 X17.445 Y141.102 E11.86524
G1 X17.815 Y139.512 E11.91442
G1 X18.175 Y138.582 E11.94446
G1 X26.885 Y119.282 E12.58240
G1 X27.125 Y118.812 E12.59830
G1 X52.335 Y72.922 E14.17574
G1 X53.245 Y71.652 E14.22281
G1 X54.351 Y70.687 E14.26703
G1 F1800.000 E13.26703
G92 E0
G1 X58.209 Y148.997 F7800.000
G1 F1800.000 E1.00000
G1 X58.626 Y149.108 F540.000 E1.01300
G1 X58.945 Y149.229 E1.02326
G1 X59.286 Y149.700 E1.04079
G1 X59.004 Y150.086 E1.05518
G1 X58.611 Y150.386 E1.07009
G1 X57.684 Y150.232 E1.09838
G1 X57.662 Y149.789 E1.11176
G1 X57.707 Y149.248 E1.12812
G1 X58.121 Y149.041 E1.14205
G1 X58.418 Y149.375 F7800.000
G1 X58.786 Y147.787
G1 X58.057 Y147.605 F540.000 E1.16470
G1 X56.460 Y148.401 E1.21844
G1 X56.345 Y149.767 E1.25974
G1 X56.426 Y151.355 E1.30764
G1 X58.626 Y151.721 E1.37482
G1 X58.645 Y152.853 E1.40893
G1 X58.061 Y152.887 E1.42656
G1 X57.500 Y153.068 E1.44430
G1 X57.150 Y153.060 E1.45487
G1 X56.654 Y153.081 E1.46982
G1 X55.479 Y153.356 E1.50617
G1 X54.923 Y153.608 E1.52457
G1 X54.033 Y154.180 E1.55642
G1 X53.628 Y154.973 E1.58325
G1 X53.485 Y155.352 E1.59547
G1 X53.447 Y155.705 E1.60616
G1 X53.244 Y155.704 E1.61226
G1 X52.122 Y156.643 E1.65635
G1 X51.741 Y155.567 E1.69076
G1 X51.551 Y155.125 E1.70523
G1 X51.266 Y154.716 E1.72026
G1 X50.858 Y154.323 E1.73731
G1 X51.175 Y154.041 E1.75010
G1 X51.371 Y153.437 E1.76921
G1 X51.657 Y152.943 E1.78641
G1 X51.522 Y150.225 E1.86841
G1 X49.034 Y150.942 E1.94641
G1 X48.796 Y151.077 E1.95467
G1 X48.109 Y151.403 E1.97756
G1 X47.425 Y151.490 E1.99834
G1 X47.066 Y151.564 E2.00939
G1 X46.004 Y151.660 E2.04152
G1 X45.882 Y151.701 E2.04541
G1 X44.933 Y151.719 E2.07399
G1 X44.728 Y151.815 E2.08082
G1 X44.520 Y151.801 E2.08710
G1 X44.232 Y151.833 E2.09583
G1 X43.977 Y151.904 E2.10380
G1 X43.295 Y152.157 E2.12570
G1 X43.041 Y152.298 E2.13447
G1 X42.545 Y151.838 E2.15487
G1 X41.704 Y151.405 E2.18334
G1 X41.312 Y151.123 E2.19789
G1 X40.653 Y150.803 E2.21997
G1 X40.431 Y150.725 E2.22705
G1 X39.632 Y150.562 E2.25164
G1 X39.109 Y150.531 E2.26741
G1 X38.632 Y150.452 E2.28198
G1 X38.118 Y149.916 E2.30435
G1 X37.737 Y149.612 E2.31906
G1 X37.398 Y149.297 E2.33298
G1 X37.029 Y148.576 E2.35739
G1 X36.772 Y148.130 E2.37288
G1 X36.573 Y147.683 E2.38763
G1 X36.163 Y147.148 E2.40795
G1 X35.341 Y146.186 E2.44606
G1 X34.394 Y145.674 E2.47850
G1 X34.299 Y145.323 E2.48945
G1 X33.792 Y144.388 E2.52150
G1 X33.247 Y143.716 E2.54757
G1 X32.774 Y143.276 E2.56704
G1 X32.519 Y143.078 E2.57674
G1 X32.052 Y142.865 E2.59223
G1 X30.688 Y142.757 E2.63343
G1 X30.242 Y143.052 E2.64955
G1 X30.031 Y142.951 E2.65661
G1 X29.514 Y142.793 E2.67288
G1 X29.150 Y142.628 E2.68492
G1 X28.726 Y142.517 E2.69813
G1 X28.072 Y142.383 E2.71825
G1 X27.687 Y142.331 E2.72995
G1 X27.289 Y142.097 E2.74385
G1 X27.124 Y141.940 E2.75074
G1 X26.175 Y141.612 E2.78098
G1 X26.603 Y141.211 E2.79866
G1 X26.843 Y140.931 E2.80976
G1 X27.211 Y140.699 E2.82289
G1 X27.567 Y140.432 E2.83627
G1 X27.958 Y140.177 E2.85034
G1 X28.712 Y139.309 E2.88499
G1 X29.217 Y137.815 E2.93250
G1 X29.268 Y137.472 E2.94295
G1 X29.449 Y136.658 E2.96806
G1 X29.603 Y136.408 E2.97690
G1 X30.315 Y136.035 E3.00113
G1 X30.759 Y135.722 E3.01750
G1 X31.168 Y135.289 E3.03544
G1 X31.643 Y134.717 E3.05784
G1 X32.092 Y133.520 E3.09636
G1 X32.139 Y133.200 E3.10611
G1 X32.221 Y132.059 E3.14058
G1 X32.150 Y131.648 E3.15313
G1 X32.668 Y131.186 E3.17406
G1 X33.205 Y130.182 E3.20835
G1 X34.040 Y129.457 E3.24167
G1 X33.942 Y127.725 E3.29393
G1 X33.881 Y127.602 E3.29808
G1 X34.100 Y127.236 E3.31094
G1 X33.657 Y126.237 E3.34385
G1 X33.596 Y125.715 E3.35969
G1 X33.872 Y125.352 E3.37344
G1 X34.049 Y124.855 E3.38933
G1 X34.310 Y124.459 E3.40362
G1 X34.261 Y123.535 E3.43150
G1 X34.289 Y123.055 E3.44596
G1 X34.354 Y122.901 E3.45102
G1 X34.894 Y122.167 E3.47846
G1 X35.103 Y121.658 E3.49504
G1 X35.355 Y121.239 E3.50978
G1 X35.413 Y121.062 E3.51539
G1 X35.616 Y120.779 E3.52587
G1 X35.748 Y120.640 E3.53164
G1 X37.306 Y119.444 E3.59083
G1 X37.679 Y119.075 E3.60663
G1 X38.224 Y118.409 E3.63256
G1 X38.670 Y117.983 E3.65115
G1 X39.619 Y116.916 E3.69417
G1 X39.970 Y116.072 E3.72172
G1 X40.037 Y115.955 E3.72576
G1 X40.416 Y114.209 E3.77961
G1 X40.644 Y113.564 E3.80020
G1 X40.915 Y113.087 E3.81673
G1 X41.201 Y112.713 E3.83093
G1 X41.780 Y112.188 E3.85447
G1 X42.571 Y111.579 E3.88455
G1 X43.002 Y111.301 E3.90000
G1 X43.338 Y110.969 E3.91423
G1 X43.788 Y110.731 E3.92956
G1 X44.060 Y110.301 E3.94490
G1 X44.184 Y110.241 E3.94905
G1 X44.460 Y109.961 E3.96090
G1 X45.379 Y109.560 E3.99110
G1 X46.423 Y109.218 E4.02420
G1 X46.988 Y109.220 E4.04124
G1 X47.480 Y108.772 E4.06128
G1 X47.992 Y108.548 E4.07812
G1 X48.661 Y107.488 E4.11588
G1 X48.843 Y106.950 E4.13298
G1 X49.109 Y106.700 E4.14398
G1 X49.466 Y106.214 E4.16214
G1 X49.619 Y105.224 E4.19232
G1 X49.579 Y104.914 E4.20175
G1 X49.639 Y104.591 E4.21165
G1 X49.518 Y103.662 E4.23987
G1 X49.090 Y102.764 E4.26985
G1 X49.263 Y102.283 E4.28526
G1 X49.340 Y101.979 E4.29470
G1 X49.426 Y101.262 E4.31645
G1 X49.757 Y100.782 E4.33400
G1 X50.188 Y99.984 E4.36133
G1 X50.319 Y99.634 E4.37260
G1 X50.407 Y99.178 E4.38660
G1 X50.422 Y98.690 E4.40128
G1 X50.651 Y97.086 E4.45012
G1 X51.269 Y96.381 E4.47835
G1 X51.463 Y96.067 E4.48949
G1 X51.881 Y95.480 E4.51120
G1 X52.344 Y94.484 E4.54429
G1 X52.486 Y94.256 E4.55240
G1 X52.521 Y94.079 E4.55784
G1 X52.689 Y93.647 E4.57179
G1 X52.871 Y93.361 E4.58200
G1 X53.222 Y92.738 E4.60354
G1 X53.578 Y92.189 E4.62325
G1 X53.634 Y91.897 E4.63221
G1 X53.763 Y91.747 E4.63818
G1 X54.314 Y90.966 E4.66696
G1 X54.686 Y90.205 E4.69250
G1 X54.749 Y89.320 E4.71922
G1 X54.690 Y89.020 E4.72842
G1 X55.086 Y88.475 E4.74873
G1 X55.452 Y86.983 E4.79500
G1 X55.551 Y85.985 E4.82522
G1 X55.897 Y85.274 E4.84904
G1 X56.222 Y84.729 E4.86816
G1 X56.869 Y84.105 E4.89524
G1 X56.972 Y83.760 E4.90609
G1 X57.154 Y83.497 E4.91574
G1 X57.312 Y83.042 E4.93024
G1 X57.463 Y82.769 E4.93964
G1 X57.631 Y82.276 E4.95533
G1 X58.043 Y81.675 E4.97730
G1 X58.494 Y81.232 E4.99633
G1 X58.958 Y80.567 E5.02076
G1 X59.237 Y79.909 E5.04230
G1 X59.270 Y79.645 E5.05032
G1 X59.479 Y78.922 E5.07297
G1 X59.602 Y78.392 E5.08938
G1 X59.815 Y77.270 E5.12378
G1 X59.817 Y77.006 E5.13174
G1 X119.153 Y36.740 E7.29213
G1 X150.875 Y17.828 E8.40481
G1 X152.699 Y19.738 E8.48438
G1 X152.209 Y20.044 E8.50180
G1 X151.930 Y20.275 E8.51270
G1 X151.058 Y20.653 E8.54135
G1 X150.455 Y21.088 E8.56373
G1 X150.075 Y21.329 E8.57728
G1 X149.347 Y22.107 E8.60939
G1 X149.040 Y22.707 E8.62970
G1 X148.869 Y23.827 E8.66383
G1 X148.951 Y24.308 E8.67852
G1 X149.003 Y25.194 E8.70528
G1 X148.741 Y26.296 E8.73939
G1 X148.380 Y27.099 E8.76593
G1 X147.233 Y28.931 E8.83105
G1 X146.736 Y29.656 E8.85751
G1 X146.471 Y30.101 E8.87313
G1 X145.851 Y30.850 E8.90242
G1 X145.704 Y31.061 E8.91017
G1 X145.267 Y31.446 E8.92773
G1 X145.107 Y31.614 E8.93470
G1 X144.315 Y32.260 E8.96551
G1 X143.956 Y32.648 E8.98142
G1 X143.353 Y33.206 E9.00618
G1 X142.662 Y33.964 E9.03709
G1 X142.204 Y34.867 E9.06758
G1 X142.109 Y35.126 E9.07590
G1 X141.976 Y35.299 E9.08247
G1 X141.733 Y35.507 E9.09209
G1 X141.057 Y36.329 E9.12415
G1 X140.433 Y37.209 E9.15667
G1 X139.438 Y38.433 E9.20418
G1 X138.089 Y40.336 E9.27445
G1 X137.741 Y40.788 E9.29165
G1 X137.522 Y41.011 E9.30107
G1 X136.921 Y41.722 E9.32913
G1 X136.376 Y42.439 E9.35625
G1 X135.968 Y42.882 E9.37440
G1 X135.652 Y43.349 E9.39140
G1 X135.578 Y43.496 E9.39634
G1 X135.443 Y43.676 E9.40312
G1 X135.196 Y44.259 E9.42218
G1 X135.105 Y44.728 E9.43659
G1 X134.915 Y45.328 E9.45553
G1 X134.792 Y45.796 E9.47013
G1 X134.271 Y47.292 E9.51785
G1 X133.845 Y48.137 E9.54637
G1 X133.392 Y48.896 E9.57299
G1 X132.593 Y50.092 E9.61632
G1 X132.006 Y51.411 E9.65981
G1 X131.862 Y51.769 E9.67144
G1 X131.771 Y52.079 E9.68117
G1 X131.531 Y52.656 E9.69999
G1 X131.190 Y53.206 E9.71950
G1 X130.517 Y54.187 E9.75534
G1 X130.304 Y54.774 E9.77416
G1 X129.814 Y55.830 E9.80923
G1 X129.620 Y56.159 E9.82073
G1 X129.200 Y57.100 E9.85177
G1 X128.901 Y58.240 E9.88727
G1 X128.564 Y59.169 E9.91706
G1 X128.199 Y60.081 E9.94665
G1 X127.959 Y60.512 E9.96151
G1 X127.687 Y60.948 E9.97699
G1 X127.107 Y61.599 E10.00327
G1 X126.880 Y61.782 E10.01205
G1 X126.357 Y62.686 E10.04352
G1 X125.587 Y63.438 E10.07593
G1 X124.680 Y64.424 E10.11629
G1 X124.557 Y64.577 E10.12222
G1 X124.073 Y65.357 E10.14988
G1 X123.685 Y65.925 E10.17060
G1 X123.100 Y66.476 E10.19481
G1 X122.842 Y66.759 E10.20635
G1 X122.448 Y67.326 E10.22713
G1 X122.160 Y67.870 E10.24569
G1 X121.870 Y68.761 E10.27393
G1 X121.647 Y69.809 E10.30621
G1 X121.619 Y70.653 E10.33164
G1 X121.579 Y71.050 E10.34367
G1 X121.395 Y71.637 E10.36219
G1 X121.305 Y71.866 E10.36960
G1 X121.162 Y72.099 E10.37786
G1 X120.845 Y72.462 E10.39236
G1 X120.157 Y73.180 E10.42233
G1 X119.276 Y74.253 E10.46416
G1 X118.973 Y74.831 E10.48382
G1 X118.893 Y74.940 E10.48790
G1 X118.718 Y75.255 E10.49875
G1 X118.515 Y75.419 E10.50662
G1 X117.227 Y76.141 E10.55110
G1 X116.552 Y76.632 E10.57624
G1 X116.394 Y76.803 E10.58327
G1 X116.037 Y77.025 E10.59593
G1 X115.615 Y77.585 E10.61706
G1 X115.346 Y78.031 E10.63275
G1 X115.214 Y78.466 E10.64645
G1 X115.115 Y78.887 E10.65949
G1 X115.110 Y79.782 E10.68643
G1 X115.079 Y79.984 E10.69260
G1 X115.121 Y80.530 E10.70911
G1 X114.652 Y81.298 E10.73623
G1 X114.302 Y81.960 E10.75879
G1 X114.033 Y82.374 E10.77365
G1 X113.573 Y82.833 E10.79322
G1 X113.256 Y83.214 E10.80816
G1 X112.982 Y83.506 E10.82023
G1 X112.693 Y83.866 E10.83411
G1 X112.285 Y84.224 E10.85049
G1 X111.575 Y84.799 E10.87801
G1 X111.363 Y85.066 E10.88828
G1 X110.934 Y85.614 E10.90925
G1 X110.720 Y85.952 E10.92130
G1 X110.434 Y86.480 E10.93940
G1 X110.203 Y86.991 E10.95628
G1 X109.967 Y87.340 E10.96899
G1 X109.581 Y87.748 E10.98590
G1 X109.323 Y88.073 E10.99840
G1 X108.999 Y88.532 E11.01533
G1 X108.609 Y89.314 E11.04165
G1 X107.957 Y89.813 E11.06640
G1 X107.535 Y90.306 E11.08594
G1 X106.979 Y91.040 E11.11369
G1 X106.616 Y91.685 E11.13599
G1 X106.241 Y92.545 E11.16424
G1 X105.682 Y93.549 E11.19887
G1 X105.419 Y93.957 E11.21350
G1 X105.138 Y94.554 E11.23336
G1 X104.814 Y95.151 E11.25384
G1 X104.654 Y95.537 E11.26643
G1 X104.474 Y96.056 E11.28298
G1 X104.520 Y97.230 E11.31837
G1 X104.951 Y98.036 E11.34592
G1 X105.220 Y98.469 E11.36128
G1 X105.340 Y98.825 E11.37259
G1 X105.178 Y99.530 E11.39437
G1 X104.595 Y99.948 E11.41598
G1 X104.028 Y100.268 E11.43560
G1 X103.876 Y100.308 E11.44036
G1 X103.092 Y100.597 E11.46551
G1 X102.589 Y100.750 E11.48135
G1 X101.287 Y101.354 E11.52459
G1 X100.880 Y101.665 E11.54003
G1 X100.645 Y101.808 E11.54832
G1 X100.111 Y101.962 E11.56507
G1 X99.548 Y102.075 E11.58237
G1 X99.102 Y102.330 E11.59785
G1 X98.690 Y102.599 E11.61268
G1 X98.304 Y102.967 E11.62873
G1 X97.873 Y103.484 E11.64900
G1 X97.803 Y103.619 E11.65360
G1 X97.459 Y103.774 E11.66496
G1 X97.283 Y104.008 E11.67379
G1 X96.645 Y104.507 E11.69819
G1 X96.122 Y105.306 E11.72696
G1 X95.970 Y105.588 E11.73661
G1 X95.570 Y107.047 E11.78218
G1 X95.533 Y107.372 E11.79205
G1 X95.479 Y107.628 E11.79993
G1 X95.383 Y107.859 E11.80745
G1 X95.104 Y108.231 E11.82147
G1 X94.926 Y108.576 E11.83317
G1 X93.935 Y109.945 E11.88409
G1 X93.456 Y110.380 E11.90358
G1 X92.715 Y110.958 E11.93190
G1 X92.256 Y111.242 E11.94815
G1 X91.414 Y111.670 E11.97662
G1 X90.991 Y111.856 E11.99055
G1 X90.796 Y111.969 E11.99733
G1 X90.486 Y112.072 E12.00716
G1 X89.674 Y112.511 E12.03499
G1 X89.269 Y112.905 E12.05198
G1 X88.968 Y113.112 E12.06301
G1 X88.453 Y113.889 E12.09110
G1 X88.292 Y114.079 E12.09858
G1 X88.061 Y114.290 E12.10802
G1 X87.504 Y114.591 E12.12708
G1 X87.017 Y114.816 E12.14325
G1 X86.807 Y115.026 E12.15220
G1 X86.628 Y115.168 E12.15909
G1 X85.988 Y115.576 E12.18195
G1 X85.282 Y116.126 E12.20890
G1 X84.649 Y116.524 E12.23144
G1 X83.807 Y117.219 E12.26432
G1 X83.518 Y117.418 E12.27488
G1 X82.999 Y117.588 E12.29136
G1 X82.305 Y117.867 E12.31389
G1 X81.993 Y118.028 E12.32447
G1 X81.645 Y118.267 E12.33718
G1 X81.111 Y118.745 E12.35879
G1 X80.741 Y119.158 E12.37547
G1 X79.946 Y120.227 E12.41562
G1 X79.786 Y120.390 E12.42249
G1 X78.587 Y121.033 E12.46349
G1 X77.843 Y121.284 E12.48715
G1 X77.340 Y121.490 E12.50351
G1 X76.293 Y122.025 E12.53895
G1 X75.737 Y122.565 E12.56229
G1 X75.567 Y122.762 E12.57014
G1 X75.170 Y123.359 E12.59175
G1 X74.980 Y123.801 E12.60623
G1 X74.786 Y124.679 E12.63332
G1 X74.785 Y125.017 E12.64351
G1 X74.889 Y125.676 E12.66362
G1 X75.215 Y126.402 E12.68759
G1 X75.798 Y127.028 E12.71336
G1 X77.046 Y127.457 E12.75311
G1 X78.077 Y127.444 E12.78417
G1 X79.583 Y127.179 E12.83025
G1 X80.887 Y126.719 E12.87190
G1 X81.802 Y126.187 E12.90379
G1 X82.110 Y125.911 E12.91627
G1 X82.562 Y125.386 E12.93714
G1 X82.812 Y124.861 E12.95464
G1 X83.406 Y124.795 E12.97264
G1 X84.145 Y124.561 E12.99602
G1 X84.400 Y124.430 E13.00464
G1 X85.108 Y124.009 E13.02946
G1 X85.538 Y123.818 E13.04365
G1 X86.223 Y123.623 E13.06510
G1 X86.511 Y123.566 E13.07393
G1 X86.718 Y123.483 E13.08066
G1 X86.992 Y123.533 E13.08906
G1 X87.111 Y123.758 E13.09671
G1 X87.257 Y124.114 E13.10832
G1 X87.341 Y124.392 E13.11706
G1 X87.353 Y124.742 E13.12761
G1 X87.336 Y124.859 E13.13119
G1 X87.223 Y125.556 E13.15245
G1 X87.097 Y126.001 E13.16639
G1 X86.876 Y126.570 E13.18478
G1 X86.637 Y126.980 E13.19909
G1 X86.536 Y127.244 E13.20760
G1 X86.356 Y127.593 E13.21942
G1 X86.132 Y127.846 E13.22959
G1 X86.026 Y127.935 E13.23376
G1 X85.483 Y128.610 E13.25988
G1 X85.210 Y128.911 E13.27212
G1 X84.973 Y129.136 E13.28195
G1 X84.723 Y129.332 E13.29153
G1 X84.303 Y129.607 E13.30666
G1 X83.765 Y130.230 E13.33145
G1 X83.481 Y130.616 E13.34589
G1 X83.233 Y131.257 E13.36660
G1 X83.045 Y131.637 E13.37939
G1 X83.037 Y131.706 E13.38147
G1 X82.952 Y131.906 E13.38803
G1 X82.714 Y132.258 E13.40083
G1 X81.264 Y133.547 E13.45926
G1 X80.466 Y134.093 E13.48839
G1 X80.037 Y134.464 E13.50549
G1 X79.456 Y135.014 E13.52959
G1 X79.096 Y135.252 E13.54258
G1 X77.856 Y135.817 E13.58365
G1 X76.890 Y136.131 E13.61424
G1 X76.532 Y136.199 E13.62522
