; generated by Slic3r 0.9.10b on 2013-08-16 at 02:43:44

; layer_height = 0.25
; perimeters = 3
; top_solid_layers = 3
; bottom_solid_layers = 3
; fill_density = 1
; perimeter_speed = 30
; infill_speed = 60
; travel_speed = 130
; nozzle_diameter = 0.5
; filament_diameter = 3
; extrusion_multiplier = .926
; perimeters extrusion width = 0.84mm
; infill extrusion width = 0.84mm
; solid infill extrusion width = 0.84mm
; top infill extrusion width = 0.84mm
; first layer extrusion width = 0.70mm

G21 ; set units to millimeters
M107
M190 S60 ; wait for bed temperature to be reached
M104 S220 ; set temperature
G28 ; home all axes
G1 Z5 F5000 ; lift nozzle
M109 S220 ; wait for temperature to be reached
G90 ; use absolute coordinates
G92 E0
M82 ; use absolute distances for extrusion
G1 F1800.000 E-1.00000
G92 E0
G1 Z0.350 F7800.000
G1 X59.781 Y72.955
G1 F1800.000 E1.00000
G1 X109.621 Y39.145 F540.000 E2.81446
G1 X137.631 Y22.435 E3.79709
G1 X138.791 Y21.895 E3.83564
G1 X140.031 Y21.575 E3.87422
G1 X141.311 Y21.505 E3.91284
G1 X142.571 Y21.675 E3.95115
G1 X143.781 Y22.095 E3.98974
G1 X144.891 Y22.725 E4.02819
G1 X145.861 Y23.565 E4.06685
G1 X148.641 Y26.485 E4.18831
G1 X149.431 Y27.495 E4.22695
G1 X150.021 Y28.645 E4.26589
G1 X150.371 Y29.885 E4.30470
G1 X150.481 Y31.165 E4.34341
G1 X150.331 Y32.445 E4.38224
G1 X149.951 Y33.675 E4.42102
G1 X149.671 Y34.335 E4.44262
G1 X149.311 Y35.055 E4.46687
G1 X145.451 Y41.775 E4.70035
G1 X109.601 Y102.035 E6.81283
G1 X93.361 Y126.035 E7.68588
G1 X90.161 Y130.235 E7.84495
G1 X89.741 Y130.735 E7.86463
G1 X89.281 Y131.185 E7.88401
G1 X87.851 Y132.455 E7.94164
G1 X69.581 Y148.105 E8.66640
G1 X69.001 Y148.565 E8.68870
G1 X68.431 Y148.975 E8.70986
G1 X62.201 Y152.935 E8.93226
G1 X61.571 Y153.285 E8.95397
G1 X60.691 Y153.655 E8.98273
G1 X59.841 Y153.895 E9.00934
G1 X58.961 Y154.025 E9.03614
G1 X57.971 Y154.065 E9.06599
G1 X57.221 Y154.005 E9.08866
G1 X56.531 Y153.905 E9.10967
G1 X55.421 Y153.645 E9.14401
G1 X54.371 Y153.205 E9.17831
G1 X43.591 Y147.515 E9.54555
G1 X42.541 Y146.845 E9.58308
G1 X31.491 Y139.235 E9.98730
G1 X30.521 Y138.415 E10.02557
G1 X29.721 Y137.425 E10.06391
G1 X29.121 Y136.295 E10.10246
G1 X28.751 Y135.085 E10.14058
G1 X28.621 Y134.445 E10.16026
G1 X28.481 Y133.165 E10.19905
G1 X28.601 Y131.875 E10.23808
G1 X28.961 Y130.645 E10.27669
G1 X29.081 Y130.345 E10.28643
G1 X36.291 Y114.315 E10.81598
G1 X36.561 Y113.765 E10.83443
G1 X37.511 Y111.995 E10.89496
G1 X57.681 Y75.265 E12.15741
G1 X58.601 Y73.985 E12.20491
G1 X59.707 Y73.020 E12.24912
G1 F1800.000 E11.24912
G92 E0
G1 X65.181 Y79.337 F7800.000
G1 F1800.000 E1.00000
G1 X114.251 Y46.037 F540.000 E2.78662
G1 X140.759 Y30.234 E3.71638
G1 X141.697 Y31.217 E3.75731
G1 X141.223 Y31.608 E3.77582
G1 X140.727 Y31.823 E3.79211
G1 X140.087 Y32.285 E3.81588
G1 X139.835 Y32.445 E3.82489
G1 X139.090 Y33.241 E3.85774
G1 X138.824 Y33.760 E3.87531
G1 X138.663 Y34.827 E3.90782
G1 X138.776 Y35.494 E3.92819
G1 X138.802 Y36.049 E3.94494
G1 X138.594 Y36.918 E3.97185
G1 X138.260 Y37.623 E3.99534
G1 X136.787 Y39.954 E4.07841
G1 X136.203 Y40.670 E4.10625
G1 X135.722 Y41.107 E4.12584
G1 X135.074 Y41.630 E4.15093
G1 X134.687 Y42.049 E4.16812
G1 X134.250 Y42.453 E4.18606
G1 X133.877 Y42.875 E4.20303
G1 X133.613 Y43.141 E4.21430
G1 X133.184 Y43.974 E4.24254
G1 X133.115 Y44.162 E4.24858
G1 X133.062 Y44.232 E4.25121
G1 X132.919 Y44.354 E4.25689
G1 X132.301 Y45.107 E4.28623
G1 X131.821 Y45.782 E4.31117
G1 X130.996 Y46.799 E4.35063
G1 X129.787 Y48.510 E4.41375
G1 X129.542 Y48.827 E4.42585
G1 X129.382 Y48.991 E4.43273
G1 X128.910 Y49.548 E4.45472
G1 X128.401 Y50.215 E4.48000
G1 X128.104 Y50.538 E4.49322
G1 X127.655 Y51.202 E4.51737
G1 X127.388 Y51.833 E4.53801
G1 X127.324 Y52.168 E4.54828
G1 X127.077 Y52.984 E4.57396
G1 X126.611 Y54.337 E4.61708
G1 X126.260 Y55.028 E4.64044
G1 X125.958 Y55.533 E4.65816
G1 X125.215 Y56.645 E4.69845
G1 X124.703 Y57.788 E4.73619
G1 X124.345 Y58.720 E4.76627
G1 X124.041 Y59.210 E4.78366
G1 X123.511 Y59.981 E4.81181
G1 X123.309 Y60.537 E4.82964
G1 X122.959 Y61.284 E4.85452
G1 X122.764 Y61.616 E4.86612
G1 X122.399 Y62.428 E4.89291
G1 X122.098 Y63.571 E4.92855
G1 X121.892 Y64.146 E4.94693
G1 X121.573 Y64.887 E4.97125
G1 X121.435 Y65.077 E4.97832
G1 X121.124 Y65.594 E4.99648
G1 X120.460 Y66.322 E5.02618
G1 X120.007 Y67.075 E5.05266
G1 X119.544 Y67.526 E5.07213
G1 X118.751 Y68.394 E5.10755
G1 X118.472 Y68.734 E5.12080
G1 X118.115 Y69.311 E5.14126
G1 X117.854 Y69.691 E5.15514
G1 X117.154 Y70.380 E5.18473
G1 X116.774 Y70.928 E5.20482
G1 X116.559 Y71.332 E5.21860
G1 X116.278 Y72.188 E5.24575
G1 X116.079 Y73.123 E5.27456
G1 X116.055 Y73.892 E5.29773
G1 X116.025 Y74.192 E5.30680
G1 X115.883 Y74.651 E5.32128
G1 X115.763 Y74.885 E5.32921
G1 X115.462 Y75.245 E5.34335
G1 X114.932 Y75.800 E5.36647
G1 X114.553 Y76.257 E5.38436
G1 X114.344 Y76.475 E5.39346
G1 X114.140 Y76.740 E5.40353
G1 X113.914 Y77.186 E5.41860
G1 X113.736 Y77.469 E5.42867
G1 X113.641 Y77.572 E5.43288
G1 X113.350 Y77.722 E5.44276
G1 X113.148 Y77.863 E5.45019
G1 X112.461 Y78.233 E5.47366
G1 X112.373 Y78.325 E5.47752
G1 X111.941 Y78.631 E5.49346
G1 X111.792 Y78.794 E5.50011
G1 X111.524 Y78.960 E5.50960
G1 X111.161 Y79.442 E5.52777
G1 X110.869 Y79.925 E5.54478
G1 X110.658 Y80.685 E5.56855
G1 X110.641 Y81.619 E5.59669
G1 X110.673 Y82.023 E5.60891
G1 X110.214 Y82.753 E5.63490
G1 X109.990 Y83.215 E5.65036
G1 X109.810 Y83.487 E5.66019
G1 X108.920 Y84.422 E5.69906
G1 X108.736 Y84.652 E5.70796
G1 X108.406 Y84.942 E5.72117
G1 X107.775 Y85.446 E5.74551
G1 X107.230 Y86.139 E5.77208
G1 X107.026 Y86.461 E5.78357
G1 X106.757 Y86.959 E5.80063
G1 X106.562 Y87.390 E5.81487
G1 X106.394 Y87.638 E5.82388
G1 X106.115 Y87.919 E5.83583
G1 X105.580 Y88.633 E5.86271
G1 X105.256 Y89.269 E5.88421
G1 X104.763 Y89.635 E5.90271
G1 X104.432 Y90.021 E5.91803
G1 X103.955 Y90.661 E5.94209
G1 X103.614 Y91.265 E5.96297
G1 X103.286 Y92.023 E5.98785
G1 X102.854 Y92.793 E6.01447
G1 X102.575 Y93.227 E6.03001
G1 X102.382 Y93.632 E6.04352
G1 X102.074 Y94.199 E6.06297
G1 X101.766 Y95.056 E6.09041
G1 X101.796 Y95.820 E6.11342
G1 X101.876 Y96.261 E6.12693
G1 X102.217 Y96.881 E6.14825
G1 X102.418 Y97.201 E6.15964
G1 X102.477 Y97.379 E6.16530
G1 X102.399 Y97.770 E6.17731
G1 X102.032 Y98.026 E6.19078
G1 X101.570 Y98.292 E6.20682
G1 X101.275 Y98.369 E6.21604
G1 X100.387 Y98.660 E6.24418
G1 X99.191 Y99.220 E6.28397
G1 X98.834 Y99.484 E6.29734
G1 X98.285 Y99.651 E6.31463
G1 X97.877 Y99.733 E6.32716
G1 X97.092 Y100.200 E6.35467
G1 X96.656 Y100.615 E6.37281
G1 X96.299 Y101.051 E6.38980
G1 X96.037 Y101.168 E6.39843
G1 X95.840 Y101.430 E6.40831
G1 X95.539 Y101.647 E6.41949
G1 X95.236 Y101.958 E6.43257
G1 X94.687 Y102.817 E6.46328
G1 X94.358 Y104.044 E6.50156
G1 X94.242 Y104.602 E6.51872
G1 X94.195 Y104.742 E6.52319
G1 X93.983 Y105.010 E6.53346
G1 X93.734 Y105.495 E6.54989
G1 X93.493 Y105.836 E6.56247
G1 X92.999 Y106.510 E6.58764
G1 X92.730 Y106.758 E6.59868
G1 X92.292 Y107.097 E6.61536
G1 X91.785 Y107.410 E6.63331
G1 X91.084 Y107.775 E6.65712
G1 X90.784 Y107.907 E6.66698
G1 X90.521 Y108.060 E6.67615
G1 X90.318 Y108.127 E6.68258
G1 X89.557 Y108.541 E6.70870
G1 X89.236 Y108.848 E6.72208
G1 X88.886 Y109.089 E6.73487
G1 X88.541 Y109.610 E6.75371
G1 X88.255 Y109.913 E6.76628
G1 X87.708 Y110.236 E6.78539
G1 X87.364 Y110.394 E6.79680
G1 X87.137 Y110.622 E6.80649
G1 X86.875 Y110.829 E6.81655
G1 X86.576 Y111.021 E6.82726
G1 X85.930 Y111.510 E6.85167
G1 X85.459 Y111.808 E6.86846
G1 X84.513 Y112.572 E6.90511
G1 X84.105 Y112.698 E6.91796
G1 X83.478 Y112.948 E6.93830
G1 X83.126 Y113.130 E6.95024
G1 X82.869 Y113.307 E6.95964
G1 X82.303 Y113.813 E6.98252
G1 X82.042 Y114.104 E6.99429
G1 X81.436 Y114.884 E7.02406
G1 X81.279 Y115.038 E7.03067
G1 X80.731 Y115.359 E7.04983
G1 X80.340 Y115.561 E7.06308
G1 X79.231 Y116.006 E7.09907
G1 X78.378 Y116.446 E7.12798
G1 X77.912 Y116.899 E7.14756
G1 X77.723 Y117.117 E7.15627
G1 X77.391 Y117.617 E7.17435
G1 X77.183 Y118.101 E7.19022
G1 X77.014 Y118.846 E7.21324
G1 X77.013 Y119.306 E7.22709
G1 X77.093 Y119.813 E7.24257
G1 X77.448 Y120.602 E7.26860
G1 X77.946 Y121.138 E7.29066
G1 X78.997 Y121.532 E7.32448
G1 X79.401 Y121.551 E7.33667
G1 X80.002 Y121.542 E7.35477
G1 X81.078 Y121.367 E7.38761
G1 X81.385 Y121.299 E7.39709
G1 X82.531 Y120.899 E7.43366
G1 X83.385 Y120.403 E7.46342
G1 X83.644 Y120.172 E7.47387
G1 X84.112 Y119.627 E7.49551
G1 X84.226 Y119.388 E7.50350
G1 X84.543 Y119.352 E7.51311
G1 X85.126 Y119.167 E7.53153
G1 X85.453 Y119.008 E7.54248
G1 X86.104 Y118.633 E7.56513
G1 X86.446 Y118.493 E7.57626
G1 X86.915 Y118.358 E7.59096
G1 X87.318 Y118.279 E7.60333
G1 X87.430 Y118.649 E7.61498
G1 X87.441 Y118.981 E7.62497
G1 X87.327 Y119.609 E7.64421
G1 X87.286 Y119.759 E7.64888
G1 X87.199 Y119.927 E7.65458
G1 X87.058 Y120.306 E7.66675
G1 X86.943 Y120.503 E7.67363
G1 X86.800 Y120.878 E7.68573
G1 X86.694 Y121.082 E7.69266
G1 X85.870 Y122.060 E7.73120
G1 X85.417 Y122.472 E7.74964
G1 X84.995 Y122.747 E7.76483
G1 X84.527 Y123.299 E7.78662
G1 X84.294 Y123.615 E7.79844
G1 X84.051 Y124.243 E7.81873
G1 X83.895 Y124.557 E7.82927
G1 X83.882 Y124.676 E7.83290
G1 X83.835 Y124.787 E7.83652
G1 X83.589 Y125.150 E7.84976
G1 X82.619 Y126.019 E7.88899
G1 X81.912 Y126.499 E7.91472
G1 X81.493 Y126.861 E7.93142
G1 X81.029 Y127.303 E7.95072
G1 X80.781 Y127.467 E7.95968
G1 X79.772 Y127.918 E7.99297
G1 X79.001 Y128.165 E8.01736
G1 X78.660 Y128.230 E8.02782
G1 X78.121 Y128.446 E8.04530
G1 X77.476 Y128.664 E8.06583
G1 X77.335 Y128.694 E8.07017
G1 X77.048 Y128.711 E8.07885
G1 X76.031 Y128.832 E8.10969
G1 X75.722 Y128.889 E8.11917
G1 X75.169 Y129.083 E8.13681
G1 X74.692 Y129.272 E8.15228
G1 X74.362 Y129.455 E8.16365
G1 X73.843 Y129.850 E8.18330
G1 X73.634 Y129.986 E8.19080
G1 X73.117 Y130.431 E8.21134
G1 X72.788 Y130.659 E8.22342
G1 X72.360 Y130.859 E8.23766
G1 X71.692 Y130.946 E8.25793
G1 X70.690 Y131.169 E8.28887
G1 X70.061 Y131.422 E8.30929
G1 X69.511 Y131.745 E8.32851
G1 X69.109 Y132.154 E8.34578
G1 X68.671 Y132.909 E8.37210
G1 X68.199 Y133.431 E8.39327
G1 X67.923 Y133.813 E8.40749
G1 X67.479 Y134.462 E8.43118
G1 X67.144 Y135.162 E8.45455
G1 X66.295 Y135.890 E8.48823
G1 X66.157 Y136.116 E8.49623
G1 X65.891 Y136.461 E8.50934
G1 X65.775 Y136.653 E8.51610
G1 X65.193 Y137.389 E8.54435
G1 X65.037 Y137.490 E8.54999
G1 X64.553 Y137.911 E8.56930
G1 X63.352 Y137.592 E8.60674
G1 X62.521 Y137.907 E8.63351
G1 X61.401 Y138.917 E8.67895
G1 X61.442 Y139.727 E8.70339
G1 X61.308 Y140.609 E8.73026
G1 X62.566 Y142.071 E8.78836
G1 X61.033 Y142.430 E8.83581
G1 X60.687 Y142.586 E8.84723
G1 X59.711 Y143.214 E8.88220
G1 X59.369 Y143.884 E8.90487
G1 X59.228 Y144.256 E8.91684
G1 X59.045 Y144.255 E8.92237
G1 X58.537 Y144.680 E8.94233
G1 X58.318 Y144.171 E8.95903
G1 X57.914 Y143.589 E8.98038
G1 X58.317 Y143.086 E8.99979
G1 X58.664 Y142.486 E9.02068
G1 X58.521 Y139.598 E9.10781
G1 X55.669 Y140.417 E9.19720
G1 X55.319 Y140.615 E9.20930
G1 X54.855 Y140.836 E9.22480
G1 X54.304 Y140.906 E9.24152
G1 X53.338 Y140.993 E9.27074
G1 X52.450 Y141.009 E9.29751
G1 X52.199 Y141.127 E9.30586
G1 X51.767 Y141.175 E9.31894
G1 X50.989 Y141.392 E9.34329
G1 X50.112 Y140.926 E9.37322
G1 X49.822 Y140.794 E9.38281
G1 X49.625 Y140.652 E9.39011
G1 X49.151 Y140.422 E9.40601
G1 X48.735 Y140.279 E9.41927
G1 X48.113 Y140.154 E9.43838
G1 X47.360 Y140.073 E9.46119
G1 X46.992 Y139.690 E9.47718
G1 X46.591 Y139.369 E9.49267
G1 X46.391 Y139.178 E9.50099
G1 X45.981 Y138.390 E9.52777
G1 X45.749 Y137.871 E9.54487
G1 X45.019 Y136.939 E9.58054
G1 X44.683 Y136.414 E9.59934
G1 X44.101 Y136.122 E9.61896
G1 X44.074 Y136.007 E9.62251
G1 X43.862 Y135.706 E9.63362
G1 X43.649 Y135.238 E9.64911
G1 X43.479 Y135.062 E9.65647
G1 X43.019 Y134.480 E9.67883
G1 X42.835 Y134.308 E9.68641
G1 X42.324 Y133.911 E9.70591
G1 X41.688 Y133.621 E9.72698
G1 X40.905 Y133.559 E9.75064
G1 X40.074 Y133.768 E9.77644
G1 X39.172 Y133.484 E9.80494
G1 X38.224 Y133.307 E9.83400
G1 X38.055 Y133.208 E9.83989
G1 X37.541 Y132.718 E9.86129
G1 X38.535 Y132.064 E9.89717
G1 X39.239 Y131.260 E9.92935
G1 X39.687 Y129.925 E9.97179
G1 X39.758 Y129.540 E9.98357
G1 X39.891 Y129.013 E9.99994
G1 X40.641 Y128.620 E10.02547
G1 X40.900 Y128.438 E10.03501
G1 X41.453 Y127.820 E10.05998
G1 X41.781 Y127.409 E10.07582
G1 X42.100 Y126.559 E10.10318
G1 X42.174 Y126.056 E10.11848
G1 X42.233 Y125.011 E10.15002
G1 X42.208 Y124.868 E10.15440
G1 X42.492 Y124.610 E10.16596
G1 X42.892 Y123.934 E10.18963
G1 X43.852 Y123.101 E10.22792
G1 X43.735 Y121.230 E10.28441
G1 X43.704 Y120.450 E10.30791
G1 X43.464 Y120.090 E10.32096
G1 X43.361 Y119.865 E10.32841
G1 X43.497 Y119.686 E10.33520
G1 X43.684 Y119.162 E10.35195
G1 X43.920 Y118.802 E10.36492
G1 X43.880 Y118.041 E10.38787
G1 X43.897 Y117.630 E10.40027
G1 X44.383 Y116.988 E10.42453
G1 X44.606 Y116.444 E10.44223
G1 X44.770 Y116.170 E10.45187
G1 X44.826 Y116.000 E10.45726
G1 X44.954 Y115.811 E10.46414
G1 X45.179 Y115.614 E10.47314
G1 X46.397 Y114.688 E10.51924
G1 X46.531 Y114.553 E10.52496
G1 X47.107 Y113.850 E10.55236
G1 X47.584 Y113.395 E10.57221
G1 X48.341 Y112.542 E10.60658
G1 X48.755 Y111.559 E10.63870
G1 X48.774 Y111.297 E10.64661
G1 X48.982 Y110.312 E10.67694
G1 X49.166 Y109.791 E10.69361
G1 X49.376 Y109.451 E10.70562
G1 X49.676 Y109.043 E10.72089
G1 X50.062 Y108.691 E10.73664
G1 X50.778 Y108.150 E10.76369
G1 X51.111 Y107.957 E10.77527
G1 X51.341 Y107.731 E10.78499
G1 X51.832 Y107.471 E10.80174
G1 X51.988 Y107.225 E10.81050
G1 X52.187 Y107.129 E10.81716
G1 X52.306 Y107.007 E10.82230
G1 X53.282 Y106.575 E10.85447
G1 X53.738 Y106.425 E10.86892
G1 X54.479 Y106.429 E10.89124
G1 X55.189 Y105.782 E10.92017
G1 X55.470 Y105.432 E10.93371
G1 X55.865 Y104.820 E10.95564
G1 X56.068 Y104.350 E10.97106
G1 X56.376 Y103.970 E10.98579
G1 X56.668 Y103.399 E11.00513
G1 X56.770 Y102.742 E11.02516
G1 X56.721 Y102.361 E11.03672
G1 X56.745 Y102.232 E11.04068
G1 X56.612 Y101.203 E11.07193
G1 X56.329 Y100.607 E11.09182
G1 X56.411 Y100.379 E11.09911
G1 X56.536 Y99.880 E11.11461
G1 X56.591 Y99.425 E11.12843
G1 X56.848 Y99.066 E11.14171
G1 X57.053 Y98.582 E11.15756
G1 X57.170 Y98.365 E11.16498
G1 X57.269 Y98.102 E11.17346
G1 X57.329 Y97.790 E11.18301
G1 X57.346 Y97.244 E11.19948
G1 X57.437 Y96.664 E11.21717
G1 X57.454 Y96.343 E11.22685
G1 X57.499 Y96.034 E11.23625
G1 X57.917 Y95.551 E11.25550
G1 X58.489 Y94.732 E11.28559
G1 X58.781 Y94.087 E11.30692
G1 X59.040 Y93.674 E11.32161
G1 X59.084 Y93.451 E11.32844
G1 X59.171 Y93.219 E11.33591
G1 X59.561 Y92.560 E11.35900
G1 X59.700 Y92.386 E11.36569
G1 X60.018 Y91.868 E11.38401
G1 X60.045 Y91.729 E11.38828
G1 X60.621 Y90.911 E11.41842
G1 X60.900 Y90.341 E11.43756
G1 X60.977 Y89.262 E11.47012
G1 X61.314 Y88.799 E11.48737
G1 X61.595 Y87.652 E11.52297
G1 X61.698 Y86.651 E11.55329
G1 X61.850 Y86.293 E11.56500
G1 X62.146 Y85.798 E11.58237
G1 X62.706 Y85.261 E11.60575
G1 X62.833 Y84.835 E11.61913
G1 X62.911 Y84.723 E11.62327
G1 X63.003 Y84.459 E11.63167
G1 X63.220 Y84.066 E11.64519
G1 X63.291 Y83.844 E11.65221
G1 X63.482 Y83.505 E11.66394
G1 X63.605 Y83.329 E11.67042
G1 X64.032 Y82.911 E11.68841
G1 X64.392 Y82.394 E11.70741
G1 X64.700 Y81.670 E11.73109
G1 X64.737 Y81.369 E11.74023
G1 X64.995 Y80.351 E11.77188
G1 X65.162 Y79.434 E11.79996
G1 X64.503 Y79.375 F7800.000
G1 X64.506 Y79.001 F540.000 E11.81121
G1 X113.898 Y45.483 E13.60957
G1 X140.872 Y29.402 E14.55570
G1 X142.711 Y31.327 E14.63591
G1 X142.340 Y31.618 E14.65011
G1 X141.939 Y31.868 E14.66435
G1 X141.570 Y32.173 E14.67879
G1 X141.054 Y32.397 E14.69572
G1 X140.257 Y32.955 E14.72504
G1 X139.633 Y33.623 E14.75257
G1 X139.457 Y33.966 E14.76420
G1 X139.328 Y34.819 E14.79019
G1 X139.429 Y35.414 E14.80835
G1 X139.462 Y36.111 E14.82938
G1 X139.224 Y37.119 E14.86060
G1 X138.936 Y37.758 E14.88169
G1 X138.829 Y37.953 E14.88841
G1 X137.913 Y39.422 E14.94058
G1 X137.578 Y39.912 E14.95845
G1 X137.326 Y40.334 E14.97326
G1 X136.698 Y41.110 E15.00334
G1 X136.173 Y41.586 E15.02468
G1 X135.513 Y42.119 E15.05023
G1 X135.162 Y42.505 E15.06595
G1 X134.720 Y42.913 E15.08408
G1 X134.146 Y43.537 E15.10961
G1 X133.789 Y44.232 E15.13316
G1 X133.698 Y44.483 E15.14119
G1 X133.542 Y44.686 E15.14893
G1 X133.390 Y44.816 E15.15494
G1 X132.825 Y45.503 E15.18175
