; generated by Slic3r 0.9.10b on 2013-07-30 at 22:08:49

; layer_height = 0.4
; perimeters = 3
; top_solid_layers = 3
; bottom_solid_layers = 3
; fill_density = 0.4
; perimeter_speed = 30
; infill_speed = 60
; travel_speed = 130
; nozzle_diameter = 0.5
; filament_diameter = 3
; extrusion_multiplier = 1
; perimeters extrusion width = 0.53mm
; infill extrusion width = 0.53mm
; solid infill extrusion width = 0.53mm
; top infill extrusion width = 0.53mm
; first layer extrusion width = 0.70mm

G21 ; set units to millimeters
M107
M104 S200 ; set temperature
G28 ; home all axes
G1 Z5 F5000 ; lift nozzle

M109 S200 ; wait for temperature to be reached
G90 ; use absolute coordinates
G92 E0
M82 ; use absolute distances for extrusion
G1 F1800.000 E-1.00000
G92 E0
G1 Z0.350 F7800.000
G1 X57.150 Y72.878
G1 F1800.000 E1.00000
G1 X58.270 Y72.068 F540.000 E1.04497
G1 X96.660 Y49.898 E2.48731
G1 X97.930 Y49.328 E2.53260
G1 X99.290 Y49.038 E2.57785
G1 X100.690 Y49.038 E2.62339
G1 X102.050 Y49.328 E2.66864
G1 X103.320 Y49.888 E2.71380
G1 X141.720 Y72.058 E4.15642
G1 X142.840 Y72.878 E4.20158
G1 X143.780 Y73.918 E4.24719
G1 X144.470 Y75.118 E4.29223
G1 X144.900 Y76.448 E4.33770
G1 X145.050 Y77.828 E4.38287
G1 X145.050 Y122.168 E5.82548
G1 X144.900 Y123.548 E5.87064
G1 X144.470 Y124.878 E5.91612
G1 X143.780 Y126.078 E5.96116
G1 X142.840 Y127.118 E6.00677
G1 X141.720 Y127.938 E6.05193
G1 X103.320 Y150.108 E7.49455
G1 X102.050 Y150.668 E7.53971
G1 X100.690 Y150.958 E7.58495
G1 X99.290 Y150.958 E7.63050
G1 X97.930 Y150.668 E7.67574
G1 X96.660 Y150.098 E7.72103
G1 X58.270 Y127.928 E9.16338
G1 X57.150 Y127.118 E9.20835
G1 X56.210 Y126.078 E9.25396
G1 X55.520 Y124.878 E9.29899
G1 X55.090 Y123.548 E9.34447
G1 X54.940 Y122.168 E9.38963
G1 X54.940 Y77.828 E10.83224
G1 X55.090 Y76.448 E10.87741
G1 X55.520 Y75.118 E10.92288
G1 X56.210 Y73.918 E10.96792
G1 X57.084 Y72.951 E11.01032
G1 F1800.000 E10.01032
G92 E0
G1 X70.111 Y112.231 F7800.000
G1 F1800.000 E1.00000
G1 X70.645 Y112.539 F378.000 E1.02005
G1 X70.932 Y112.373 E1.03084
G1 X70.932 Y112.231 E1.03547
G1 X71.055 Y112.302 E1.04009
G1 X71.179 Y112.231 E1.04474
G1 X71.179 Y112.374 E1.04938
G1 X71.466 Y112.539 E1.06017
G1 X72.000 Y112.232 E1.08022
G1 X72.000 Y112.847 E1.10025
G1 X72.287 Y113.013 E1.11102
G1 X72.574 Y112.847 E1.12183
G1 X72.574 Y112.230 E1.14189
G1 X73.108 Y112.539 E1.16198
G1 X73.395 Y112.373 E1.17277
G1 X73.395 Y112.231 E1.17740
G1 X73.519 Y112.302 E1.18202
G1 X73.641 Y112.231 E1.18663
G1 X73.641 Y112.373 E1.19125
G1 X73.929 Y112.539 E1.20206
G1 X74.464 Y112.230 E1.22216
G1 X74.463 Y112.848 E1.24225
G1 X74.751 Y113.014 E1.25306
G1 X74.874 Y112.943 E1.25768
G1 X74.874 Y113.085 E1.26230
G1 X74.997 Y113.156 E1.26691
G1 X74.874 Y113.227 E1.27153
G1 X74.874 Y113.558 E1.28232
G1 X75.409 Y113.867 E1.30241
G1 X74.874 Y114.175 E1.32248
G1 X74.874 Y114.507 E1.33329
G1 X75.161 Y114.672 E1.34406
G1 X75.694 Y114.365 E1.36408
G1 X75.695 Y114.981 E1.38413
G1 X75.982 Y115.146 E1.39492
G1 X76.106 Y115.075 E1.39956
G1 X76.106 Y115.218 E1.40421
G1 X76.229 Y115.289 E1.40883
G1 X76.106 Y115.360 E1.41346
G1 X76.105 Y115.692 E1.42425
G1 X76.639 Y116.000 E1.44431
G1 X76.105 Y116.308 E1.46437
G1 X76.105 Y116.640 E1.47515
G1 X76.229 Y116.711 E1.47980
G1 X76.105 Y116.782 E1.48445
G1 X76.105 Y116.924 E1.48906
G1 X75.982 Y116.853 E1.49368
G1 X75.695 Y117.019 E1.50446
G1 X75.695 Y117.635 E1.52451
G1 X75.161 Y117.327 E1.54456
G1 X74.874 Y117.494 E1.55535
G1 X74.874 Y117.825 E1.56615
G1 X75.408 Y118.133 E1.58620
G1 X74.874 Y118.442 E1.60625
G1 X74.874 Y118.773 E1.61703
G1 X74.997 Y118.844 E1.62165
G1 X74.874 Y118.915 E1.62626
G1 X74.874 Y119.058 E1.63091
G1 X74.750 Y118.986 E1.63555
G1 X74.463 Y119.153 E1.64634
G1 X74.463 Y119.769 E1.66640
G1 X73.929 Y119.461 E1.68646
G1 X73.642 Y119.627 E1.69725
G1 X73.642 Y119.769 E1.70187
G1 X73.519 Y119.698 E1.70649
G1 X73.395 Y119.769 E1.71114
G1 X73.395 Y119.626 E1.71579
G1 X73.108 Y119.461 E1.72658
G1 X72.574 Y119.768 E1.74663
G1 X72.574 Y119.153 E1.76666
G1 X72.288 Y118.987 E1.77743
G1 X72.000 Y119.153 E1.78823
G1 X72.001 Y119.769 E1.80829
G1 X71.466 Y119.461 E1.82838
G1 X71.179 Y119.627 E1.83918
G1 X71.179 Y119.769 E1.84380
G1 X71.056 Y119.698 E1.84841
G1 X70.933 Y119.769 E1.85302
G1 X70.933 Y119.627 E1.85764
G1 X70.645 Y119.461 E1.86845
G1 X70.111 Y119.770 E1.88854
G1 X70.111 Y119.152 E1.90863
G1 X69.823 Y118.986 E1.91944
G1 X69.701 Y119.057 E1.92405
G1 X69.701 Y118.915 E1.92866
G1 X69.577 Y118.844 E1.93329
G1 X69.701 Y118.773 E1.93792
G1 X69.701 Y118.442 E1.94871
G1 X69.166 Y118.133 E1.96879
G1 X69.700 Y117.825 E1.98886
G1 X69.700 Y117.493 E1.99966
G1 X69.413 Y117.328 E2.01043
G1 X68.880 Y117.635 E2.03046
G1 X68.880 Y117.019 E2.05050
G1 X68.592 Y116.854 E2.06129
G1 X68.469 Y116.925 E2.06593
G1 X68.469 Y116.782 E2.07057
G1 X68.346 Y116.711 E2.07520
G1 X68.469 Y116.640 E2.07983
G1 X68.469 Y116.308 E2.09062
G1 X67.935 Y116.000 E2.11067
G1 X68.469 Y115.692 E2.13072
G1 X68.469 Y115.360 E2.14151
G1 X68.346 Y115.289 E2.14615
G1 X68.469 Y115.218 E2.15080
G1 X68.470 Y115.076 E2.15541
G1 X68.592 Y115.147 E2.16003
G1 X68.879 Y114.981 E2.17081
G1 X68.880 Y114.365 E2.19085
G1 X69.413 Y114.673 E2.21090
G1 X69.700 Y114.506 E2.22169
G1 X69.701 Y114.175 E2.23249
G1 X69.167 Y113.867 E2.25253
G1 X69.701 Y113.558 E2.27258
G1 X69.701 Y113.227 E2.28336
G1 X69.578 Y113.156 E2.28797
G1 X69.701 Y113.085 E2.29258
G1 X69.701 Y112.942 E2.29723
G1 X69.824 Y113.013 E2.30187
G1 X70.111 Y112.847 E2.31266
G1 X70.111 Y112.330 E2.32950
G1 X70.507 Y112.703 F7800.000
G1 F1800.000 E1.32950
G92 E0
G1 X70.111 Y87.770 F7800.000
G1 F1800.000 E1.00000
G1 X70.111 Y87.152 F378.000 E1.02009
G1 X69.823 Y86.986 E1.03090
G1 X69.701 Y87.057 E1.03551
G1 X69.701 Y86.915 E1.04012
G1 X69.577 Y86.844 E1.04475
G1 X69.701 Y86.773 E1.04937
G1 X69.701 Y86.442 E1.06016
G1 X69.166 Y86.133 E1.08025
G1 X69.700 Y85.825 E1.10031
G1 X69.700 Y85.493 E1.11112
G1 X69.413 Y85.328 E1.12189
G1 X68.880 Y85.635 E1.14192
G1 X68.880 Y85.019 E1.16196
G1 X68.592 Y84.854 E1.17275
G1 X68.469 Y84.925 E1.17739
G1 X68.469 Y84.782 E1.18203
G1 X68.346 Y84.711 E1.18666
G1 X68.469 Y84.640 E1.19129
G1 X68.469 Y84.308 E1.20208
G1 X67.935 Y84.000 E1.22213
G1 X68.469 Y83.692 E1.24218
G1 X68.469 Y83.360 E1.25297
G1 X68.346 Y83.289 E1.25761
G1 X68.469 Y83.218 E1.26226
G1 X68.470 Y83.076 E1.26687
G1 X68.592 Y83.147 E1.27148
G1 X68.879 Y82.981 E1.28226
G1 X68.880 Y82.365 E1.30231
G1 X69.413 Y82.673 E1.32236
G1 X69.700 Y82.506 E1.33315
G1 X69.701 Y82.175 E1.34394
G1 X69.167 Y81.867 E1.36399
G1 X69.701 Y81.558 E1.38404
G1 X69.701 Y81.227 E1.39482
G1 X69.578 Y81.156 E1.39943
G1 X69.701 Y81.085 E1.40404
G1 X69.701 Y80.942 E1.40869
G1 X69.824 Y81.013 E1.41333
G1 X70.111 Y80.847 E1.42411
G1 X70.111 Y80.231 E1.44417
G1 X70.645 Y80.539 E1.46422
G1 X70.932 Y80.373 E1.47501
G1 X70.932 Y80.231 E1.47964
G1 X71.055 Y80.302 E1.48426
G1 X71.179 Y80.231 E1.48891
G1 X71.179 Y80.374 E1.49355
G1 X71.466 Y80.539 E1.50434
G1 X72.000 Y80.232 E1.52439
G1 X72.000 Y80.847 E1.54442
G1 X72.287 Y81.013 E1.55519
G1 X72.574 Y80.847 E1.56600
G1 X72.574 Y80.230 E1.58606
G1 X73.108 Y80.539 E1.60615
G1 X73.395 Y80.373 E1.61694
G1 X73.395 Y80.231 E1.62157
G1 X73.519 Y80.302 E1.62619
G1 X73.641 Y80.231 E1.63080
G1 X73.641 Y80.373 E1.63542
G1 X73.929 Y80.539 E1.64623
G1 X74.464 Y80.230 E1.66633
G1 X74.463 Y80.848 E1.68642
G1 X74.751 Y81.014 E1.69723
G1 X74.874 Y80.943 E1.70185
G1 X74.874 Y81.085 E1.70647
G1 X74.997 Y81.156 E1.71108
G1 X74.874 Y81.227 E1.71570
G1 X74.874 Y81.558 E1.72649
G1 X75.409 Y81.867 E1.74658
G1 X74.874 Y82.175 E1.76665
G1 X74.874 Y82.507 E1.77746
G1 X75.161 Y82.672 E1.78823
G1 X75.694 Y82.365 E1.80825
G1 X75.695 Y82.981 E1.82830
G1 X75.982 Y83.146 E1.83909
G1 X76.106 Y83.075 E1.84373
G1 X76.106 Y83.218 E1.84838
G1 X76.229 Y83.289 E1.85300
G1 X76.106 Y83.360 E1.85763
G1 X76.105 Y83.692 E1.86842
G1 X76.639 Y84.000 E1.88848
G1 X76.105 Y84.308 E1.90854
G1 X76.105 Y84.640 E1.91932
G1 X76.229 Y84.711 E1.92397
G1 X76.105 Y84.782 E1.92862
G1 X76.105 Y84.924 E1.93323
G1 X75.982 Y84.853 E1.93785
G1 X75.695 Y85.019 E1.94863
G1 X75.695 Y85.635 E1.96868
G1 X75.161 Y85.327 E1.98873
G1 X74.874 Y85.494 E1.99952
G1 X74.874 Y85.825 E2.01031
G1 X75.408 Y86.133 E2.03037
G1 X74.874 Y86.442 E2.05042
G1 X74.874 Y86.773 E2.06120
G1 X74.997 Y86.844 E2.06581
G1 X74.874 Y86.915 E2.07043
G1 X74.874 Y87.058 E2.07508
G1 X74.750 Y86.986 E2.07972
G1 X74.463 Y87.153 E2.09051
G1 X74.463 Y87.769 E2.11057
G1 X73.929 Y87.461 E2.13062
G1 X73.642 Y87.627 E2.14141
G1 X73.642 Y87.769 E2.14604
G1 X73.519 Y87.698 E2.15066
G1 X73.395 Y87.769 E2.15531
G1 X73.395 Y87.626 E2.15996
G1 X73.108 Y87.461 E2.17075
G1 X72.574 Y87.768 E2.19080
G1 X72.574 Y87.153 E2.21082
G1 X72.288 Y86.987 E2.22160
G1 X72.000 Y87.153 E2.23240
G1 X72.001 Y87.769 E2.25246
G1 X71.466 Y87.461 E2.27255
G1 X71.179 Y87.627 E2.28335
G1 X71.179 Y87.769 E2.28797
G1 X71.056 Y87.698 E2.29258
G1 X70.933 Y87.769 E2.29719
G1 X70.933 Y87.627 E2.30181
G1 X70.645 Y87.461 E2.31262
G1 X70.196 Y87.721 E2.32950
G1 X70.322 Y87.190 F7800.000
G1 F1800.000 E1.32950
G92 E0
G1 X97.823 Y71.770 F7800.000
G1 F1800.000 E1.00000
G1 X97.824 Y71.152 F378.000 E1.02010
G1 X97.536 Y70.986 E1.03091
G1 X97.413 Y71.057 E1.03552
G1 X97.413 Y70.915 E1.04014
G1 X97.290 Y70.844 E1.04475
G1 X97.413 Y70.773 E1.04937
G1 X97.413 Y70.442 E1.06017
G1 X96.879 Y70.133 E1.08025
G1 X97.413 Y69.825 E1.10031
G1 X97.413 Y69.493 E1.11112
G1 X97.126 Y69.328 E1.12189
G1 X96.593 Y69.635 E1.14192
G1 X96.592 Y69.019 E1.16197
G1 X96.305 Y68.853 E1.17276
G1 X96.182 Y68.925 E1.17740
G1 X96.182 Y68.782 E1.18204
G1 X96.059 Y68.711 E1.18666
G1 X96.182 Y68.640 E1.19128
G1 X96.182 Y68.308 E1.20208
G1 X95.648 Y68.000 E1.22213
G1 X96.182 Y67.692 E1.24219
G1 X96.182 Y67.360 E1.25297
G1 X96.059 Y67.289 E1.25761
G1 X96.182 Y67.218 E1.26226
G1 X96.182 Y67.076 E1.26688
G1 X96.305 Y67.147 E1.27149
G1 X96.592 Y66.981 E1.28227
G1 X96.592 Y66.365 E1.30232
G1 X97.126 Y66.673 E1.32237
G1 X97.413 Y66.506 E1.33316
G1 X97.413 Y66.175 E1.34395
G1 X96.880 Y65.867 E1.36400
G1 X97.413 Y65.558 E1.38405
G1 X97.413 Y65.227 E1.39483
G1 X97.291 Y65.156 E1.39944
G1 X97.413 Y65.085 E1.40405
G1 X97.414 Y64.942 E1.40870
G1 X97.537 Y65.013 E1.41335
G1 X97.824 Y64.847 E1.42413
G1 X97.824 Y64.231 E1.44419
G1 X98.358 Y64.539 E1.46424
G1 X98.645 Y64.373 E1.47504
G1 X98.645 Y64.231 E1.47966
G1 X98.768 Y64.302 E1.48427
G1 X98.892 Y64.231 E1.48892
G1 X98.892 Y64.373 E1.49356
G1 X99.179 Y64.539 E1.50435
G1 X99.713 Y64.232 E1.52440
G1 X99.713 Y64.847 E1.54443
G1 X100.000 Y65.013 E1.55520
G1 X100.287 Y64.847 E1.56601
G1 X100.286 Y64.230 E1.58607
G1 X100.821 Y64.539 E1.60615
G1 X101.108 Y64.373 E1.61695
G1 X101.108 Y64.231 E1.62157
G1 X101.231 Y64.302 E1.62618
G1 X101.354 Y64.231 E1.63080
G1 X101.354 Y64.373 E1.63541
G1 X101.642 Y64.539 E1.64622
G1 X102.177 Y64.230 E1.66632
G1 X102.176 Y64.848 E1.68642
G1 X102.464 Y65.014 E1.69723
G1 X102.587 Y64.943 E1.70185
G1 X102.587 Y65.085 E1.70646
G1 X102.710 Y65.156 E1.71108
G1 X102.587 Y65.227 E1.71570
G1 X102.587 Y65.558 E1.72649
G1 X103.121 Y65.867 E1.74658
G1 X102.587 Y66.175 E1.76663
G1 X102.587 Y66.507 E1.77745
G1 X102.874 Y66.673 E1.78822
G1 X103.407 Y66.365 E1.80824
G1 X103.408 Y66.981 E1.82829
G1 X103.695 Y67.147 E1.83908
G1 X103.818 Y67.075 E1.84372
G1 X103.818 Y67.218 E1.84837
G1 X103.941 Y67.289 E1.85298
G1 X103.818 Y67.360 E1.85761
G1 X103.818 Y67.692 E1.86840
G1 X104.352 Y68.000 E1.88845
G1 X103.818 Y68.308 E1.90851
G1 X103.818 Y68.640 E1.91930
G1 X103.941 Y68.711 E1.92394
G1 X103.818 Y68.782 E1.92858
G1 X103.818 Y68.924 E1.93320
G1 X103.695 Y68.853 E1.93781
G1 X103.408 Y69.019 E1.94860
G1 X103.408 Y69.635 E1.96864
G1 X102.874 Y69.327 E1.98869
G1 X102.587 Y69.494 E1.99949
G1 X102.587 Y69.825 E2.01028
G1 X103.120 Y70.133 E2.03032
G1 X102.587 Y70.442 E2.05037
G1 X102.587 Y70.773 E2.06115
G1 X102.709 Y70.844 E2.06576
G1 X102.587 Y70.915 E2.07038
G1 X102.586 Y71.058 E2.07503
G1 X102.463 Y70.987 E2.07967
G1 X102.176 Y71.153 E2.09045
G1 X102.176 Y71.769 E2.11051
G1 X101.642 Y71.461 E2.13056
G1 X101.355 Y71.627 E2.14136
G1 X101.355 Y71.769 E2.14598
G1 X101.232 Y71.698 E2.15060
G1 X101.108 Y71.769 E2.15524
G1 X101.108 Y71.627 E2.15989
G1 X100.821 Y71.461 E2.17068
G1 X100.287 Y71.768 E2.19072
G1 X100.287 Y71.153 E2.21075
G1 X100.000 Y70.987 E2.22152
G1 X99.713 Y71.153 E2.23233
G1 X99.713 Y71.770 E2.25239
G1 X99.179 Y71.461 E2.27247
G1 X98.892 Y71.627 E2.28327
G1 X98.892 Y71.769 E2.28789
G1 X98.769 Y71.698 E2.29251
G1 X98.646 Y71.769 E2.29712
G1 X98.646 Y71.627 E2.30174
G1 X98.358 Y71.461 E2.31255
G1 X97.909 Y71.721 E2.32944
G1 X98.035 Y71.190 F7800.000
G1 X98.745 Y74.336
G1 X99.623 Y74.587 F540.000 E2.35915
G1 X104.196 Y74.587 E2.50792
G1 X102.798 Y77.009 E2.59890
G1 X103.058 Y77.460 E2.61583
G1 X103.579 Y77.460 E2.63275
G1 X104.980 Y75.040 E2.72375
G1 X106.376 Y77.460 E2.81466
G1 X109.177 Y77.460 E2.90579
G1 X107.775 Y79.882 E2.99685
G1 X109.177 Y82.304 E3.08790
G1 X106.377 Y82.304 E3.17900
G1 X106.116 Y82.757 E3.19602
G1 X106.376 Y83.208 E3.21297
G1 X109.177 Y83.208 E3.30409
G1 X107.775 Y85.630 E3.39515
G1 X108.036 Y86.081 E3.41210
G1 X108.557 Y86.081 E3.42905
G1 X109.958 Y83.661 E3.52004
G1 X111.355 Y86.081 E3.61096
G1 X111.875 Y86.081 E3.62788
G1 X112.136 Y85.630 E3.64483
G1 X110.734 Y83.208 E3.73588
G1 X113.534 Y83.208 E3.82700
G1 X114.931 Y80.788 E3.91792
G1 X116.332 Y83.208 E4.00891
G1 X119.128 Y83.208 E4.09988
G1 X117.731 Y85.630 E4.19086
G1 X117.991 Y86.081 E4.20779
G1 X118.513 Y86.081 E4.22477
G1 X119.911 Y83.658 E4.31579
G1 X121.309 Y86.081 E4.40680
G1 X121.603 Y86.081 E4.41635
G1 X121.823 Y86.965 E4.44600
G1 X124.105 Y90.928 E4.59477
G1 X121.309 Y90.928 E4.68574
G1 X121.049 Y91.379 E4.70267
G1 X121.309 Y91.830 E4.71961
G1 X124.107 Y91.830 E4.81063
G1 X122.709 Y94.252 E4.90161
G1 X124.107 Y96.674 E4.99259
G1 X121.309 Y96.674 E5.08359
G1 X119.911 Y99.102 E5.17477
G1 X118.512 Y96.674 E5.26594
G1 X117.991 Y96.674 E5.28289
G1 X117.730 Y97.127 E5.29990
G1 X119.128 Y99.549 E5.39090
G1 X116.332 Y99.549 E5.48186
G1 X116.071 Y100.000 E5.49881
G1 X116.332 Y100.451 E5.51575
G1 X119.128 Y100.451 E5.60672
G1 X117.730 Y102.873 E5.69772
G1 X117.991 Y103.326 E5.71473
G1 X118.512 Y103.326 E5.73168
G1 X119.911 Y100.898 E5.82285
G1 X121.309 Y103.326 E5.91403
G1 X124.107 Y103.326 E6.00504
G1 X122.709 Y105.748 E6.09601
G1 X124.107 Y108.170 E6.18699
G1 X121.309 Y108.170 E6.27801
G1 X121.049 Y108.621 E6.29495
G1 X121.309 Y109.072 E6.31188
G1 X124.105 Y109.072 E6.40286
G1 X122.709 Y111.496 E6.49389
G1 X122.855 Y111.749 E6.50338
G1 X122.191 Y112.389 E6.53337
G1 X119.911 Y116.342 E6.68184
G1 X118.513 Y113.919 E6.77285
G1 X117.991 Y113.919 E6.78983
G1 X117.731 Y114.370 E6.80677
G1 X119.128 Y116.792 E6.89774
G1 X116.332 Y116.792 E6.98871
G1 X114.931 Y119.212 E7.07970
G1 X113.534 Y116.792 E7.17062
G1 X110.734 Y116.792 E7.26174
G1 X112.136 Y114.370 E7.35280
G1 X111.875 Y113.919 E7.36974
G1 X111.355 Y113.919 E7.38667
G1 X109.958 Y116.339 E7.47759
G1 X108.557 Y113.919 E7.56858
G1 X108.036 Y113.919 E7.58554
G1 X107.775 Y114.370 E7.60248
G1 X109.177 Y116.792 E7.69354
G1 X106.376 Y116.792 E7.78465
G1 X106.116 Y117.243 E7.80161
G1 X106.377 Y117.696 E7.81862
G1 X109.177 Y117.696 E7.90972
G1 X107.775 Y120.118 E8.00078
G1 X109.177 Y122.540 E8.09183
G1 X106.376 Y122.540 E8.18295
G1 X104.980 Y124.961 E8.27387
G1 X103.579 Y122.540 E8.36486
G1 X103.058 Y122.540 E8.38179
G1 X102.798 Y122.991 E8.39872
G1 X104.196 Y125.413 E8.48970
G1 X101.398 Y125.413 E8.58072
G1 X101.253 Y125.664 E8.59015
G1 X100.377 Y125.413 E8.61979
G1 X95.804 Y125.413 E8.76858
G1 X97.202 Y122.991 E8.85956
G1 X96.942 Y122.540 E8.87649
G1 X96.421 Y122.540 E8.89341
G1 X95.020 Y124.961 E8.98441
G1 X93.624 Y122.540 E9.07533
G1 X90.823 Y122.540 E9.16645
G1 X92.225 Y120.118 E9.25751
G1 X90.823 Y117.696 E9.34856
G1 X93.623 Y117.696 E9.43966
G1 X93.884 Y117.243 E9.45668
G1 X93.624 Y116.792 E9.47363
G1 X90.823 Y116.792 E9.56475
G1 X92.225 Y114.370 E9.65580
G1 X91.964 Y113.919 E9.67275
G1 X91.443 Y113.919 E9.68970
G1 X90.042 Y116.339 E9.78070
G1 X88.645 Y113.919 E9.87162
G1 X88.125 Y113.919 E9.88854
G1 X87.864 Y114.370 E9.90549
G1 X89.266 Y116.792 E9.99654
