; generated by Slic3r 0.9.10b on 2013-08-04 at 15:03:02

; layer_height = 0.25
; perimeters = 3
; top_solid_layers = 3
; bottom_solid_layers = 3
; fill_density = .6
; perimeter_speed = 30
; infill_speed = 70
; travel_speed = 130
; nozzle_diameter = 0.35
; filament_diameter = 3
; extrusion_multiplier = .926
; perimeters extrusion width = 0.39mm
; infill extrusion width = 0.39mm
; solid infill extrusion width = 0.39mm
; top infill extrusion width = 0.39mm
; support material extrusion width = 0.39mm
; first layer extrusion width = 0.70mm

G21 ; set units to millimeters
M107
M190 S60 ; wait for bed temperature to be reached
M104 S220 ; set temperature
G28 ; home all axes
G1 Z5 F5000 ; lift nozzle
M109 S220 ; wait for temperature to be reached
G90 ; use absolute coordinates
G92 E0
M82 ; use absolute distances for extrusion
G1 F1800.000 E-1.00000
G92 E0
G1 Z0.350 F7800.000
G1 X67.700 Y79.237
G1 F1800.000 E1.00000
G1 X68.820 Y78.417 F540.000 E1.03977
G1 X96.520 Y62.167 E1.95991
G1 X98.130 Y61.487 E2.00998
G1 X99.870 Y61.257 E2.06027
G1 X100.120 Y61.257 E2.06744
G1 X101.860 Y61.487 E2.11772
G1 X103.470 Y62.167 E2.16780
G1 X131.170 Y78.417 E3.08794
G1 X132.290 Y79.237 E3.12771
G1 X133.210 Y80.277 E3.16749
G1 X133.890 Y81.477 E3.20701
G1 X134.310 Y82.807 E3.24697
G1 X134.440 Y84.187 E3.28669
G1 X134.160 Y115.427 E4.18180
G1 X134.020 Y116.757 E4.22012
G1 X133.600 Y118.037 E4.25871
G1 X132.940 Y119.197 E4.29695
G1 X132.060 Y120.207 E4.33534
G1 X131.000 Y121.017 E4.37356
G1 X112.610 Y132.267 E4.99124
G1 X103.690 Y137.367 E5.28563
G1 X102.100 Y138.017 E5.33485
G1 X100.400 Y138.237 E5.38396
G1 X99.590 Y138.237 E5.40717
G1 X97.890 Y138.017 E5.45628
G1 X96.300 Y137.367 E5.50550
G1 X87.380 Y132.267 E5.79990
G1 X68.990 Y121.017 E6.41757
G1 X67.930 Y120.207 E6.45580
G1 X67.050 Y119.197 E6.49418
G1 X66.390 Y118.037 E6.53242
G1 X65.970 Y116.757 E6.57101
G1 X65.830 Y115.427 E6.60933
G1 X65.550 Y84.187 E7.50445
G1 X65.680 Y82.807 E7.54416
G1 X66.100 Y81.477 E7.58412
G1 X66.780 Y80.277 E7.62364
G1 X67.638 Y79.307 E7.66074
G1 F1800.000 E6.66074
G92 E0
G1 X81.731 Y79.133 F7800.000
G1 F1800.000 E1.00000
G1 X80.938 Y79.133 F1080.000 E1.02270
G1 X80.216 Y80.382 E1.06406
G1 X82.453 Y80.382 E1.12813
G1 X83.175 Y81.632 E1.16948
G1 X79.494 Y81.632 E1.27493
G1 X78.772 Y82.882 E1.31628
G1 X83.897 Y82.882 E1.46309
G1 F1800.000 E0.46309
G92 E0
G1 X69.000 Y82.422 F7800.000
G1 X84.502 Y91.630
G1 F1800.000 E1.00000
G1 X73.721 Y91.630 F1080.000 E1.30888
G1 X72.999 Y92.880 E1.35023
G1 X85.223 Y92.880 E1.70048
G1 X85.945 Y94.130 E1.74182
G1 X72.277 Y94.130 E2.13343
G1 F1800.000 E1.13343
G92 E0
G1 X72.715 Y106.628 F7800.000
G1 F1800.000 E1.00000
G1 X85.507 Y106.628 F1080.000 E1.36652
G1 F1800.000 E0.36652
G92 E0
G1 X78.230 Y105.378 F7800.000
G1 F1800.000 E1.00000
G1 X86.229 Y105.378 F1080.000 E1.22919
G1 X86.950 Y104.128 E1.27053
G1 X78.951 Y104.128 E1.49973
G1 X79.673 Y102.878 E1.54107
G1 X87.672 Y102.878 E1.77027
G1 X88.394 Y101.629 E1.81162
G1 X80.394 Y101.629 E2.04082
G1 X81.116 Y100.379 E2.08216
G1 X89.115 Y100.379 E2.31137
G1 X88.831 Y99.129 E2.34809
G1 X80.832 Y99.129 E2.57729
G1 X80.110 Y97.879 E2.61864
G1 X88.110 Y97.879 E2.84783
G1 X87.388 Y96.630 E2.88918
G1 X79.389 Y96.630 E3.11838
G1 X78.667 Y95.380 E3.15972
G1 X86.666 Y95.380 E3.38891
G1 F1800.000 E2.38891
G92 E0
G1 X94.886 Y90.381 F7800.000
G1 F1800.000 E1.00000
G1 X74.443 Y90.381 F1080.000 E1.58574
G1 X75.058 Y89.131 E1.62564
G1 X95.608 Y89.131 E2.21444
G1 X96.330 Y87.881 E2.25578
G1 X74.336 Y87.881 E2.88592
G1 X73.615 Y86.631 E2.92727
G1 X97.051 Y86.631 E3.59875
G1 X97.773 Y85.382 E3.64010
G1 X72.894 Y85.382 E4.35293
G1 X72.172 Y84.132 E4.39428
G1 X98.494 Y84.132 E5.14845
G1 X99.216 Y82.882 E5.18980
G1 X91.215 Y82.882 E5.41904
G1 X91.937 Y81.632 E5.46040
G1 X99.938 Y81.632 E5.68963
G1 F1800.000 E4.68963
G92 E0
G1 X108.785 Y82.882 F7800.000
G1 F1800.000 E1.00000
G1 X100.784 Y82.882 F1080.000 E1.22924
G1 X100.062 Y81.632 E1.27059
G1 X108.063 Y81.632 E1.49982
G1 X107.341 Y80.382 E1.54118
G1 X92.659 Y80.382 E1.96185
G1 X93.381 Y79.133 E2.00320
G1 X106.619 Y79.133 E2.38250
G1 X106.549 Y77.883 E2.41837
G1 X93.451 Y77.883 E2.79363
G1 X92.730 Y76.633 E2.83498
G1 X107.270 Y76.633 E3.25159
G1 X107.992 Y75.383 E3.29293
G1 X92.008 Y75.383 E3.75088
G1 X91.287 Y74.134 E3.79223
G1 X108.713 Y74.134 E4.29152
G1 X103.012 Y72.884 E4.45876
G1 X96.988 Y72.884 E4.63133
G1 X97.710 Y71.634 E4.67268
G1 X102.290 Y71.634 E4.80391
G1 X101.569 Y70.384 E4.84526
G1 X98.431 Y70.384 E4.93515
G1 X99.153 Y69.134 E4.97650
G1 X100.847 Y69.134 E5.02505
G1 X100.126 Y67.885 E5.06639
G1 X99.874 Y67.885 E5.07360
G1 F1800.000 E4.07360
G92 E0
G1 X119.062 Y79.133 F7800.000
G1 F1800.000 E1.00000
G1 X118.269 Y79.133 F1080.000 E1.02270
G1 X117.547 Y80.382 E1.06406
G1 X119.784 Y80.382 E1.12813
G1 X120.506 Y81.632 E1.16948
G1 X116.825 Y81.632 E1.27493
G1 X116.103 Y82.882 E1.31628
G1 X121.228 Y82.882 E1.46309
G1 F1800.000 E0.46309
G92 E0
G1 X127.828 Y84.132 F7800.000
G1 F1800.000 E1.00000
G1 X101.506 Y84.132 F1080.000 E1.75418
G1 X102.227 Y85.382 E1.79553
G1 X127.106 Y85.382 E2.50836
G1 X126.385 Y86.631 E2.54970
G1 X102.949 Y86.631 E3.22119
G1 X103.670 Y87.881 E3.26253
G1 X125.664 Y87.881 E3.89267
G1 X124.942 Y89.131 E3.93402
G1 X104.392 Y89.131 E4.52281
G1 X105.114 Y90.381 E4.56416
G1 X125.557 Y90.381 E5.14989
G1 X126.279 Y91.630 E5.19125
G1 X115.498 Y91.630 E5.50013
G1 X114.777 Y92.880 E5.54148
G1 X127.001 Y92.880 E5.89172
G1 X127.723 Y94.130 F7800.000
G1 X114.055 Y94.130 F1080.000 E6.28332
G1 F1800.000 E5.28332
G92 E0
G1 X121.333 Y95.380 F7800.000
G1 F1800.000 E1.00000
G1 X113.334 Y95.380 F1080.000 E1.22919
G1 X112.612 Y96.630 E1.27054
G1 X120.611 Y96.630 E1.49973
G1 X119.890 Y97.879 E1.54108
G1 X111.890 Y97.879 E1.77028
G1 X111.169 Y99.129 E1.81162
G1 X119.168 Y99.129 E2.04083
G1 X118.884 Y100.379 E2.07755
G1 X110.885 Y100.379 E2.30675
G1 X111.606 Y101.629 E2.34810
G1 X119.606 Y101.629 E2.57730
G1 X120.327 Y102.878 E2.61865
G1 X112.328 Y102.878 E2.84784
G1 X113.050 Y104.128 E2.88919
G1 X121.049 Y104.128 E3.11838
G1 X121.770 Y105.378 E3.15973
G1 X113.771 Y105.378 E3.38891
G1 X114.493 Y106.628 E3.43026
G1 X127.285 Y106.628 E3.79678
G1 X126.563 Y107.878 E3.83814
G1 X115.214 Y107.878 E4.16330
G1 X115.936 Y109.127 E4.20465
G1 X125.841 Y109.127 E4.48845
G1 X125.119 Y110.377 E4.52980
G1 X104.676 Y110.377 E5.11553
G1 X103.955 Y111.627 E5.15688
G1 X125.380 Y111.627 E5.77074
G1 X126.101 Y112.877 E5.81209
G1 X103.233 Y112.877 E6.46730
G1 X102.511 Y114.127 E6.50865
G1 X126.822 Y114.127 E7.20520
G1 X127.544 Y115.376 E7.24655
G1 X101.790 Y115.376 E7.98445
G1 X101.068 Y116.626 E8.02580
G1 X109.069 Y116.626 E8.25505
G1 X108.347 Y117.876 E8.29640
G1 X100.346 Y117.876 E8.52564
G1 X99.654 Y117.876 F7800.000
G1 X91.653 Y117.876 F1080.000 E8.75487
G1 X92.375 Y119.126 E8.79622
G1 X107.625 Y119.126 E9.23318
G1 X106.903 Y120.375 E9.27453
G1 X93.097 Y120.375 E9.67012
G1 X93.735 Y121.625 E9.71033
G1 X106.265 Y121.625 E10.06932
G1 X106.986 Y122.875 E10.11067
G1 X93.014 Y122.875 E10.51100
G1 X92.292 Y124.125 E10.55235
G1 X107.708 Y124.125 E10.99403
G1 F1800.000 E9.99403
G92 E0
G1 X102.574 Y127.874 F7800.000
G1 F1800.000 E1.00000
G1 X97.426 Y127.874 F1080.000 E1.14751
G1 X98.147 Y129.124 E1.18885
G1 X101.853 Y129.124 E1.29502
G1 X101.131 Y130.374 E1.33636
G1 X98.869 Y130.374 E1.40119
G1 X99.590 Y131.623 E1.44253
G1 X100.410 Y131.623 E1.46601
G1 F1800.000 E0.46601
G92 E0
G1 X90.849 Y126.624 F7800.000
G1 F1800.000 E1.00000
G1 X109.151 Y126.624 F1080.000 E1.52436
G1 X108.429 Y125.375 E1.56571
G1 X91.571 Y125.375 E2.04873
G1 F1800.000 E1.04873
G92 E0
G1 X90.931 Y116.626 F7800.000
G1 F1800.000 E1.00000
G1 X98.932 Y116.626 F1080.000 E1.22925
G1 X98.210 Y115.376 E1.27059
G1 X72.456 Y115.376 E2.00850
G1 X73.178 Y114.127 E2.04984
G1 X97.489 Y114.127 E2.74640
G1 X96.767 Y112.877 E2.78775
G1 X73.899 Y112.877 E3.44296
G1 X74.620 Y111.627 E3.48430
G1 X96.045 Y111.627 E4.09817
G1 X95.324 Y110.377 E4.13952
G1 X74.881 Y110.377 E4.72525
G1 X74.159 Y109.127 E4.76660
G1 X84.064 Y109.127 E5.05040
G1 X84.786 Y107.878 E5.09175
G1 X73.437 Y107.878 E5.41691
G1 F1800.000 E4.41691
G92 E0
G1 X84.181 Y116.626 F7800.000
G1 F1800.000 E1.00000
G1 X78.488 Y116.626 F1080.000 E1.16309
G1 X79.210 Y117.876 E1.20445
G1 X83.459 Y117.876 E1.32617
G1 X82.737 Y119.126 E1.36753
G1 X79.932 Y119.126 E1.44788
G1 X80.654 Y120.375 E1.48923
G1 X82.015 Y120.375 E1.52822
G1 F1800.000 E0.52822
G92 E0
G1 X119.346 Y120.375 F7800.000
G1 F1800.000 E1.00000
G1 X117.985 Y120.375 F1080.000 E1.03899
G1 X117.263 Y119.126 E1.08034
G1 X120.068 Y119.126 E1.16070
G1 X120.790 Y117.876 E1.20205
G1 X116.541 Y117.876 E1.32377
G1 X115.819 Y116.626 E1.36513
G1 X121.512 Y116.626 E1.52822
M104 S215 ; set temperature
G1 F1800.000 E0.52822
G92 E0
G1 Z0.600 F7800.000
G1 X117.666 Y110.200
G1 F1800.000 E1.00000
G1 X105.889 Y110.200 F1800.000 E1.14844
G1 X100.000 Y120.400 E1.29689
G1 X94.111 Y110.200 E1.44534
G1 X82.334 Y110.200 E1.59377
G1 X88.223 Y100.000 E1.74223
G1 X82.334 Y89.800 E1.89068
G1 X94.111 Y89.800 E2.03912
G1 X100.000 Y79.600 E2.18757
G1 X105.889 Y89.800 E2.33602
G1 X117.666 Y89.800 E2.48445
G1 X111.777 Y100.000 E2.63291
G1 X117.638 Y110.150 E2.78063
G1 X117.000 Y109.815 F7800.000
G1 X105.667 Y109.815 F1800.000 E2.92347
G1 X100.000 Y119.630 E3.06632
G1 X94.333 Y109.815 E3.20917
G1 X83.000 Y109.815 E3.35200
G1 X88.667 Y100.000 E3.49486
G1 X83.000 Y90.185 E3.63771
G1 X94.333 Y90.185 E3.78054
G1 X100.000 Y80.370 E3.92339
G1 X105.667 Y90.185 E4.06624
G1 X117.000 Y90.185 E4.20908
G1 X111.333 Y100.000 E4.35193
G1 X116.971 Y109.765 E4.49405
G1 X116.333 Y109.430 F7800.000
G1 X105.445 Y109.430 F1260.000 E4.63129
G1 X100.000 Y118.861 E4.76854
G1 X94.555 Y109.430 E4.90579
G1 X83.667 Y109.430 E5.04302
G1 X89.112 Y100.000 E5.18027
G1 X83.667 Y90.570 E5.31752
G1 X94.555 Y90.570 E5.45476
G1 X100.000 Y81.139 E5.59201
G1 X105.445 Y90.570 E5.72926
G1 X116.333 Y90.570 E5.86649
G1 X110.888 Y100.000 E6.00374
G1 X116.304 Y109.380 E6.14026
G1 X115.972 Y109.299 F7800.000
G1 X116.109 Y115.204
G1 X108.779 Y115.204 F1800.000 E6.23265
G1 X105.112 Y121.553 E6.32506
G1 X107.668 Y125.981 E6.38950
G1 X102.556 Y125.981 E6.45393
G1 X100.000 Y130.409 E6.51837
G1 X97.444 Y125.981 E6.58281
G1 X92.332 Y125.981 E6.64724
G1 X94.888 Y121.553 E6.71168
G1 X91.221 Y115.204 E6.80409
G1 X83.891 Y115.204 E6.89648
G1 X81.334 Y119.630 E6.96089
G1 X78.778 Y115.204 E7.02530
G1 X73.666 Y115.204 E7.08973
G1 X76.223 Y110.776 E7.15417
G1 X73.667 Y106.352 E7.21857
G1 X78.779 Y106.352 E7.28300
G1 X82.445 Y100.000 E7.37544
G1 X78.779 Y93.648 E7.46788
G1 X73.667 Y93.648 E7.53231
G1 X76.223 Y89.224 E7.59671
G1 X73.666 Y84.796 E7.66115
G1 X78.778 Y84.796 E7.72558
G1 X81.334 Y80.370 E7.78999
G1 X83.891 Y84.796 E7.85440
G1 X91.221 Y84.796 E7.94679
G1 X94.888 Y78.447 E8.03920
G1 X92.332 Y74.019 E8.10364
G1 X97.444 Y74.019 E8.16807
G1 X100.000 Y69.591 E8.23251
G1 X102.556 Y74.019 E8.29695
G1 X107.668 Y74.019 E8.36138
G1 X105.112 Y78.447 E8.42582
G1 X108.779 Y84.796 E8.51823
G1 X116.109 Y84.796 E8.61062
G1 X118.665 Y80.370 E8.67503
G1 X121.222 Y84.796 E8.73944
G1 X126.334 Y84.796 E8.80387
G1 X123.777 Y89.224 E8.86831
G1 X126.333 Y93.648 E8.93271
G1 X121.221 Y93.648 E8.99714
G1 X117.555 Y100.000 E9.08958
G1 X121.221 Y106.352 E9.18202
G1 X126.333 Y106.352 E9.24645
G1 X123.777 Y110.776 E9.31085
G1 X126.334 Y115.204 E9.37529
G1 X121.222 Y115.204 E9.43972
G1 X118.665 Y119.630 E9.50413
G1 X116.138 Y115.254 E9.56781
G1 X115.887 Y115.589 F7800.000
G1 X109.001 Y115.589 F1800.000 E9.65460
G1 X105.556 Y121.553 E9.74141
G1 X108.335 Y126.366 E9.81145
G1 X102.778 Y126.366 E9.88148
G1 X100.000 Y131.178 E9.95152
G1 X97.222 Y126.366 E10.02156
G1 X91.665 Y126.366 E10.09160
G1 X94.444 Y121.553 E10.16164
G1 X90.999 Y115.589 E10.24844
G1 X84.113 Y115.589 E10.33523
G1 X81.334 Y120.399 E10.40524
G1 X78.556 Y115.589 E10.47525
G1 X73.000 Y115.589 E10.54528
G1 X75.778 Y110.776 E10.61532
G1 X73.000 Y105.967 E10.68532
G1 X78.556 Y105.967 E10.75535
G1 X82.001 Y100.000 E10.84220
G1 X78.556 Y94.033 E10.92904
G1 X73.000 Y94.033 E10.99907
G1 X75.778 Y89.224 E11.06907
G1 X73.000 Y84.411 E11.13911
G1 X78.556 Y84.411 E11.20914
G1 X81.334 Y79.601 E11.27915
G1 X84.113 Y84.411 E11.34916
G1 X90.999 Y84.411 E11.43595
G1 X94.444 Y78.447 E11.52275
G1 X91.665 Y73.634 E11.59279
G1 X97.222 Y73.634 E11.66283
G1 X100.000 Y68.822 E11.73287
G1 X102.778 Y73.634 E11.80291
G1 X108.335 Y73.634 E11.87294
G1 X105.556 Y78.447 E11.94298
G1 X109.001 Y84.411 E12.02979
G1 X115.887 Y84.411 E12.11658
G1 X118.665 Y79.601 E12.18658
G1 X121.444 Y84.411 E12.25659
G1 X127.000 Y84.411 E12.32662
G1 X124.222 Y89.224 E12.39667
G1 X127.000 Y94.033 E12.46667
G1 X121.444 Y94.033 E12.53670
G1 X117.999 Y100.000 E12.62354
G1 X121.444 Y105.967 E12.71038
G1 X127.000 Y105.967 E12.78041
G1 X124.222 Y110.776 E12.85041
G1 X127.000 Y115.589 E12.92045
G1 X121.444 Y115.589 E12.99049
G1 X118.665 Y120.399 E13.06049
G1 X115.916 Y115.639 E13.12977
G1 X115.665 Y115.974 F7800.000
G1 X109.223 Y115.974 F1260.000 E13.21096
G1 X106.001 Y121.553 E13.29217
G1 X109.001 Y126.751 E13.36781
G1 X103.000 Y126.751 E13.44344
G1 X100.000 Y131.948 E13.51908
G1 X97.000 Y126.751 E13.59472
G1 X90.999 Y126.751 E13.67036
G1 X93.999 Y121.553 E13.74600
G1 X90.777 Y115.974 E13.82720
G1 X84.335 Y115.974 E13.90839
G1 X81.334 Y121.168 E13.98400
G1 X78.334 Y115.974 E14.05960
G1 X72.333 Y115.974 E14.13524
G1 X75.334 Y110.776 E14.21088
G1 X72.333 Y105.582 E14.28648
G1 X78.334 Y105.582 E14.36211
G1 X81.557 Y100.000 E14.44336
G1 X78.334 Y94.418 E14.52460
G1 X72.333 Y94.418 E14.60023
G1 X75.334 Y89.224 E14.67583
G1 X72.333 Y84.026 E14.75148
G1 X78.334 Y84.026 E14.82711
G1 X81.334 Y78.832 E14.90271
G1 X84.335 Y84.026 E14.97832
G1 X90.777 Y84.026 E15.05951
G1 X93.999 Y78.447 E15.14071
G1 X90.999 Y73.249 E15.21636
G1 X97.000 Y73.249 E15.29199
G1 X100.000 Y68.052 E15.36763
G1 X103.000 Y73.249 E15.44327
G1 X109.001 Y73.249 E15.51891
G1 X106.001 Y78.447 E15.59455
G1 X109.223 Y84.026 E15.67575
G1 X115.665 Y84.026 E15.75694
G1 X118.665 Y78.832 E15.83255
G1 X121.666 Y84.026 E15.90815
G1 X127.667 Y84.026 E15.98378
G1 X124.666 Y89.224 E16.05943
G1 X127.667 Y94.418 E16.13503
G1 X121.666 Y94.418 E16.21066
G1 X118.443 Y100.000 E16.29190
G1 X121.666 Y105.582 E16.37315
G1 X127.667 Y105.582 E16.44878
G1 X124.666 Y110.776 E16.52438
G1 X127.667 Y115.974 E16.60002
G1 X121.666 Y115.974 E16.67566
G1 X118.665 Y121.168 E16.75126
G1 X115.694 Y116.024 E16.82614
G1 X115.598 Y115.595 F7800.000
G1 X118.520 Y118.821
M106 S255
G1 X119.208 Y118.133 F3600.000 E16.83839
G1 X119.981 Y116.794 E16.85788
G1 X118.313 Y118.462 E16.88762
G1 X118.106 Y118.104 E16.89284
G1 X120.755 Y115.455 E16.94005
G1 X125.836 Y114.900 F7800.000
M107
M106 S255
G1 X125.810 Y114.925 F3600.000 E16.94051
G1 X125.629 Y114.541 E16.94587
G1 X125.244 Y114.925 E16.95273
G1 X124.678 Y114.925 E16.95986
G1 X125.422 Y114.182 E16.97310
G1 X125.215 Y113.824 E16.97832
G1 X124.113 Y114.925 E16.99797
G1 X123.547 Y114.925 E17.00510
G1 X125.008 Y113.465 E17.03113
G1 X124.800 Y113.106 E17.03635
G1 X122.981 Y114.925 E17.06878
G1 X122.416 Y114.925 E17.07591
G1 X124.593 Y112.748 E17.11472
G1 X124.386 Y112.389 E17.11994
G1 X121.850 Y114.925 E17.16516
G1 X121.284 Y114.925 E17.17229
G1 X124.179 Y112.030 E17.22389
G1 X123.972 Y111.672 E17.22911
G1 X117.899 Y117.745 E17.33736
G1 X117.692 Y117.386 E17.34258
G1 X123.765 Y111.313 E17.45084
G1 X123.558 Y110.954 E17.45606
G1 X117.485 Y117.028 E17.56432
G1 X117.278 Y116.669 E17.56954
G1 X123.845 Y110.102 E17.68660
G1 X124.619 Y108.763 E17.70609
G1 X117.071 Y116.311 E17.84063
G1 X116.863 Y115.952 E17.84585
G1 X125.392 Y107.423 E17.99788
G1 X125.619 Y106.631 E18.00826
G1 X116.656 Y115.594 E18.16802
G1 X116.449 Y115.235 E18.17324
G1 X125.053 Y106.631 E18.32660
G1 X124.488 Y106.631 E18.33373
G1 X116.193 Y114.925 E18.48158
G1 X115.627 Y114.925 E18.48871
G1 X123.922 Y106.631 E18.63655
G1 X123.356 Y106.631 E18.64368
G1 X115.062 Y114.925 E18.79153
G1 X114.496 Y114.925 E18.79866
G1 X122.790 Y106.631 E18.94650
G1 X122.225 Y106.631 E18.95363
G1 X113.930 Y114.925 E19.10148
G1 X113.365 Y114.925 E19.10861
G1 X117.811 Y110.479 E19.18787
