; generated by Slic3r 0.9.10b on 2013-08-03 at 21:03:52

; layer_height = 0.4
; perimeters = 3
; top_solid_layers = 3
; bottom_solid_layers = 3
; fill_density = 0.4
; perimeter_speed = 30
; infill_speed = 60
; travel_speed = 130
; nozzle_diameter = 0.5
; filament_diameter = 3
; extrusion_multiplier = 1
; perimeters extrusion width = 0.53mm
; infill extrusion width = 0.53mm
; solid infill extrusion width = 0.53mm
; top infill extrusion width = 0.53mm
; first layer extrusion width = 0.70mm

G21 ; set units to millimeters
M107
M104 S200 ; set temperature
G28 ; home all axes
G1 Z5 F5000 ; lift nozzle

M109 S200 ; wait for temperature to be reached
G90 ; use absolute coordinates
G92 E0
M82 ; use absolute distances for extrusion
G1 F1800.000 E-1.00000
G92 E0
G1 Z0.350 F7800.000
G1 X67.550 Y78.877
G1 F1800.000 E1.00000
G1 X68.670 Y78.057 F540.000 E1.04516
G1 X96.660 Y61.897 E2.09670
G1 X97.930 Y61.337 E2.14186
G1 X99.290 Y61.047 E2.18710
G1 X100.690 Y61.047 E2.23265
G1 X102.050 Y61.337 E2.27789
G1 X103.320 Y61.897 E2.32305
G1 X131.320 Y78.057 E3.37487
G1 X132.440 Y78.877 E3.42004
G1 X133.380 Y79.917 E3.46565
G1 X134.070 Y81.117 E3.51068
G1 X134.500 Y82.447 E3.55616
G1 X134.650 Y83.827 E3.60132
G1 X134.650 Y116.157 E4.65319
G1 X134.500 Y117.537 E4.69835
G1 X134.070 Y118.867 E4.74383
G1 X133.380 Y120.067 E4.78886
G1 X132.440 Y121.107 E4.83447
G1 X131.320 Y121.917 E4.87944
G1 X103.320 Y138.087 E5.93143
G1 X102.050 Y138.657 E5.97672
G1 X100.690 Y138.947 E6.02196
G1 X99.290 Y138.947 E6.06751
G1 X97.930 Y138.657 E6.11275
G1 X96.660 Y138.087 E6.15804
G1 X68.670 Y121.917 E7.20975
G1 X67.540 Y121.107 E7.25498
G1 X66.610 Y120.067 E7.30037
G1 X65.920 Y118.867 E7.34541
G1 X65.490 Y117.537 E7.39089
G1 X65.340 Y116.157 E7.43605
G1 X65.340 Y83.827 E8.48791
G1 X65.490 Y82.447 E8.53308
G1 X65.920 Y81.117 E8.57855
G1 X66.610 Y79.917 E8.62359
G1 X67.484 Y78.950 E8.66599
G1 F1800.000 E7.66599
G92 E0
G1 X81.155 Y89.119 F7800.000
G1 F1800.000 E1.00000
G1 X93.718 Y89.119 F540.000 E1.40874
G1 X100.000 Y78.239 E1.81751
G1 X106.282 Y89.119 E2.22628
G1 X118.845 Y89.119 E2.63502
G1 X112.563 Y100.000 E3.04380
G1 X118.845 Y110.881 E3.45258
G1 X106.282 Y110.881 E3.86132
G1 X100.000 Y121.761 E4.27009
G1 X93.718 Y110.881 E4.67886
G1 X81.155 Y110.881 E5.08760
G1 X87.437 Y100.000 E5.49638
G1 X81.204 Y89.205 E5.90195
G1 X82.293 Y89.776 F7800.000
G1 X94.097 Y89.776 F540.000 E6.28601
G1 X100.000 Y79.553 E6.67009
G1 X105.903 Y89.776 E7.05418
G1 X117.707 Y89.776 E7.43824
G1 X111.804 Y100.000 E7.82233
G1 X117.707 Y110.224 E8.20642
G1 X105.903 Y110.224 E8.59047
G1 X100.000 Y120.447 E8.97456
G1 X94.097 Y110.224 E9.35865
G1 X82.293 Y110.224 E9.74270
G1 X88.196 Y100.000 E10.12680
G1 X82.342 Y89.862 E10.50768
G1 X83.431 Y90.433 F7800.000
G1 X94.476 Y90.433 F378.000 E10.86705
G1 X100.000 Y80.867 E11.22645
G1 X105.524 Y90.433 E11.58586
G1 X116.569 Y90.433 E11.94522
G1 X111.045 Y100.000 E12.30463
G1 X116.569 Y109.567 E12.66404
G1 X105.524 Y109.567 E13.02340
G1 X100.000 Y119.133 E13.38281
G1 X94.476 Y109.567 E13.74221
G1 X83.431 Y109.567 E14.10158
G1 X88.955 Y100.000 E14.46098
G1 X83.480 Y90.519 E14.81719
G1 X84.048 Y90.658 F7800.000
G1 X83.498 Y85.476
G1 X91.614 Y85.476 F540.000 E15.08124
G1 X95.674 Y78.447 E15.34534
G1 X93.511 Y74.700 E15.48612
G1 X97.837 Y74.700 E15.62688
G1 X100.000 Y70.953 E15.76765
G1 X102.163 Y74.700 E15.90841
G1 X106.489 Y74.700 E16.04917
G1 X104.326 Y78.447 E16.18996
G1 X108.386 Y85.476 E16.45406
G1 X116.502 Y85.476 E16.71811
G1 X118.665 Y81.731 E16.85882
G1 X120.829 Y85.476 E16.99953
G1 X125.155 Y85.476 E17.14029
G1 X122.992 Y89.224 E17.28107
G1 X125.154 Y92.967 E17.42173
G1 X120.829 Y92.967 E17.56246
G1 X116.769 Y100.000 E17.82666
G1 X120.829 Y107.033 E18.09086
G1 X125.154 Y107.033 E18.23159
G1 X122.992 Y110.776 E18.37224
G1 X125.155 Y114.524 E18.51303
G1 X120.829 Y114.524 E18.65378
G1 X118.665 Y118.269 E18.79450
G1 X116.502 Y114.524 E18.93521
G1 X108.386 Y114.524 E19.19926
G1 X104.326 Y121.553 E19.46336
G1 X106.489 Y125.300 E19.60415
G1 X102.163 Y125.300 E19.74491
G1 X100.000 Y129.047 E19.88567
G1 X97.837 Y125.300 E20.02643
G1 X93.511 Y125.300 E20.16720
G1 X95.674 Y121.553 E20.30798
G1 X91.614 Y114.524 E20.57208
G1 X83.498 Y114.524 E20.83613
G1 X81.334 Y118.269 E20.97685
G1 X79.171 Y114.524 E21.11756
G1 X74.845 Y114.524 E21.25831
G1 X77.008 Y110.776 E21.39910
G1 X74.846 Y107.033 E21.53975
G1 X79.171 Y107.033 E21.68049
G1 X83.231 Y100.000 E21.94468
G1 X79.171 Y92.967 E22.20888
G1 X74.846 Y92.967 E22.34961
G1 X77.008 Y89.224 E22.49027
G1 X74.845 Y85.476 E22.63106
G1 X79.171 Y85.476 E22.77181
G1 X81.334 Y81.731 E22.91252
G1 X83.449 Y85.391 E23.05003
G1 X83.877 Y84.819 F7800.000
G1 X91.234 Y84.819 F540.000 E23.28940
G1 X94.915 Y78.447 E23.52882
G1 X92.373 Y74.043 E23.69428
G1 X97.458 Y74.043 E23.85973
G1 X100.000 Y69.638 E24.02518
G1 X102.542 Y74.043 E24.19063
G1 X107.627 Y74.043 E24.35607
G1 X105.085 Y78.447 E24.52154
G1 X108.766 Y84.819 E24.76096
G1 X116.123 Y84.819 E25.00033
G1 X118.665 Y80.417 E25.16571
G1 X121.208 Y84.819 E25.33110
G1 X126.293 Y84.819 E25.49653
G1 X123.750 Y89.224 E25.66200
G1 X126.292 Y93.624 E25.82735
G1 X121.208 Y93.624 E25.99277
G1 X117.527 Y100.000 E26.23229
G1 X121.208 Y106.376 E26.47180
G1 X126.292 Y106.376 E26.63723
G1 X123.750 Y110.776 E26.80258
G1 X126.293 Y115.181 E26.96804
G1 X121.208 Y115.181 E27.13348
G1 X118.665 Y119.583 E27.29886
G1 X116.123 Y115.181 E27.46425
G1 X108.766 Y115.181 E27.70362
G1 X105.085 Y121.553 E27.94304
G1 X107.627 Y125.957 E28.10850
G1 X102.542 Y125.957 E28.27394
G1 X100.000 Y130.362 E28.43940
G1 X97.458 Y125.957 E28.60485
G1 X92.373 Y125.957 E28.77029
G1 X94.915 Y121.553 E28.93576
G1 X91.234 Y115.181 E29.17517
G1 X83.877 Y115.181 E29.41455
G1 X81.334 Y119.583 E29.57993
G1 X78.792 Y115.181 E29.74531
G1 X73.707 Y115.181 E29.91075
G1 X76.250 Y110.776 E30.07622
G1 X73.708 Y106.376 E30.24157
G1 X78.792 Y106.376 E30.40699
G1 X82.473 Y100.000 E30.64651
G1 X78.792 Y93.624 E30.88602
G1 X73.708 Y93.624 E31.05145
G1 X76.250 Y89.224 E31.21680
G1 X73.707 Y84.819 E31.38226
G1 X78.792 Y84.819 E31.54770
G1 X81.334 Y80.417 E31.71308
G1 X83.828 Y84.734 E31.87526
G1 X84.256 Y84.162 F7800.000
G1 X90.855 Y84.162 F378.000 E32.08995
G1 X94.156 Y78.447 E32.30468
G1 X91.235 Y73.386 E32.49483
G1 X97.078 Y73.386 E32.68496
G1 X100.000 Y68.324 E32.87510
G1 X102.922 Y73.386 E33.06524
G1 X108.765 Y73.386 E33.25537
G1 X105.844 Y78.447 E33.44551
G1 X109.145 Y84.162 E33.66024
G1 X115.744 Y84.162 E33.87494
G1 X118.665 Y79.104 E34.06499
G1 X121.587 Y84.162 E34.25504
G1 X127.431 Y84.162 E34.44517
G1 X124.509 Y89.224 E34.63531
G1 X127.431 Y94.281 E34.82536
G1 X121.587 Y94.281 E35.01548
G1 X118.286 Y100.000 E35.23030
G1 X121.587 Y105.719 E35.44513
G1 X127.431 Y105.719 E35.63525
G1 X124.509 Y110.776 E35.82530
G1 X127.431 Y115.838 E36.01544
G1 X121.587 Y115.838 E36.20557
G1 X118.665 Y120.896 E36.39562
G1 X115.744 Y115.838 E36.58567
G1 X109.145 Y115.838 E36.80037
G1 X105.844 Y121.553 E37.01510
G1 X108.765 Y126.614 E37.20524
G1 X102.922 Y126.614 E37.39537
G1 X100.000 Y131.676 E37.58551
G1 X97.078 Y126.614 E37.77565
G1 X91.235 Y126.614 E37.96578
G1 X94.156 Y121.553 E38.15592
G1 X90.855 Y115.838 E38.37066
G1 X84.256 Y115.838 E38.58535
G1 X81.334 Y120.896 E38.77540
G1 X78.413 Y115.838 E38.96546
G1 X72.569 Y115.838 E39.15558
G1 X75.491 Y110.776 E39.34573
G1 X72.569 Y105.719 E39.53577
G1 X78.413 Y105.719 E39.72589
G1 X81.714 Y100.000 E39.94072
G1 X78.413 Y94.281 E40.15555
G1 X72.569 Y94.281 E40.34567
G1 X75.491 Y89.224 E40.53571
G1 X72.569 Y84.162 E40.72585
G1 X78.413 Y84.162 E40.91598
G1 X81.334 Y79.104 E41.10603
G1 X84.207 Y84.077 E41.29288
G1 X84.371 Y84.809 F7800.000
G1 X82.582 Y84.843
G1 X81.001 Y83.261 F1080.000 E41.36590
G1 X77.246 Y89.765 F7800.000
G1 X86.075 Y98.594 F1080.000 E41.77356
G1 X84.801 Y96.387 E41.85675
G1 X77.450 Y89.036 E42.19618
G1 X76.176 Y86.830 E42.27934
G1 X83.527 Y94.180 E42.61873
G1 X82.253 Y91.974 E42.70192
G1 X76.231 Y85.952 E42.97995
G1 X77.164 Y85.952 E43.01039
G1 X80.979 Y89.767 E43.18653
G1 X80.787 Y88.643 E43.22377
G1 X78.096 Y85.952 E43.34800
G1 X79.029 Y85.952 E43.37845
G1 X81.720 Y88.643 E43.50268
G1 X82.652 Y88.643 E43.53312
G1 X79.635 Y85.626 E43.67244
G1 X79.976 Y85.035 E43.69473
G1 X83.585 Y88.643 E43.86133
G1 X84.517 Y88.643 E43.89178
G1 X80.318 Y84.444 E44.08568
G1 X80.659 Y83.853 E44.10796
G1 X85.450 Y88.643 E44.32915
G1 X86.382 Y88.643 E44.35960
G1 X83.692 Y85.952 E44.48383
G1 X84.624 Y85.952 E44.51428
G1 X87.315 Y88.643 E44.63851
G1 X88.247 Y88.643 E44.66895
G1 X85.557 Y85.952 E44.79318
G1 X86.489 Y85.952 E44.82363
G1 X89.180 Y88.643 E44.94786
G1 X90.112 Y88.643 E44.97831
G1 X87.422 Y85.952 E45.10254
G1 X88.354 Y85.952 E45.13298
G1 X91.045 Y88.643 E45.25721
G1 X91.977 Y88.643 E45.28766
G1 X89.287 Y85.952 E45.41189
G1 X90.219 Y85.952 E45.44233
G1 X92.910 Y88.643 E45.56657
G1 X93.589 Y88.390 E45.59023
G1 X91.152 Y85.952 E45.70277
G1 X91.960 Y85.829 E45.72948
G1 X93.930 Y87.799 E45.82045
G1 X94.272 Y87.207 E45.84273
G1 X92.302 Y85.238 E45.93369
G1 X92.643 Y84.646 E45.95598
G1 X94.613 Y86.616 E46.04693
G1 X94.954 Y86.025 E46.06922
G1 X92.984 Y84.055 E46.16017
G1 X93.326 Y83.464 E46.18246
G1 X95.296 Y85.434 E46.27341
G1 X95.637 Y84.843 E46.29569
G1 X93.667 Y82.873 E46.38663
G1 X94.009 Y82.282 E46.40892
G1 X95.978 Y84.252 E46.49986
G1 X96.320 Y83.661 E46.52215
G1 X94.350 Y81.691 E46.61308
G1 X94.692 Y81.100 E46.63537
G1 X96.661 Y83.069 E46.72629
G1 X97.002 Y82.478 E46.74858
G1 X95.033 Y80.509 E46.83951
G1 X95.374 Y79.918 E46.86179
G1 X97.344 Y81.887 E46.95271
G1 X97.685 Y81.296 E46.97500
G1 X95.716 Y79.327 E47.06592
G1 X96.057 Y78.736 E47.08820
G1 X98.026 Y80.705 E47.17911
G1 X98.368 Y80.114 E47.20140
G1 X95.572 Y77.318 E47.33049
G1 X95.295 Y75.176 F7800.000
G1 X99.050 Y78.931 F1080.000 E47.50388
G1 X99.392 Y78.340 E47.52617
G1 X96.228 Y75.176 E47.67226
G1 X97.160 Y75.176 E47.70271
G1 X99.733 Y77.749 E47.82150
G1 X100.997 Y79.013 F7800.000
G1 X110.627 Y88.643 F1080.000 E48.26616
G1 X111.560 Y88.643 E48.29660
G1 X108.869 Y85.952 E48.42084
G1 X109.802 Y85.952 E48.45128
G1 X112.492 Y88.643 E48.57551
G1 X113.425 Y88.643 E48.60596
G1 X110.734 Y85.952 E48.73019
G1 X111.667 Y85.952 E48.76063
G1 X114.357 Y88.643 E48.88487
G1 X115.290 Y88.643 E48.91531
G1 X112.599 Y85.952 E49.03954
G1 X113.532 Y85.952 E49.06999
G1 X116.222 Y88.643 E49.19422
G1 X117.155 Y88.643 E49.22466
G1 X114.464 Y85.952 E49.34889
G1 X115.397 Y85.952 E49.37934
G1 X118.087 Y88.643 E49.50357
G1 X119.020 Y88.643 E49.53402
G1 X116.329 Y85.952 E49.65825
G1 X116.954 Y85.645 E49.68099
G1 X123.800 Y92.491 E49.99708
G1 X122.868 Y92.491 E50.02752
G1 X119.432 Y89.056 E50.18615
G1 X119.091 Y89.647 E50.20844
G1 X121.935 Y92.491 E50.33977
G1 X121.003 Y92.491 E50.37021
G1 X118.749 Y90.238 E50.47425
G1 X118.408 Y90.829 E50.49653
G1 X120.377 Y92.798 E50.58742
G1 X120.035 Y93.389 E50.60971
G1 X118.067 Y91.420 E50.70060
G1 X117.725 Y92.011 E50.72289
G1 X119.694 Y93.980 E50.81379
G1 X119.353 Y94.571 E50.83607
G1 X117.384 Y92.603 E50.92697
G1 X117.043 Y93.194 E50.94926
G1 X119.011 Y95.162 E51.04016
G1 X118.670 Y95.754 E51.06244
G1 X116.701 Y93.785 E51.15335
G1 X116.360 Y94.376 E51.17563
G1 X118.329 Y96.345 E51.26654
G1 X117.988 Y96.936 E51.28882
G1 X116.019 Y94.967 E51.37973
G1 X115.677 Y95.558 E51.40202
G1 X117.646 Y97.527 E51.49292
G1 X117.305 Y98.118 E51.51521
G1 X115.336 Y96.150 E51.60612
G1 X114.995 Y96.741 E51.62841
G1 X116.964 Y98.710 E51.71932
G1 X116.622 Y99.301 E51.74161
G1 X114.653 Y97.332 E51.83252
G1 X114.312 Y97.923 E51.85481
G1 X116.281 Y99.892 E51.94573
G1 X117.260 Y101.803 E52.01583
G1 X113.971 Y98.514 E52.16769
G1 X113.629 Y99.105 E52.18998
G1 X118.533 Y104.009 E52.41640
G1 X119.807 Y106.215 E52.49956
G1 X113.288 Y99.696 E52.80053
G1 X113.733 Y101.074 E52.84779
G1 X122.805 Y110.146 E53.26669
G1 X123.147 Y109.555 E53.28898
G1 X121.101 Y107.509 E53.38346
G1 X122.033 Y107.509 E53.41391
G1 X123.488 Y108.964 E53.48110
G1 X123.830 Y108.373 E53.50339
G1 X122.966 Y107.509 E53.54329
G1 X123.898 Y107.509 E53.57374
G1 X124.171 Y107.782 E53.58635
G1 X122.464 Y110.737 F7800.000
G1 X115.007 Y103.280 F1080.000 E53.93066
G1 X116.281 Y105.487 E54.01385
G1 X123.632 Y112.838 E54.35325
G1 X123.909 Y114.048 E54.39378
G1 X117.555 Y107.693 E54.68717
G1 X118.829 Y109.900 E54.77036
G1 X122.977 Y114.048 E54.96186
G1 X122.044 Y114.048 E54.99231
G1 X119.354 Y111.357 E55.11654
G1 X118.421 Y111.357 E55.14698
G1 X121.112 Y114.048 E55.27121
G1 X120.417 Y114.285 E55.29519
G1 X117.489 Y111.357 E55.43039
G1 X116.556 Y111.357 E55.46084
G1 X120.075 Y114.876 E55.62333
G1 X119.734 Y115.467 E55.64562
G1 X115.624 Y111.357 E55.83540
G1 X114.691 Y111.357 E55.86585
G1 X119.392 Y116.058 E56.08292
G1 X119.051 Y116.649 E56.10521
G1 X117.226 Y114.824 E56.18949
G1 X116.449 Y114.048 F7800.000
G1 X113.759 Y111.357 F1080.000 E56.31372
G1 X112.826 Y111.357 E56.34416
G1 X115.517 Y114.048 E56.46840
G1 X114.584 Y114.048 E56.49884
G1 X111.894 Y111.357 E56.62307
G1 X110.961 Y111.357 E56.65352
G1 X113.652 Y114.048 E56.77775
G1 X112.719 Y114.048 E56.80819
G1 X110.029 Y111.357 E56.93242
G1 X109.096 Y111.357 E56.96287
G1 X111.787 Y114.048 E57.08710
G1 X110.854 Y114.048 E57.11755
G1 X108.164 Y111.357 E57.24178
G1 X107.231 Y111.357 E57.27222
G1 X109.922 Y114.048 E57.39645
G1 X108.989 Y114.048 E57.42690
G1 X106.463 Y111.521 E57.54355
G1 X106.121 Y112.112 E57.56584
G1 X108.091 Y114.082 E57.65681
G1 X107.750 Y114.673 E57.67909
G1 X105.780 Y112.703 E57.77005
G1 X105.439 Y113.295 E57.79234
G1 X107.408 Y115.264 E57.88330
G1 X107.067 Y115.856 E57.90558
G1 X105.097 Y113.886 E57.99653
G1 X104.756 Y114.477 E58.01882
G1 X106.726 Y116.447 E58.10977
G1 X106.384 Y117.038 E58.13205
G1 X104.415 Y115.068 E58.22300
G1 X104.073 Y115.659 E58.24528
G1 X106.043 Y117.629 E58.33622
G1 X105.701 Y118.220 E58.35851
G1 X103.732 Y116.250 E58.44944
G1 X103.391 Y116.842 E58.47173
G1 X105.360 Y118.811 E58.56266
G1 X105.018 Y119.402 E58.58495
G1 X103.049 Y117.433 E58.67587
G1 X102.708 Y118.024 E58.69816
G1 X104.677 Y119.993 E58.78908
G1 X104.336 Y120.584 E58.81137
G1 X102.367 Y118.615 E58.90228
G1 X102.025 Y119.206 E58.92457
G1 X103.994 Y121.175 E59.01548
G1 X104.236 Y122.350 E59.05464
G1 X101.684 Y119.797 E59.17248
G1 X101.343 Y120.389 E59.19477
G1 X105.510 Y124.556 E59.38718
G1 X104.846 Y124.824 E59.41056
G1 X101.001 Y120.980 E59.58807
G1 X100.660 Y121.571 E59.61036
G1 X103.913 Y124.824 E59.76056
G1 X102.981 Y124.824 E59.79101
G1 X100.319 Y122.162 E59.91392
G1 X98.811 Y120.655 F7800.000
G1 X89.513 Y111.357 F1080.000 E60.34322
G1 X88.581 Y111.357 E60.37366
G1 X91.272 Y114.048 E60.49789
G1 X90.339 Y114.048 E60.52834
G1 X87.648 Y111.357 E60.65257
G1 X86.716 Y111.357 E60.68302
G1 X89.407 Y114.048 E60.80725
G1 X88.474 Y114.048 E60.83769
G1 X85.783 Y111.357 E60.96192
G1 X84.851 Y111.357 E60.99237
G1 X87.542 Y114.048 E61.11660
G1 X86.609 Y114.048 E61.14704
G1 X83.918 Y111.357 E61.27128
G1 X82.986 Y111.357 E61.30172
G1 X85.677 Y114.048 E61.42595
G1 X84.744 Y114.048 E61.45640
G1 X82.053 Y111.357 E61.58063
G1 X81.121 Y111.357 F7800.000
G1 X83.812 Y114.048 F1080.000 E61.70486
G1 X83.097 Y114.266 E61.72925
G1 X76.340 Y107.509 E62.04122
G1 X76.031 Y108.132 E62.06393
G1 X82.756 Y114.857 E62.37442
G1 X82.414 Y115.448 E62.39671
G1 X77.306 Y110.340 E62.63255
G1 X77.285 Y111.251 E62.66229
G1 X82.073 Y116.039 E62.88338
G1 X81.128 Y116.959 F7800.000
G1 X81.390 Y117.221 F1080.000 E62.89548
G1 X81.731 Y116.630 E62.91777
G1 X79.852 Y114.751 E63.00453
G1 X79.149 Y114.048 F7800.000
G1 X76.943 Y111.842 F1080.000 E63.10638
G1 X76.602 Y112.433 E63.12866
G1 X78.217 Y114.048 E63.20321
G1 X77.284 Y114.048 E63.23366
G1 X76.261 Y113.024 E63.28091
G1 X75.919 Y113.615 E63.30320
G1 X76.352 Y114.048 E63.32315
G1 X80.619 Y110.855 F7800.000
G1 X77.273 Y107.509 F1080.000 E63.47767
G1 X78.205 Y107.509 E63.50811
G1 X80.961 Y110.264 E63.63532
G1 X81.302 Y109.673 E63.65761
G1 X79.138 Y107.509 E63.75753
G1 X79.675 Y107.113 E63.77930
G1 X81.643 Y109.082 E63.87020
G1 X81.985 Y108.491 E63.89248
G1 X80.016 Y106.522 E63.98338
G1 X80.357 Y105.931 E64.00566
G1 X82.326 Y107.899 E64.09656
G1 X82.667 Y107.308 E64.11885
G1 X80.699 Y105.340 E64.20974
