; generated by Slic3r 0.9.10b on 2013-07-30 at 21:51:24

; layer_height = 0.25
; perimeters = 3
; top_solid_layers = 3
; bottom_solid_layers = 3
; fill_density = 1
; perimeter_speed = 30
; infill_speed = 70
; travel_speed = 130
; nozzle_diameter = 0.35
; filament_diameter = 3
; extrusion_multiplier = .926
; perimeters extrusion width = 0.39mm
; infill extrusion width = 0.39mm
; solid infill extrusion width = 0.39mm
; top infill extrusion width = 0.39mm
; support material extrusion width = 0.39mm
; first layer extrusion width = 0.70mm

G21 ; set units to millimeters
M107
M190 S60 ; wait for bed temperature to be reached
M104 S220 ; set temperature
G28 ; home all axes
G1 Z5 F5000 ; lift nozzle
M109 S220 ; wait for temperature to be reached
G90 ; use absolute coordinates
G92 E0
M82 ; use absolute distances for extrusion
G1 F1800.000 E-1.00000
G92 E0
G1 Z0.350 F7800.000
G1 X58.120 Y73.248
G1 F1800.000 E1.00000
G1 X61.520 Y70.748 F540.000 E1.12092
G1 X62.110 Y70.368 E1.14102
G1 X96.400 Y50.378 E2.27825
G1 X98.010 Y49.698 E2.32832
G1 X99.740 Y49.478 E2.37829
G1 X100.250 Y49.478 E2.39290
G1 X101.980 Y49.698 E2.44287
G1 X103.590 Y50.378 E2.49294
G1 X137.880 Y70.368 E3.63016
G1 X138.470 Y70.748 E3.65027
G1 X141.870 Y73.248 E3.77119
G1 X142.950 Y74.238 E3.81316
G1 X143.780 Y75.438 E3.85497
G1 X144.320 Y76.778 E3.89636
G1 X144.560 Y78.218 E3.93819
G1 X144.780 Y82.288 E4.05497
G1 X144.860 Y92.288 E4.34150
G1 X144.960 Y117.308 E5.05837
G1 X144.890 Y118.338 E5.08795
G1 X144.320 Y122.078 E5.19634
G1 X143.880 Y123.628 E5.24251
G1 X143.090 Y125.028 E5.28857
G1 X141.980 Y126.198 E5.33477
G1 X138.940 Y128.698 E5.44755
G1 X138.070 Y129.298 E5.47783
G1 X103.770 Y149.298 E6.61544
G1 X102.160 Y149.978 E6.66552
G1 X100.430 Y150.198 E6.71548
G1 X99.560 Y150.198 E6.74041
G1 X97.830 Y149.978 E6.79038
G1 X96.220 Y149.298 E6.84045
G1 X61.920 Y129.298 E7.97807
G1 X61.050 Y128.698 E8.00835
G1 X58.010 Y126.198 E8.12112
G1 X56.900 Y125.028 E8.16732
G1 X56.110 Y123.628 E8.21338
G1 X55.670 Y122.078 E8.25955
G1 X55.100 Y118.338 E8.36794
G1 X55.030 Y117.308 E8.39752
G1 X55.130 Y92.288 E9.11439
G1 X55.210 Y82.288 E9.40092
G1 X55.430 Y78.218 E9.51770
G1 X55.670 Y76.778 E9.55953
G1 X56.210 Y75.438 E9.60092
G1 X57.040 Y74.238 E9.64273
G1 X58.051 Y73.311 E9.68202
G1 F1800.000 E8.68202
G92 E0
G1 X65.446 Y76.095 F7800.000
G1 F1800.000 E1.00000
G1 X66.288 Y76.095 F1080.000 E1.02411
G1 X67.009 Y77.345 E1.06545
G1 X64.725 Y77.345 E1.13089
G1 X62.042 Y78.595 E1.21570
G1 X92.619 Y78.595 E2.09178
G1 X93.343 Y79.845 F7800.000
G1 X62.763 Y79.845 F1080.000 E2.96793
G1 X62.558 Y81.095 E3.00422
G1 X70.340 Y81.095 E3.22719
G1 X70.950 Y81.095 F7800.000
G1 X71.161 Y81.095 F1080.000 E3.23325
G1 X71.771 Y81.095 F7800.000
G1 X72.804 Y81.095 F1080.000 E3.26284
G1 X73.413 Y81.095 F7800.000
G1 X73.625 Y81.095 F1080.000 E3.26890
G1 X74.234 Y81.095 F7800.000
G1 X92.662 Y81.095 F1080.000 E3.79690
G1 F1800.000 E2.79690
G92 E0
G1 X99.190 Y52.658 F7800.000
G1 X94.784 Y82.344
G1 F1800.000 E1.00000
G1 X74.135 Y82.344 F1080.000 E1.59163
G1 X75.366 Y83.594 E1.64191
G1 X84.583 Y83.594 E1.90600
G1 X85.550 Y83.594 F7800.000
G1 X94.539 Y83.594 F1080.000 E2.16354
G1 X94.805 Y84.844 F7800.000
G1 X105.195 Y84.844 F1080.000 E2.46125
G1 X105.009 Y86.094 E2.49745
G1 X94.991 Y86.094 E2.78446
G1 X96.248 Y87.343 E2.83523
G1 X103.752 Y87.343 E3.05025
G1 X104.081 Y88.593 E3.08727
G1 X95.919 Y88.593 E3.32111
G1 X95.198 Y89.843 E3.36246
G1 X100.355 Y89.843 E3.51021
G1 X100.887 Y89.843 F7800.000
G1 X104.802 Y89.843 F1080.000 E3.62239
G1 X103.009 Y91.093 E3.68501
G1 X116.752 Y91.093 E4.07878
G1 X115.727 Y92.343 F7800.000
G1 X102.288 Y92.343 F1080.000 E4.46385
G1 X102.988 Y93.592 E4.50490
G1 X105.545 Y93.592 E4.57815
G1 X106.292 Y94.842 F7800.000
G1 X114.799 Y94.842 F1080.000 E4.82189
G1 X114.366 Y93.592 E4.85979
G1 X107.255 Y93.592 E5.06354
G1 F1800.000 E4.06354
G92 E0
G1 X107.350 Y96.092 F7800.000
G1 F1800.000 E1.00000
G1 X103.678 Y96.092 F1080.000 E1.10521
G1 X102.959 Y96.092 F7800.000
G1 X102.730 Y96.092 F1080.000 E1.11175
G1 X102.010 Y96.092 F7800.000
G1 X97.990 Y96.092 F1080.000 E1.22696
G1 X97.270 Y96.092 F7800.000
G1 X97.041 Y96.092 F1080.000 E1.23351
G1 X96.322 Y96.092 F7800.000
G1 X95.145 Y96.092 F1080.000 E1.26722
G1 X94.425 Y96.092 F7800.000
G1 X94.197 Y96.092 F1080.000 E1.27375
G1 X93.746 Y96.092 F7800.000
G1 X84.478 Y96.092 F1080.000 E1.53930
G1 X85.201 Y94.842 E1.58067
G1 X91.746 Y94.842 E1.76820
G1 X92.745 Y93.592 E1.81405
G1 X85.634 Y93.592 E2.01780
G1 X84.273 Y92.343 E2.07074
G1 X97.712 Y92.343 E2.45581
G1 X98.666 Y92.343 F7800.000
G1 X100.268 Y92.343 F1080.000 E2.50169
G1 X100.311 Y91.093 E2.53752
G1 X98.710 Y91.093 E2.58340
G1 X96.991 Y91.093 F7800.000
G1 X82.726 Y91.093 F1080.000 E2.99211
G1 X83.746 Y89.843 E3.03833
G1 X80.726 Y89.843 E3.12484
G1 X79.924 Y91.093 F7800.000
G1 X62.474 Y91.093 F1080.000 E3.62482
G1 X62.846 Y89.843 E3.66218
G1 X77.657 Y89.843 E4.08655
G1 X78.377 Y88.593 E4.12787
G1 X62.125 Y88.593 E4.59352
G1 X64.642 Y87.343 E4.67404
G1 X79.746 Y87.343 E5.10678
G1 X79.822 Y86.094 F7800.000
G1 X74.681 Y86.094 F1080.000 E5.25407
G1 X74.545 Y84.844 E5.29009
G1 X74.956 Y84.844 E5.30186
G1 X75.366 Y84.844 F7800.000
G1 X82.953 Y84.844 F1080.000 E5.51924
G1 X83.140 Y86.094 E5.55545
G1 X80.356 Y86.094 E5.63520
G1 F1800.000 E4.63520
G92 E0
G1 X81.746 Y88.593 F7800.000
G1 F1800.000 E1.00000
G1 X78.726 Y88.593 F1080.000 E1.08652
G1 F1800.000 E0.08652
G92 E0
G1 X79.533 Y92.343 F7800.000
G1 F1800.000 E1.00000
G1 X61.753 Y92.343 F1080.000 E1.50943
G1 F1800.000 E0.50943
G92 E0
G1 X65.013 Y93.592 F7800.000
G1 F1800.000 E1.00000
G1 X66.721 Y93.592 F1080.000 E1.04894
G1 X66.002 Y94.842 E1.09026
G1 X65.733 Y94.842 E1.09796
G1 F1800.000 E0.09796
G92 E0
G1 X70.701 Y93.592 F7800.000
G1 F1800.000 E1.00000
G1 X78.049 Y93.592 F1080.000 E1.21051
G1 X78.088 Y94.842 E1.24634
G1 X71.421 Y94.842 E1.43737
G1 X70.968 Y96.092 E1.47545
G1 X79.493 Y96.092 E1.71970
G1 X80.685 Y96.092 F7800.000
G1 X82.811 Y96.092 F1080.000 E1.78061
G1 X83.284 Y97.342 E1.81889
G1 X70.247 Y97.342 E2.19240
G1 F1800.000 E1.19240
G92 E0
G1 X73.586 Y98.591 F7800.000
G1 F1800.000 E1.00000
G1 X84.252 Y98.591 F1080.000 E1.30561
G1 X84.976 Y99.841 E1.34698
G1 X74.310 Y99.841 E1.65259
G1 X73.770 Y101.091 E1.69159
G1 X84.436 Y101.091 E1.99720
G1 X85.612 Y102.341 F7800.000
G1 X85.944 Y102.341 F1080.000 E2.00673
G1 F1800.000 E1.00673
G92 E0
G1 X87.982 Y102.341 F7800.000
G1 F1800.000 E1.00000
G1 X90.684 Y102.341 F1080.000 E1.07744
G1 X91.407 Y103.591 E1.11880
G1 X84.294 Y103.591 E1.32258
G1 X84.168 Y104.840 E1.35857
G1 X90.705 Y104.840 E1.54587
G1 X90.896 Y104.840 F7800.000
G1 X94.305 Y104.840 F1080.000 E1.64353
G1 X94.350 Y106.090 F7800.000
G1 X95.694 Y106.090 F1080.000 E1.68202
G1 X95.772 Y106.090 F7800.000
G1 X97.117 Y106.090 F1080.000 E1.72054
G1 X97.906 Y106.090 F7800.000
G1 X102.094 Y106.090 F1080.000 E1.84054
G1 X102.883 Y106.090 F7800.000
G1 X104.228 Y106.090 F1080.000 E1.87906
G1 X104.306 Y106.090 F7800.000
G1 X105.650 Y106.090 F1080.000 E1.91755
G1 X106.371 Y107.340 E1.95889
G1 X102.162 Y107.340 E2.07948
G1 X101.345 Y107.340 F7800.000
G1 X99.744 Y107.340 F1080.000 E2.12536
G1 X99.700 Y108.590 E2.16119
G1 X101.301 Y108.590 E2.20706
G1 X102.126 Y109.839 E2.24996
G1 X99.656 Y109.839 E2.32072
G1 X99.281 Y109.839 F7800.000
G1 X97.874 Y109.839 F1080.000 E2.36101
G1 X97.859 Y109.839 F7800.000
G1 X95.014 Y109.839 F1080.000 E2.44251
G1 X94.782 Y111.089 E2.47893
G1 X105.218 Y111.089 E2.77793
G1 X104.986 Y109.839 E2.81435
G1 X102.141 Y109.839 E2.89585
G1 X102.863 Y108.590 E2.93720
G1 X116.766 Y108.590 E3.33555
G1 X115.910 Y107.340 F7800.000
G1 X106.428 Y107.340 F1080.000 E3.60722
G1 X107.150 Y106.090 E3.64858
G1 X108.494 Y106.090 E3.68707
G1 X108.572 Y106.090 F7800.000
G1 X114.261 Y106.090 F1080.000 E3.85007
G1 F1800.000 E2.85007
G92 E0
G1 X115.832 Y104.840 F7800.000
G1 F1800.000 E1.00000
G1 X107.746 Y104.840 F1080.000 E1.23167
G1 F1800.000 E0.23167
G92 E0
G1 X106.766 Y102.341 F7800.000
G1 F1800.000 E1.00000
G1 X102.204 Y102.341 F1080.000 E1.13070
G1 X102.063 Y102.341 F7800.000
G1 X100.782 Y102.341 F1080.000 E1.16740
G1 X100.060 Y103.591 E1.20875
G1 X115.706 Y103.591 E1.65701
G1 X117.006 Y103.591 F7800.000
G1 X119.498 Y103.591 F1080.000 E1.72840
G1 X120.324 Y103.591 F7800.000
G1 X129.215 Y103.591 F1080.000 E1.98313
G1 X128.494 Y104.840 E2.02448
G1 X122.095 Y104.840 E2.20781
G1 X121.768 Y106.090 E2.24482
G1 X129.116 Y106.090 E2.45534
G1 X129.836 Y107.340 E2.49667
G1 X120.650 Y107.340 E2.75985
G1 X119.929 Y108.590 E2.80119
G1 X137.709 Y108.590 E3.31062
G1 X136.988 Y109.839 E3.35197
G1 X120.614 Y109.839 E3.82112
G1 X120.766 Y111.089 F7800.000
G1 X117.746 Y111.089 F1080.000 E3.90764
G1 X118.766 Y109.839 E3.95385
G1 X115.746 Y109.839 E4.04037
G1 X114.467 Y109.839 F7800.000
G1 X113.977 Y109.839 F1080.000 E4.05441
G1 X112.097 Y109.839 F7800.000
G1 X109.236 Y109.839 F1080.000 E4.13638
G1 X109.004 Y111.089 E4.17280
G1 X112.328 Y111.089 E4.26804
G1 F1800.000 E3.26804
G92 E0
G1 X112.823 Y113.589 F7800.000
G1 F1800.000 E1.00000
G1 X110.407 Y113.589 F1080.000 E1.06921
G1 X109.505 Y113.589 F7800.000
G1 X107.088 Y113.589 F1080.000 E1.13846
G1 X106.907 Y114.839 E1.17464
G1 X113.003 Y114.839 E1.34930
G1 X114.267 Y116.088 F7800.000
G1 X105.644 Y116.088 F1080.000 E1.59635
G1 X105.033 Y117.338 E1.63621
G1 X125.806 Y117.338 E2.23137
G1 X125.865 Y118.588 E2.26722
G1 X105.753 Y118.588 E2.84347
G1 X106.798 Y119.838 F7800.000
G1 X137.054 Y119.838 F1080.000 E3.71034
G1 X137.625 Y118.588 E3.74971
G1 X129.560 Y118.588 E3.98078
G1 X128.329 Y118.588 F7800.000
G1 X127.097 Y118.588 F1080.000 E4.01607
G1 F1800.000 E3.01607
G92 E0
G1 X129.620 Y117.338 F7800.000
G1 F1800.000 E1.00000
G1 X138.345 Y117.338 F1080.000 E1.24997
G1 F1800.000 E0.24997
G92 E0
G1 X134.888 Y116.088 F7800.000
G1 F1800.000 E1.00000
G1 X131.255 Y116.088 F1080.000 E1.10411
G1 F1800.000 E0.10411
G92 E0
G1 X129.560 Y114.839 F7800.000
G1 F1800.000 E1.00000
G1 X134.167 Y114.839 F1080.000 E1.13200
G1 X134.820 Y113.589 E1.17239
G1 X129.971 Y113.589 E1.31132
G1 X129.836 Y113.589 F7800.000
G1 X129.695 Y113.589 F1080.000 E1.31538
G1 X128.194 Y113.589 F7800.000
G1 X128.052 Y113.589 F1080.000 E1.31945
G1 X127.918 Y113.589 F7800.000
G1 X127.507 Y113.589 F1080.000 E1.33122
G1 X127.373 Y113.589 F7800.000
G1 X127.232 Y113.589 F1080.000 E1.33527
G1 X125.731 Y113.589 F7800.000
G1 X125.589 Y113.589 F1080.000 E1.33934
G1 X125.455 Y113.589 F7800.000
G1 X120.361 Y113.589 F1080.000 E1.48528
G1 X119.460 Y113.589 F7800.000
G1 X117.043 Y113.589 F1080.000 E1.55453
G1 X116.863 Y114.839 E1.59071
G1 X125.865 Y114.839 E1.84864
G1 F1800.000 E0.84864
G92 E0
G1 X124.171 Y116.088 F7800.000
G1 F1800.000 E1.00000
G1 X115.600 Y116.088 F1080.000 E1.24556
G1 F1800.000 E0.24556
G92 E0
G1 X119.746 Y112.339 F7800.000
G1 F1800.000 E1.00000
G1 X135.541 Y112.339 F1080.000 E1.45254
G1 X137.692 Y111.089 E1.52382
G1 X121.806 Y111.089 E1.97898
G1 F1800.000 E0.97898
G92 E0
G1 X116.900 Y102.341 F7800.000
G1 F1800.000 E1.00000
G1 X126.954 Y102.341 F1080.000 E1.28807
G1 X126.230 Y101.091 E1.32944
G1 X115.564 Y101.091 E1.63505
G1 X115.024 Y99.841 E1.67405
G1 X125.690 Y99.841 E1.97966
G1 X126.414 Y98.591 E2.02103
G1 X115.748 Y98.591 E2.32664
G1 X116.716 Y97.342 F7800.000
G1 X129.753 Y97.342 F1080.000 E2.70015
G1 X129.032 Y96.092 E2.74149
G1 X120.507 Y96.092 E2.98574
G1 X119.315 Y96.092 F7800.000
G1 X117.189 Y96.092 F1080.000 E3.04664
G1 X115.522 Y96.092 F7800.000
G1 X108.656 Y96.092 F1080.000 E3.24337
G1 X109.357 Y97.342 F7800.000
G1 X112.201 Y97.342 F1080.000 E3.32486
G1 X112.223 Y98.591 E3.36068
G1 X108.635 Y98.591 E3.46348
G1 X108.431 Y98.591 F7800.000
G1 X107.213 Y98.591 F1080.000 E3.49838
G1 X106.491 Y99.841 E3.53973
G1 X110.758 Y99.841 E3.66198
G1 F1800.000 E2.66198
G92 E0
G1 X109.316 Y102.341 F7800.000
G1 F1800.000 E1.00000
G1 X112.018 Y102.341 F1080.000 E1.07744
G1 X112.407 Y101.091 E1.11494
G1 X107.192 Y101.091 E1.26435
G1 X105.845 Y101.091 F7800.000
G1 X105.533 Y101.091 F1080.000 E1.27327
G1 F1800.000 E0.27327
G92 E0
G1 X102.925 Y101.091 F7800.000
G1 F1800.000 E1.00000
G1 X104.897 Y101.091 F1080.000 E1.05648
G1 X104.358 Y99.841 E1.09546
G1 X102.225 Y99.841 E1.15659
G1 X102.946 Y98.591 E1.19793
G1 X106.298 Y98.591 E1.29397
G1 X105.802 Y97.342 E1.33250
G1 X100.823 Y97.342 E1.47513
G1 X99.177 Y97.342 F7800.000
G1 X92.726 Y97.342 F1080.000 E1.65994
G1 X92.787 Y98.591 F7800.000
G1 X91.569 Y98.591 F1080.000 E1.69484
G1 X91.365 Y98.591 F7800.000
G1 X87.777 Y98.591 F1080.000 E1.79765
G1 X87.799 Y97.342 E1.83346
G1 X90.643 Y97.342 E1.91495
G1 F1800.000 E0.91495
G92 E0
G1 X89.242 Y99.841 F7800.000
G1 F1800.000 E1.00000
G1 X93.509 Y99.841 F1080.000 E1.12225
G1 X93.702 Y98.591 F7800.000
G1 X97.054 Y98.591 F1080.000 E1.21828
G1 X97.775 Y99.841 E1.25963
G1 X95.642 Y99.841 E1.32075
G1 X95.103 Y101.091 F7800.000
G1 X97.075 Y101.091 F1080.000 E1.37723
G1 X97.796 Y102.341 F7800.000
G1 X94.240 Y102.341 F1080.000 E1.47910
G1 X93.247 Y103.591 E1.52485
G1 X99.940 Y103.591 E1.71661
G1 X101.472 Y104.840 E1.77327
G1 X98.528 Y104.840 E1.85763
G1 F1800.000 E0.85763
G92 E0
G1 X97.937 Y102.341 F7800.000
G1 F1800.000 E1.00000
G1 X99.218 Y102.341 F1080.000 E1.03670
G1 F1800.000 E0.03670
G92 E0
G1 X95.783 Y104.840 F7800.000
G1 F1800.000 E1.00000
G1 X95.684 Y104.840 F1080.000 E1.00286
G1 F1800.000 E0.00286
G92 E0
G1 X92.850 Y106.090 F7800.000
G1 F1800.000 E1.00000
G1 X85.739 Y106.090 F1080.000 E1.20374
G1 F1800.000 E0.20374
G92 E0
G1 X84.090 Y107.340 F7800.000
G1 F1800.000 E1.00000
G1 X93.572 Y107.340 F1080.000 E1.27168
G1 X93.629 Y107.340 F7800.000
G1 X97.838 Y107.340 F1080.000 E1.39227
G1 X97.137 Y108.590 E1.43332
G1 X83.845 Y108.590 E1.81417
G1 X84.903 Y109.839 F7800.000
G1 X81.494 Y109.839 F1080.000 E1.91183
G1 X82.553 Y111.089 E1.95875
G1 X79.144 Y111.089 E2.05641
G1 X78.194 Y111.089 F7800.000
G1 X62.308 Y111.089 F1080.000 E2.51157
G1 F1800.000 E1.51157
G92 E0
G1 X64.476 Y107.340 F7800.000
G1 F1800.000 E1.00000
G1 X67.258 Y107.340 F1080.000 E1.07970
G1 X66.538 Y106.090 E1.12103
G1 X65.196 Y106.090 E1.15949
G1 F1800.000 E0.15949
G92 E0
G1 X73.046 Y102.341 F7800.000
G1 F1800.000 E1.00000
G1 X83.100 Y102.341 F1080.000 E1.28807
G1 X82.994 Y103.591 F7800.000
G1 X80.502 Y103.591 F1080.000 E1.35945
G1 X79.676 Y103.591 F7800.000
G1 X70.785 Y103.591 F1080.000 E1.61419
G1 X71.506 Y104.840 E1.65553
G1 X77.905 Y104.840 E1.83886
G1 X78.232 Y106.090 E1.87587
G1 X70.884 Y106.090 E2.08640
G1 X70.164 Y107.340 E2.12772
G1 X79.350 Y107.340 E2.39090
G1 X80.071 Y108.590 E2.43224
G1 X62.291 Y108.590 E2.94168
G1 X63.012 Y109.839 E2.98302
G1 X79.386 Y109.839 E3.45217
G1 F1800.000 E2.45217
G92 E0
G1 X80.202 Y112.339 F7800.000
G1 F1800.000 E1.00000
G1 X64.459 Y112.339 F1080.000 E1.45106
G1 X65.180 Y113.589 E1.49240
G1 X70.029 Y113.589 E1.63133
G1 X70.163 Y113.589 F7800.000
G1 X70.306 Y113.589 F1080.000 E1.63540
G1 X70.440 Y114.839 E1.67142
G1 X65.833 Y114.839 E1.80341
G1 X65.112 Y116.088 E1.84476
G1 X68.745 Y116.088 E1.94886
G1 X70.380 Y117.338 E2.00783
G1 X61.655 Y117.338 E2.25781
G1 X62.375 Y118.588 E2.29913
G1 X70.440 Y118.588 E2.53019
G1 X71.671 Y118.588 F7800.000
G1 X72.903 Y118.588 F1080.000 E2.56548
G1 X74.135 Y118.588 F7800.000
G1 X94.247 Y118.588 F1080.000 E3.14174
G1 X93.202 Y119.838 F7800.000
G1 X62.946 Y119.838 F1080.000 E4.00861
G1 X62.225 Y121.087 E4.04995
G1 X92.803 Y121.087 E4.92605
G1 F1800.000 E3.92605
G92 E0
G1 X94.645 Y122.337 F7800.000
G1 F1800.000 E1.00000
G1 X87.294 Y122.337 F1080.000 E1.21060
G1 F1800.000 E0.21060
G92 E0
G1 X84.261 Y122.337 F7800.000
G1 F1800.000 E1.00000
G1 X81.606 Y122.337 F1080.000 E1.07606
G1 X82.327 Y123.587 E1.11740
G1 X83.537 Y123.587 E1.15207
G1 F1800.000 E0.15207
G92 E0
G1 X87.783 Y126.087 F7800.000
G1 F1800.000 E1.00000
G1 X112.217 Y126.087 F1080.000 E1.70009
G1 X109.817 Y127.336 E1.77764
G1 X90.183 Y127.336 E2.34016
G1 F1800.000 E1.34016
G92 E0
G1 X90.586 Y131.086 F7800.000
G1 F1800.000 E1.00000
G1 X96.921 Y131.086 F1080.000 E1.18150
G1 X97.331 Y131.086 F7800.000
G1 X97.742 Y131.086 F1080.000 E1.19328
G1 X97.590 Y129.836 E1.22935
G1 X91.306 Y129.836 E1.40940
G1 X90.904 Y128.586 E1.44701
G1 X109.096 Y128.586 E1.96821
