; generated by Slic3r 0.9.10b on 2013-07-30 at 21:57:20

; layer_height = 0.4
; perimeters = 3
; top_solid_layers = 3
; bottom_solid_layers = 3
; fill_density = 0.4
; perimeter_speed = 30
; infill_speed = 60
; travel_speed = 130
; nozzle_diameter = 0.5
; filament_diameter = 3
; extrusion_multiplier = 1
; perimeters extrusion width = 0.53mm
; infill extrusion width = 0.53mm
; solid infill extrusion width = 0.53mm
; top infill extrusion width = 0.53mm
; first layer extrusion width = 0.70mm

G21 ; set units to millimeters
M107
M104 S200 ; set temperature
G28 ; home all axes
G1 Z5 F5000 ; lift nozzle

M109 S200 ; wait for temperature to be reached
G90 ; use absolute coordinates
G92 E0
M82 ; use absolute distances for extrusion
G1 F1800.000 E-1.00000
G92 E0
G1 Z0.350 F7800.000
G1 X83.410 Y80.816
G1 F1800.000 E1.00000
G1 X84.110 Y80.116 F540.000 E1.03221
G1 X85.060 Y79.236 E1.07434
G1 X86.450 Y78.106 E1.13262
G1 X87.250 Y77.526 E1.16477
G1 X88.390 Y76.776 E1.20917
G1 X88.740 Y76.566 E1.22245
G1 X89.610 Y76.076 E1.25493
G1 X91.110 Y75.326 E1.30950
G1 X92.060 Y74.906 E1.34329
G1 X93.280 Y74.426 E1.38595
G1 X94.960 Y73.876 E1.44346
G1 X95.980 Y73.596 E1.47787
G1 X97.380 Y73.276 E1.52460
G1 X99.060 Y72.976 E1.58012
G1 X100.440 Y72.796 E1.62540
G1 X101.610 Y72.686 E1.66363
G1 X103.310 Y72.596 E1.71902
G1 X104.820 Y72.576 E1.76815
G1 X106.460 Y72.616 E1.82153
G1 X107.780 Y72.706 E1.86457
G1 X108.600 Y72.786 E1.89138
G1 X110.530 Y73.076 E1.95488
G1 X111.550 Y73.266 E1.98863
G1 X112.580 Y73.496 E2.02297
G1 X114.740 Y74.086 E2.09582
G1 X116.250 Y74.596 E2.14768
G1 X118.440 Y75.496 E2.22471
G1 X119.900 Y76.196 E2.27739
G1 X121.160 Y76.986 E2.32578
G1 X122.220 Y78.036 E2.37432
G1 X123.020 Y79.306 E2.42315
G1 X123.510 Y80.716 E2.47172
G1 X123.680 Y82.196 E2.52019
G1 X123.680 Y117.796 E3.67844
G1 X123.510 Y119.276 E3.72691
G1 X123.020 Y120.686 E3.77548
G1 X122.220 Y121.956 E3.82431
G1 X121.160 Y123.006 E3.87285
G1 X119.900 Y123.796 E3.92124
G1 X118.110 Y124.646 E3.98571
G1 X116.610 Y125.256 E4.03839
G1 X114.750 Y125.896 E4.10239
G1 X114.410 Y125.996 E4.11392
G1 X112.430 Y126.536 E4.18069
G1 X110.890 Y126.856 E4.23187
G1 X108.510 Y127.206 E4.31013
G1 X106.490 Y127.376 E4.37609
G1 X104.820 Y127.416 E4.43044
G1 X103.330 Y127.396 E4.47892
G1 X101.580 Y127.306 E4.53593
G1 X100.430 Y127.196 E4.57352
G1 X99.050 Y127.016 E4.61880
G1 X97.640 Y126.766 E4.66539
G1 X96.000 Y126.396 E4.72009
G1 X94.630 Y126.016 E4.76634
G1 X93.630 Y125.686 E4.80060
G1 X92.040 Y125.076 E4.85601
G1 X91.110 Y124.666 E4.88908
G1 X89.920 Y124.076 E4.93229
G1 X88.720 Y123.406 E4.97701
G1 X87.540 Y122.656 E5.02250
G1 X86.460 Y121.886 E5.06565
G1 X86.130 Y121.636 E5.07912
G1 X85.110 Y120.786 E5.12232
G1 X84.120 Y119.886 E5.16585
G1 X83.140 Y118.886 E5.21140
G1 X82.220 Y117.836 E5.25682
G1 X81.600 Y117.046 E5.28950
G1 X80.850 Y116.006 E5.33121
G1 X80.100 Y114.826 E5.37670
G1 X79.420 Y113.606 E5.42215
G1 X78.840 Y112.426 E5.46493
G1 X78.170 Y110.826 E5.52136
G1 X77.820 Y109.846 E5.55522
G1 X77.330 Y108.186 E5.61153
G1 X77.080 Y107.146 E5.64633
G1 X76.810 Y105.796 E5.69112
G1 X76.550 Y104.086 E5.74740
G1 X76.440 Y102.956 E5.78434
G1 X76.340 Y101.286 E5.83877
G1 X76.320 Y99.866 E5.88497
G1 X76.350 Y98.406 E5.93248
G1 X76.420 Y97.236 E5.97062
G1 X76.590 Y95.546 E6.02588
G1 X76.750 Y94.466 E6.06140
G1 X77.080 Y92.796 E6.11679
G1 X77.330 Y91.776 E6.15095
G1 X77.810 Y90.156 E6.20593
G1 X78.160 Y89.166 E6.24009
G1 X78.700 Y87.866 E6.28589
G1 X79.270 Y86.676 E6.32882
G1 X80.110 Y85.156 E6.38532
G1 X80.830 Y84.026 E6.42892
G1 X81.620 Y82.916 E6.47324
G1 X82.490 Y81.836 E6.51836
G1 X83.343 Y80.888 E6.55985
G1 F1800.000 E5.55985
G92 E0
G1 X89.318 Y86.661 F7800.000
G1 F1800.000 E1.00000
G1 X89.966 Y86.008 F540.000 E1.02992
G1 X90.646 Y85.392 E1.05979
G1 X91.357 Y84.815 E1.08957
G1 X92.098 Y84.278 E1.11936
G1 X92.866 Y83.781 E1.14911
G1 X93.669 Y83.322 E1.17921
G1 X94.500 Y82.903 E1.20947
G1 X95.363 Y82.523 E1.24017
G1 X96.261 Y82.181 E1.27144
G1 X97.189 Y81.879 E1.30317
G1 X98.155 Y81.615 E1.33575
G1 X99.152 Y81.392 E1.36898
G1 X100.183 Y81.208 E1.40308
G1 X101.253 Y81.064 E1.43819
G1 X102.352 Y80.961 E1.47411
G1 X103.493 Y80.899 E1.51128
G1 X104.661 Y80.878 E1.54930
G1 X105.455 Y80.890 E1.57513
G1 X106.989 Y80.977 E1.62510
G1 X108.512 Y81.155 E1.67500
G1 X109.981 Y81.417 E1.72354
G1 X110.711 Y81.582 E1.74790
G1 X112.134 Y81.973 E1.79590
G1 X113.548 Y82.453 E1.84449
G1 X114.240 Y82.724 E1.86869
G1 X115.378 Y83.225 E1.90911
G1 X115.378 Y87.567 E2.05039
G1 X114.134 Y86.957 E2.09547
G1 X113.386 Y86.629 E2.12204
G1 X112.616 Y86.327 E2.14894
G1 X111.839 Y86.058 E2.17570
G1 X111.124 Y85.842 E2.20000
G1 X110.335 Y85.637 E2.22652
G1 X109.541 Y85.465 E2.25295
G1 X108.806 Y85.336 E2.27723
G1 X107.924 Y85.216 E2.30619
G1 X107.170 Y85.144 E2.33084
G1 X106.336 Y85.096 E2.35800
G1 X105.510 Y85.081 E2.38489
G1 X104.778 Y85.096 E2.40872
G1 X104.060 Y85.140 E2.43211
G1 X103.306 Y85.219 E2.45677
G1 X102.624 Y85.324 E2.47924
G1 X101.953 Y85.461 E2.50152
G1 X101.245 Y85.642 E2.52528
G1 X100.612 Y85.841 E2.54688
G1 X99.991 Y86.073 E2.56844
G1 X99.337 Y86.359 E2.59168
G1 X98.758 Y86.654 E2.61282
G1 X98.193 Y86.982 E2.63405
G1 X97.596 Y87.377 E2.65735
G1 X97.056 Y87.783 E2.67935
G1 X96.530 Y88.229 E2.70178
G1 X96.081 Y88.655 E2.72190
G1 X95.601 Y89.160 E2.74459
G1 X95.152 Y89.690 E2.76720
G1 X94.733 Y90.244 E2.78976
G1 X94.342 Y90.825 E2.81258
G1 X94.016 Y91.367 E2.83314
G1 X93.683 Y91.992 E2.85618
G1 X93.382 Y92.634 E2.87924
G1 X93.113 Y93.295 E2.90248
G1 X92.872 Y93.982 E2.92614
G1 X92.680 Y94.621 E2.94785
G1 X92.497 Y95.344 E2.97213
G1 X92.344 Y96.082 E2.99664
G1 X92.221 Y96.837 E3.02154
G1 X92.126 Y97.615 E3.04703
G1 X92.063 Y98.345 E3.07087
G1 X92.021 Y99.161 E3.09745
G1 X92.008 Y99.981 E3.12416
G1 X92.021 Y100.788 E3.15042
G1 X92.063 Y101.628 E3.17778
G1 X92.129 Y102.399 E3.20296
G1 X92.215 Y103.099 E3.22590
G1 X92.340 Y103.879 E3.25161
G1 X92.498 Y104.649 E3.27718
G1 X92.673 Y105.344 E3.30048
G1 X92.875 Y106.018 E3.32337
G1 X93.126 Y106.732 E3.34801
G1 X93.387 Y107.372 E3.37050
G1 X93.700 Y108.038 E3.39442
G1 X93.989 Y108.583 E3.41450
G1 X94.339 Y109.169 E3.43673
G1 X94.730 Y109.751 E3.45951
G1 X95.150 Y110.307 E3.48220
G1 X95.595 Y110.833 E3.50463
G1 X96.073 Y111.338 E3.52724
G1 X96.521 Y111.762 E3.54731
G1 X97.045 Y112.208 E3.56967
G1 X97.592 Y112.621 E3.59198
G1 X98.157 Y112.997 E3.61407
G1 X98.681 Y113.303 E3.63382
G1 X99.359 Y113.651 E3.65860
G1 X99.924 Y113.900 E3.67868
G1 X100.574 Y114.146 E3.70130
G1 X101.241 Y114.357 E3.72408
G1 X101.918 Y114.532 E3.74682
G1 X102.551 Y114.662 E3.76785
G1 X103.337 Y114.784 E3.79371
G1 X104.001 Y114.856 E3.81545
G1 X104.752 Y114.904 E3.83994
G1 X105.506 Y114.919 E3.86446
G1 X106.353 Y114.903 E3.89203
G1 X107.118 Y114.859 E3.91695
G1 X107.948 Y114.781 E3.94408
G1 X108.765 Y114.671 E3.97091
G1 X109.511 Y114.541 E3.99553
G1 X110.318 Y114.367 E4.02241
G1 X111.101 Y114.165 E4.04872
G1 X111.815 Y113.949 E4.07299
G1 X112.660 Y113.656 E4.10209
G1 X113.373 Y113.376 E4.12701
G1 X114.149 Y113.036 E4.15455
G1 X115.378 Y112.440 E4.19900
G1 X115.378 Y116.775 E4.34005
G1 X114.238 Y117.277 E4.38056
G1 X113.536 Y117.551 E4.40506
G1 X112.144 Y118.024 E4.45292
G1 X111.424 Y118.233 E4.47730
G1 X109.985 Y118.582 E4.52546
G1 X108.505 Y118.846 E4.57440
G1 X107.746 Y118.946 E4.59929
G1 X106.232 Y119.077 E4.64873
G1 X104.662 Y119.122 E4.69984
G1 X103.490 Y119.101 E4.73797
G1 X102.355 Y119.039 E4.77496
G1 X101.254 Y118.936 E4.81095
G1 X100.182 Y118.792 E4.84612
G1 X99.152 Y118.608 E4.88016
G1 X98.156 Y118.385 E4.91336
G1 X97.188 Y118.121 E4.94603
G1 X96.260 Y117.819 E4.97777
G1 X95.366 Y117.478 E5.00891
G1 X94.499 Y117.096 E5.03973
G1 X93.668 Y116.677 E5.07002
G1 X92.869 Y116.220 E5.09996
G1 X92.096 Y115.721 E5.12987
G1 X91.358 Y115.185 E5.15955
G1 X90.647 Y114.608 E5.18937
G1 X89.964 Y113.991 E5.21931
G1 X89.320 Y113.342 E5.24906
G1 X88.716 Y112.662 E5.27866
G1 X88.157 Y111.958 E5.30789
G1 X87.639 Y111.225 E5.33709
G1 X87.161 Y110.462 E5.36639
G1 X86.726 Y109.673 E5.39571
G1 X86.330 Y108.850 E5.42542
G1 X85.975 Y107.997 E5.45546
G1 X85.662 Y107.115 E5.48593
G1 X85.388 Y106.194 E5.51717
G1 X85.156 Y105.247 E5.54892
G1 X84.965 Y104.262 E5.58154
G1 X84.816 Y103.243 E5.61504
G1 X84.709 Y102.194 E5.64937
G1 X84.644 Y101.104 E5.68488
G1 X84.623 Y99.987 E5.72125
G1 X84.644 Y98.866 E5.75772
G1 X84.709 Y97.786 E5.79293
G1 X84.816 Y96.736 E5.82726
G1 X84.965 Y95.720 E5.86068
G1 X85.155 Y94.741 E5.89311
G1 X85.388 Y93.793 E5.92487
G1 X85.662 Y92.877 E5.95599
G1 X85.975 Y91.997 E5.98638
G1 X86.329 Y91.145 E6.01638
G1 X86.726 Y90.323 E6.04607
G1 X87.160 Y89.536 E6.07535
G1 X87.638 Y88.774 E6.10460
G1 X88.156 Y88.042 E6.13377
G1 X88.717 Y87.336 E6.16310
G1 X89.252 Y86.734 E6.18931
G1 X88.839 Y86.211 F7800.000
G1 X89.512 Y85.533 F540.000 E6.22039
G1 X90.219 Y84.893 E6.25141
G1 X90.957 Y84.294 E6.28234
G1 X91.727 Y83.735 E6.31329
G1 X92.525 Y83.220 E6.34419
G1 X93.358 Y82.743 E6.37543
G1 X94.219 Y82.309 E6.40681
G1 X95.114 Y81.915 E6.43861
G1 X96.043 Y81.561 E6.47098
G1 X97.000 Y81.250 E6.50371
G1 X97.996 Y80.977 E6.53731
G1 X99.022 Y80.747 E6.57151
G1 X100.082 Y80.559 E6.60653
G1 X101.177 Y80.411 E6.64247
G1 X102.307 Y80.306 E6.67940
G1 X103.464 Y80.243 E6.71712
G1 X104.663 Y80.221 E6.75613
G1 X105.477 Y80.233 E6.78261
G1 X107.045 Y80.323 E6.83372
G1 X108.613 Y80.506 E6.88508
G1 X110.116 Y80.774 E6.93474
G1 X110.868 Y80.944 E6.95981
G1 X112.324 Y81.344 E7.00896
G1 X113.054 Y81.579 E7.03390
G1 X114.469 Y82.108 E7.08305
G1 X115.175 Y82.408 E7.10802
G1 X116.035 Y82.804 E7.13881
G1 X116.035 Y88.701 E7.33067
G1 X115.355 Y88.311 E7.35619
G1 X114.628 Y87.926 E7.38295
G1 X113.863 Y87.556 E7.41061
G1 X113.135 Y87.236 E7.43646
G1 X112.442 Y86.964 E7.46067
G1 X111.641 Y86.685 E7.48829
G1 X110.942 Y86.474 E7.51204
G1 X110.182 Y86.276 E7.53760
G1 X109.415 Y86.110 E7.56313
G1 X108.694 Y85.984 E7.58693
G1 X107.854 Y85.870 E7.61452
G1 X107.115 Y85.799 E7.63866
G1 X106.312 Y85.753 E7.66485
G1 X105.470 Y85.739 E7.69225
G1 X104.800 Y85.752 E7.71405
G1 X104.066 Y85.798 E7.73798
G1 X103.391 Y85.871 E7.76004
G1 X102.734 Y85.972 E7.78168
G1 X102.049 Y86.113 E7.80444
G1 X101.464 Y86.264 E7.82408
G1 X100.778 Y86.479 E7.84748
G1 X100.187 Y86.702 E7.86803
G1 X99.618 Y86.953 E7.88827
G1 X99.066 Y87.234 E7.90841
G1 X98.531 Y87.546 E7.92857
G1 X97.977 Y87.912 E7.95018
G1 X97.467 Y88.296 E7.97094
G1 X96.973 Y88.715 E7.99200
G1 X96.541 Y89.124 E8.01137
G1 X96.089 Y89.601 E8.03273
G1 X95.665 Y90.101 E8.05410
G1 X95.269 Y90.625 E8.07545
G1 X94.899 Y91.174 E8.09698
G1 X94.585 Y91.696 E8.11682
G1 X94.270 Y92.287 E8.13861
G1 X93.984 Y92.897 E8.16051
G1 X93.728 Y93.527 E8.18264
G1 X93.499 Y94.180 E8.20516
G1 X93.312 Y94.801 E8.22625
G1 X93.137 Y95.492 E8.24947
G1 X92.990 Y96.201 E8.27301
G1 X92.871 Y96.929 E8.29701
G1 X92.780 Y97.679 E8.32157
G1 X92.718 Y98.394 E8.34493
G1 X92.678 Y99.182 E8.37062
G1 X92.665 Y99.983 E8.39666
G1 X92.677 Y100.771 E8.42230
G1 X92.718 Y101.579 E8.44863
G1 X92.782 Y102.329 E8.47311
G1 X92.867 Y103.019 E8.49574
G1 X92.987 Y103.766 E8.52036
G1 X93.138 Y104.498 E8.54469
G1 X93.307 Y105.169 E8.56719
G1 X93.501 Y105.819 E8.58927
G1 X93.738 Y106.493 E8.61250
G1 X93.988 Y107.106 E8.63404
G1 X94.282 Y107.733 E8.65657
G1 X94.565 Y108.266 E8.67621
G1 X94.897 Y108.823 E8.69730
G1 X95.266 Y109.371 E8.71881
G1 X95.663 Y109.896 E8.74023
G1 X96.085 Y110.395 E8.76147
G1 X96.535 Y110.871 E8.78279
G1 X97.008 Y111.316 E8.80393
G1 X97.459 Y111.697 E8.82314
G1 X97.973 Y112.085 E8.84408
G1 X98.505 Y112.439 E8.86488
G1 X99.011 Y112.734 E8.88393
G1 X99.635 Y113.055 E8.90675
G1 X100.179 Y113.294 E8.92609
G1 X100.792 Y113.526 E8.94740
G1 X101.422 Y113.725 E8.96893
G1 X102.066 Y113.892 E8.99055
G1 X102.732 Y114.027 E9.01267
G1 X103.415 Y114.132 E9.03515
G1 X104.062 Y114.201 E9.05630
G1 X104.779 Y114.247 E9.07970
G1 X105.506 Y114.262 E9.10336
G1 X106.324 Y114.246 E9.12997
G1 X107.072 Y114.204 E9.15434
G1 X107.873 Y114.129 E9.18052
G1 X108.663 Y114.022 E9.20644
G1 X109.389 Y113.895 E9.23045
G1 X110.167 Y113.728 E9.25632
G1 X110.924 Y113.532 E9.28176
G1 X111.622 Y113.321 E9.30550
G1 X112.426 Y113.043 E9.33317
G1 X113.123 Y112.768 E9.35755
G1 X113.873 Y112.440 E9.38419
G1 X114.621 Y112.078 E9.41121
G1 X115.372 Y111.679 E9.43888
G1 X116.035 Y111.299 E9.46374
G1 X116.035 Y117.196 E9.65561
G1 X114.486 Y117.885 E9.71076
G1 X113.765 Y118.167 E9.73593
G1 X112.337 Y118.652 E9.78501
G1 X111.598 Y118.867 E9.81006
G1 X110.126 Y119.224 E9.85935
G1 X108.600 Y119.496 E9.90976
G1 X107.039 Y119.678 E9.96091
G1 X105.476 Y119.767 E10.01182
G1 X104.664 Y119.779 E10.03825
G1 X103.473 Y119.758 E10.07701
G1 X102.300 Y119.694 E10.11523
G1 X101.177 Y119.589 E10.15192
G1 X100.084 Y119.442 E10.18779
G1 X99.018 Y119.252 E10.22305
G1 X98.005 Y119.025 E10.25680
G1 X96.994 Y118.748 E10.29092
G1 X96.041 Y118.439 E10.32350
G1 X95.116 Y118.086 E10.35571
G1 X94.218 Y117.690 E10.38765
G1 X93.356 Y117.256 E10.41904
G1 X92.527 Y116.782 E10.45013
G1 X91.725 Y116.263 E10.48119
G1 X90.958 Y115.707 E10.51203
G1 X90.219 Y115.107 E10.54300
G1 X89.510 Y114.466 E10.57408
G1 X88.841 Y113.792 E10.60499
G1 X88.212 Y113.085 E10.63577
G1 X87.631 Y112.352 E10.66620
G1 X87.091 Y111.590 E10.69659
G1 X86.594 Y110.795 E10.72709
G1 X86.142 Y109.974 E10.75760
G1 X85.730 Y109.118 E10.78848
G1 X85.362 Y108.234 E10.81966
G1 X85.037 Y107.319 E10.85125
G1 X84.753 Y106.366 E10.88358
G1 X84.514 Y105.388 E10.91633
G1 X84.317 Y104.373 E10.95000
G1 X84.163 Y103.318 E10.98468
G1 X84.054 Y102.245 E11.01978
G1 X83.988 Y101.134 E11.05599
G1 X83.965 Y99.986 E11.09335
G1 X83.987 Y98.845 E11.13046
G1 X84.054 Y97.728 E11.16687
G1 X84.162 Y96.668 E11.20154
G1 X84.318 Y95.603 E11.23655
G1 X84.514 Y94.600 E11.26980
G1 X84.754 Y93.620 E11.30262
G1 X85.037 Y92.672 E11.33481
G1 X85.362 Y91.760 E11.36632
G1 X85.730 Y90.876 E11.39747
G1 X86.142 Y90.022 E11.42833
G1 X86.594 Y89.202 E11.45879
G1 X87.091 Y88.409 E11.48924
G1 X87.630 Y87.647 E11.51960
G1 X88.214 Y86.913 E11.55011
G1 X88.773 Y86.284 E11.57751
G1 X88.353 Y85.768 F7800.000
G1 X89.065 Y85.051 F378.000 E11.61039
G1 X89.792 Y84.393 E11.64228
G1 X90.563 Y83.768 E11.67457
G1 X91.353 Y83.195 E11.70635
G1 X92.187 Y82.656 E11.73865
G1 X93.041 Y82.167 E11.77066
G1 X93.940 Y81.714 E11.80340
G1 X94.871 Y81.304 E11.83653
G1 X95.821 Y80.943 E11.86957
G1 X96.817 Y80.618 E11.90367
G1 X97.830 Y80.342 E11.93784
G1 X98.914 Y80.099 E11.97397
G1 X99.990 Y79.908 E12.00951
G1 X101.099 Y79.759 E12.04594
G1 X102.262 Y79.650 E12.08392
G1 X103.435 Y79.586 E12.12217
G1 X104.664 Y79.564 E12.16215
G1 X105.499 Y79.576 E12.18931
G1 X106.325 Y79.612 E12.21622
G1 X107.872 Y79.746 E12.26675
G1 X109.469 Y79.979 E12.31924
G1 X111.024 Y80.306 E12.37095
G1 X112.515 Y80.715 E12.42124
G1 X113.265 Y80.957 E12.44689
G1 X114.743 Y81.510 E12.49822
G1 X115.470 Y81.820 E12.52393
G1 X116.692 Y82.403 E12.56799
G1 X116.692 Y89.878 E12.81118
G1 X115.750 Y89.295 E12.84722
G1 X115.037 Y88.886 E12.87394
G1 X114.327 Y88.510 E12.90010
G1 X113.591 Y88.154 E12.92668
G1 X112.884 Y87.844 E12.95181
G1 X112.163 Y87.561 E12.97701
G1 X111.443 Y87.311 E13.00181
G1 X110.760 Y87.105 E13.02502
G1 X110.028 Y86.915 E13.04962
G1 X109.289 Y86.755 E13.07423
G1 X108.541 Y86.624 E13.09893
G1 X107.826 Y86.528 E13.12240
G1 X107.018 Y86.451 E13.14880
G1 X106.287 Y86.410 E13.17263
G1 X105.508 Y86.395 E13.19799
G1 X104.795 Y86.410 E13.22118
G1 X104.126 Y86.453 E13.24297
G1 X103.476 Y86.523 E13.26425
G1 X102.844 Y86.620 E13.28506
G1 X102.203 Y86.752 E13.30636
G1 X101.606 Y86.906 E13.32641
G1 X101.027 Y87.088 E13.34615
G1 X100.441 Y87.308 E13.36652
G1 X99.899 Y87.547 E13.38580
G1 X99.375 Y87.814 E13.40494
G1 X98.846 Y88.123 E13.42488
G1 X98.358 Y88.448 E13.44394
G1 X97.908 Y88.786 E13.46225
G1 X97.416 Y89.200 E13.48316
G1 X97.001 Y89.593 E13.50178
G1 X96.578 Y90.041 E13.52182
G1 X96.178 Y90.512 E13.54194
G1 X95.804 Y91.006 E13.56206
G1 X95.457 Y91.522 E13.58231
G1 X95.154 Y92.026 E13.60144
G1 X94.857 Y92.583 E13.62198
G1 X94.587 Y93.160 E13.64272
G1 X94.343 Y93.758 E13.66373
G1 X94.125 Y94.378 E13.68511
G1 X93.944 Y94.981 E13.70559
G1 X93.777 Y95.641 E13.72774
G1 X93.637 Y96.321 E13.75032
