; generated by Slic3r 0.9.10b on 2013-09-08 at 15:53:30

; layer_height = 0.25
; perimeters = 3
; top_solid_layers = 3
; bottom_solid_layers = 3
; fill_density = 1
; perimeter_speed = 30
; infill_speed = 60
; travel_speed = 130
; nozzle_diameter = 0.35
; filament_diameter = 3
; extrusion_multiplier = .926
; perimeters extrusion width = 0.39mm
; infill extrusion width = 0.39mm
; solid infill extrusion width = 0.39mm
; top infill extrusion width = 0.39mm
; first layer extrusion width = 0.70mm

G21 ; set units to millimeters
M107
M190 S60 ; wait for bed temperature to be reached
M104 S220 ; set temperature
G28 ; home all axes
G1 Z5 F5000 ; lift nozzle
M109 S220 ; wait for temperature to be reached
G90 ; use absolute coordinates
G92 E0
M82 ; use absolute distances for extrusion
G1 F1800.000 E-1.00000
G92 E0
G1 Z0.350 F7800.000
G1 X46.842 Y70.045
G1 F1800.000 E1.00000
G1 X47.572 Y69.555 F540.000 E1.02519
G1 X48.352 Y69.175 E1.05005
G1 X50.912 Y68.115 E1.12944
G1 X51.732 Y67.835 E1.15426
G1 X52.582 Y67.665 E1.17910
G1 X55.332 Y67.305 E1.25856
G1 X56.192 Y67.255 E1.28325
G1 X153.802 Y67.255 E4.07993
G1 X154.662 Y67.305 E4.10462
G1 X157.402 Y67.665 E4.18380
G1 X158.252 Y67.835 E4.20863
G1 X159.072 Y68.115 E4.23346
G1 X161.632 Y69.175 E4.31285
G1 X162.412 Y69.555 E4.33771
G1 X163.142 Y70.045 E4.36290
G1 X165.342 Y71.735 E4.44238
G1 X165.982 Y72.305 E4.46694
G1 X166.552 Y72.945 E4.49149
G1 X168.242 Y75.145 E4.57098
G1 X168.722 Y75.855 E4.59553
G1 X169.182 Y76.805 E4.62577
G1 X170.172 Y79.215 E4.70042
G1 X170.452 Y80.035 E4.72525
G1 X170.622 Y80.885 E4.75009
G1 X170.982 Y83.625 E4.82927
G1 X171.032 Y84.485 E4.85395
G1 X171.032 Y125.495 E6.02895
G1 X170.982 Y126.355 E6.05364
G1 X170.622 Y129.105 E6.13310
G1 X170.452 Y129.955 E6.15794
G1 X170.172 Y130.775 E6.18276
G1 X169.112 Y133.335 E6.26215
G1 X168.732 Y134.115 E6.28701
G1 X168.242 Y134.845 E6.31220
G1 X166.552 Y137.045 E6.39168
G1 X165.982 Y137.685 E6.41624
G1 X165.342 Y138.255 E6.44080
G1 X163.312 Y139.815 E6.51415
G1 X162.412 Y140.435 E6.54546
G1 X161.632 Y140.815 E6.57032
G1 X159.072 Y141.875 E6.64971
G1 X158.252 Y142.155 E6.67453
G1 X157.402 Y142.325 E6.69937
G1 X154.662 Y142.685 E6.77855
G1 X153.802 Y142.735 E6.80323
G1 X56.192 Y142.735 E9.59992
G1 X55.332 Y142.685 E9.62460
G1 X52.582 Y142.325 E9.70407
G1 X51.732 Y142.155 E9.72890
G1 X50.912 Y141.875 E9.75373
G1 X48.352 Y140.815 E9.83312
G1 X47.572 Y140.435 E9.85798
G1 X46.842 Y139.945 E9.88317
G1 X44.642 Y138.255 E9.96265
G1 X43.992 Y137.685 E9.98742
G1 X43.412 Y137.025 E10.01260
G1 X41.732 Y134.825 E10.09191
G1 X41.262 Y134.115 E10.11630
G1 X40.882 Y133.335 E10.14116
G1 X39.822 Y130.775 E10.22055
G1 X39.542 Y129.955 E10.24538
G1 X39.372 Y129.105 E10.27021
G1 X39.012 Y126.355 E10.34968
G1 X38.962 Y125.495 E10.37436
G1 X38.962 Y84.485 E11.54936
G1 X39.012 Y83.625 E11.57405
G1 X39.372 Y80.885 E11.65323
G1 X39.542 Y80.035 E11.67806
G1 X39.822 Y79.215 E11.70289
G1 X40.882 Y76.655 E11.78228
G1 X41.262 Y75.875 E11.80714
G1 X41.732 Y75.165 E11.83153
G1 X43.412 Y72.965 E11.91084
G1 X43.992 Y72.305 E11.93602
G1 X44.642 Y71.735 E11.96079
G1 X46.767 Y70.102 E12.03759
G1 F1800.000 E11.03759
G92 E0
G1 X72.684 Y119.475 F7800.000
G1 F1800.000 E1.00000
G1 X82.166 Y119.475 F540.000 E1.27169
G1 X86.907 Y127.687 E1.54338
G1 X83.602 Y133.412 E1.73279
G1 X71.248 Y133.412 E2.08676
G1 X67.943 Y127.687 E2.27617
G1 X72.637 Y119.556 E2.54518
G1 X73.045 Y120.100 F7800.000
G1 X81.805 Y120.100 F378.000 E2.79619
G1 X86.186 Y127.687 E3.04721
G1 X83.241 Y132.787 E3.21595
G1 X71.609 Y132.787 E3.54924
G1 X68.664 Y127.687 E3.71798
G1 X72.998 Y120.181 E3.96632
G1 X73.523 Y120.501 F7800.000
G1 F1800.000 E2.96632
G92 E0
G1 X87.684 Y128.135 F7800.000
G1 F1800.000 E1.00000
G1 X97.166 Y128.135 F540.000 E1.27169
G1 X100.213 Y133.412 E1.44629
G1 X84.637 Y133.412 E1.89257
G1 X87.637 Y128.216 E2.06449
G1 X88.045 Y128.760 F7800.000
G1 X96.805 Y128.760 F540.000 E2.31550
G1 X99.131 Y132.787 E2.44876
G1 X85.719 Y132.787 E2.83302
G1 X87.998 Y128.841 E2.96359
G1 X88.523 Y129.161 F7800.000
G1 F1800.000 E1.96359
G92 E0
G1 X97.943 Y127.687 F7800.000
G1 F1800.000 E1.00000
G1 X102.684 Y119.475 F540.000 E1.27169
G1 X112.166 Y119.475 E1.54338
G1 X116.907 Y127.687 E1.81507
G1 X113.602 Y133.412 E2.00449
G1 X101.248 Y133.412 E2.35845
G1 X97.990 Y127.768 E2.54518
G1 X98.664 Y127.687 F7800.000
G1 X103.045 Y120.100 F378.000 E2.79620
G1 X111.805 Y120.100 E3.04721
G1 X116.186 Y127.687 E3.29823
G1 X113.241 Y132.787 E3.46697
G1 X101.609 Y132.787 E3.80026
G1 X98.711 Y127.768 E3.96631
G1 X99.251 Y127.473 F7800.000
G1 F1800.000 E2.96631
G92 E0
G1 X114.637 Y133.412 F7800.000
G1 F1800.000 E1.00000
G1 X117.684 Y128.135 F540.000 E1.17460
G1 X127.166 Y128.135 E1.44629
G1 X130.213 Y133.412 E1.62089
G1 X114.731 Y133.412 E2.06449
G1 X115.719 Y132.787 F7800.000
G1 X118.045 Y128.760 F540.000 E2.19775
G1 X126.805 Y128.760 E2.44876
G1 X129.131 Y132.787 E2.58202
G1 X115.813 Y132.787 E2.96359
G1 X116.198 Y132.386 F7800.000
G1 F1800.000 E1.96359
G92 E0
G1 X127.943 Y127.687 F7800.000
G1 F1800.000 E1.00000
G1 X132.684 Y119.475 F540.000 E1.27169
G1 X142.166 Y119.475 E1.54338
G1 X146.907 Y127.687 E1.81507
G1 X143.602 Y133.412 E2.00449
G1 X131.248 Y133.412 E2.35845
G1 X127.990 Y127.768 E2.54518
G1 X128.664 Y127.687 F7800.000
G1 X133.045 Y120.100 F378.000 E2.79620
G1 X141.805 Y120.100 E3.04721
G1 X146.186 Y127.687 E3.29823
G1 X143.241 Y132.787 E3.46697
G1 X131.609 Y132.787 E3.80026
G1 X128.711 Y127.768 E3.96632
G1 X129.251 Y127.473 F7800.000
G1 F1800.000 E2.96632
G92 E0
G1 X132.684 Y118.578 F7800.000
G1 F1800.000 E1.00000
G1 X127.943 Y110.366 F540.000 E1.27169
G1 X132.684 Y102.154 E1.54339
G1 X142.166 Y102.154 E1.81507
G1 X146.907 Y110.366 E2.08677
G1 X142.166 Y118.578 E2.35846
G1 X132.778 Y118.578 E2.62746
G1 X133.045 Y117.953 F7800.000
G1 X128.664 Y110.366 F378.000 E2.87848
G1 X133.045 Y102.779 E3.12950
G1 X141.805 Y102.779 E3.38051
G1 X146.186 Y110.366 E3.63153
G1 X141.805 Y117.953 E3.88255
G1 X133.138 Y117.953 E4.13088
G1 X133.153 Y117.338 F7800.000
G1 F1800.000 E3.13088
G92 E0
G1 X131.907 Y119.026 F7800.000
G1 F1800.000 E1.00000
G1 X127.166 Y127.238 F540.000 E1.27169
G1 X117.684 Y127.238 E1.54338
G1 X112.943 Y119.026 E1.81507
G1 X117.684 Y110.814 E2.08677
G1 X127.166 Y110.814 E2.35845
G1 X131.860 Y118.945 E2.62746
G1 X131.186 Y119.026 F7800.000
G1 X126.805 Y126.613 F378.000 E2.87848
G1 X118.045 Y126.613 E3.12949
G1 X113.664 Y119.026 E3.38051
G1 X118.045 Y111.439 E3.63153
G1 X126.805 Y111.439 E3.88254
G1 X131.139 Y118.945 E4.13088
G1 X130.599 Y119.240 F7800.000
G1 F1800.000 E3.13088
G92 E0
G1 X127.166 Y109.918 F7800.000
G1 F1800.000 E1.00000
G1 X117.684 Y109.918 F540.000 E1.27169
G1 X112.943 Y101.706 E1.54338
G1 X117.684 Y93.494 E1.81507
G1 X127.166 Y93.494 E2.08676
G1 X131.907 Y101.706 E2.35845
G1 X127.213 Y109.837 E2.62746
G1 X126.805 Y109.293 F7800.000
G1 X118.045 Y109.293 F378.000 E2.87847
G1 X113.664 Y101.706 E3.12949
G1 X118.045 Y94.119 E3.38051
G1 X126.805 Y94.119 E3.63152
G1 X131.186 Y101.706 E3.88254
G1 X126.852 Y109.212 E4.13088
G1 X126.327 Y108.892 F7800.000
G1 F1800.000 E3.13088
G92 E0
G1 X116.907 Y110.366 F7800.000
G1 F1800.000 E1.00000
G1 X112.166 Y118.578 F540.000 E1.27169
G1 X102.684 Y118.578 E1.54338
G1 X97.943 Y110.366 E1.81507
G1 X102.684 Y102.154 E2.08677
G1 X112.166 Y102.154 E2.35845
G1 X116.860 Y110.285 E2.62746
G1 X116.186 Y110.366 F7800.000
G1 X111.805 Y117.953 F378.000 E2.87848
G1 X103.045 Y117.953 E3.12949
G1 X98.664 Y110.366 E3.38051
G1 X103.045 Y102.779 E3.63153
G1 X111.805 Y102.779 E3.88254
G1 X116.139 Y110.285 E4.13088
G1 X115.599 Y110.580 F7800.000
G1 F1800.000 E3.13088
G92 E0
G1 X101.907 Y119.026 F7800.000
G1 F1800.000 E1.00000
G1 X97.166 Y127.238 F540.000 E1.27169
G1 X87.684 Y127.238 E1.54338
G1 X82.943 Y119.026 E1.81507
G1 X87.684 Y110.814 E2.08677
G1 X97.166 Y110.814 E2.35845
G1 X101.860 Y118.945 E2.62746
G1 X101.186 Y119.026 F7800.000
G1 X96.805 Y126.613 F378.000 E2.87848
G1 X88.045 Y126.613 E3.12949
G1 X83.664 Y119.026 E3.38051
G1 X88.045 Y111.439 E3.63153
G1 X96.805 Y111.439 E3.88254
G1 X101.139 Y118.945 E4.13088
G1 X100.599 Y119.240 F7800.000
G1 F1800.000 E3.13088
G92 E0
G1 X97.166 Y109.918 F7800.000
G1 F1800.000 E1.00000
G1 X87.684 Y109.918 F540.000 E1.27169
G1 X82.943 Y101.706 E1.54338
G1 X87.684 Y93.494 E1.81507
G1 X97.166 Y93.494 E2.08676
G1 X101.907 Y101.706 E2.35845
G1 X97.213 Y109.837 E2.62746
G1 X96.805 Y109.293 F7800.000
G1 X88.045 Y109.293 F378.000 E2.87847
G1 X83.664 Y101.706 E3.12949
G1 X88.045 Y94.119 E3.38051
G1 X96.805 Y94.119 E3.63152
G1 X101.186 Y101.706 E3.88254
G1 X96.852 Y109.212 E4.13088
G1 X96.327 Y108.892 F7800.000
G1 F1800.000 E3.13088
G92 E0
G1 X86.907 Y110.366 F7800.000
G1 F1800.000 E1.00000
G1 X82.166 Y118.578 F540.000 E1.27169
G1 X72.684 Y118.578 E1.54338
G1 X67.943 Y110.366 E1.81507
G1 X72.684 Y102.154 E2.08677
G1 X82.166 Y102.154 E2.35845
G1 X86.860 Y110.285 E2.62746
G1 X86.186 Y110.366 F7800.000
G1 X81.805 Y117.953 F378.000 E2.87848
G1 X73.045 Y117.953 E3.12949
G1 X68.664 Y110.366 E3.38051
G1 X73.045 Y102.779 E3.63153
G1 X81.805 Y102.779 E3.88254
G1 X86.139 Y110.285 E4.13088
G1 X85.599 Y110.580 F7800.000
G1 F1800.000 E3.13088
G92 E0
G1 X71.907 Y119.026 F7800.000
G1 F1800.000 E1.00000
G1 X67.166 Y127.238 F540.000 E1.27169
G1 X64.802 Y127.238 E1.33943
G1 X64.431 Y128.135 E1.36722
G1 X67.166 Y128.135 E1.44559
G1 X70.213 Y133.412 E1.62020
G1 X59.810 Y133.412 E1.91826
G1 X59.558 Y132.143 E1.95535
G1 X59.063 Y132.347 E1.97067
G1 X56.800 Y132.645 E2.03608
G1 X54.537 Y132.347 E2.10149
G1 X52.427 Y131.474 E2.16690
G1 X50.938 Y130.331 E2.22068
G1 X49.581 Y128.563 E2.28455
G1 X48.611 Y126.219 E2.35722
G1 X48.288 Y123.766 E2.42811
G1 X48.288 Y114.330 E2.69849
G1 X48.353 Y113.836 E2.71274
G1 X49.268 Y111.627 E2.78125
G1 X48.288 Y111.295 E2.81090
G1 X48.288 Y102.154 E3.07281
G1 X52.166 Y102.154 E3.18393
G1 X55.284 Y107.554 E3.36260
G1 X56.246 Y107.428 E3.39039
G1 X52.943 Y101.706 E3.57968
G1 X57.684 Y93.494 E3.85138
G1 X67.166 Y93.494 E4.12306
G1 X71.907 Y101.706 E4.39476
G1 X67.166 Y109.918 E4.66645
G1 X62.986 Y109.918 E4.78623
G1 X63.673 Y110.814 E4.81856
G1 X67.166 Y110.814 E4.91866
G1 X71.860 Y118.945 E5.18767
G1 X66.805 Y109.293 F7800.000
G1 X62.725 Y109.293 F378.000 E5.30457
G1 X61.342 Y108.232 E5.35451
G1 X59.151 Y107.325 E5.42246
G1 X56.723 Y107.005 E5.49262
G1 X53.664 Y101.706 E5.66794
G1 X58.045 Y94.119 E5.91896
G1 X66.805 Y94.119 E6.16997
G1 X71.186 Y101.706 E6.42099
G1 X66.852 Y109.212 E6.66932
G1 X66.327 Y108.892 F7800.000
G1 F1800.000 E5.66932
G92 E0
G1 X54.434 Y107.331 F7800.000
G1 F1800.000 E1.00000
G1 X52.258 Y108.232 F540.000 E1.06748
G1 X50.376 Y109.676 E1.13544
G1 X49.361 Y110.999 E1.18322
G1 X48.913 Y110.847 E1.19678
G1 X48.913 Y102.779 E1.42796
G1 X51.805 Y102.779 E1.51084
G1 X54.387 Y107.250 E1.65876
G1 X53.811 Y107.276 F7800.000
G1 X54.700 Y108.261
G1 X56.800 Y107.985 F378.000 E1.71946
G1 X58.900 Y108.261 E1.78016
G1 X60.858 Y109.072 E1.84086
G1 X62.538 Y110.362 E1.90156
G1 X63.828 Y112.042 E1.96225
G1 X64.639 Y114.000 E2.02295
G1 X64.912 Y116.080 E2.08306
G1 X64.912 Y123.920 E2.30771
G1 X64.639 Y126.000 E2.36782
G1 X63.828 Y127.958 E2.42852
G1 X62.538 Y129.638 E2.48922
G1 X60.858 Y130.928 E2.54991
G1 X58.900 Y131.739 E2.61061
G1 X56.800 Y132.015 E2.67131
G1 X54.700 Y131.739 E2.73201
G1 X52.742 Y130.928 E2.79271
G1 X51.384 Y129.885 E2.84177
G1 X50.127 Y128.248 E2.90092
G1 X49.219 Y126.056 E2.96888
G1 X48.913 Y123.725 E3.03624
G1 X48.913 Y114.370 E3.30427
G1 X48.961 Y114.000 E3.31499
G1 X49.772 Y112.042 E3.37569
G1 X51.062 Y110.362 E3.43638
G1 X52.742 Y109.072 E3.49708
G1 X54.613 Y108.297 E3.55509
G1 X55.122 Y108.722 F7800.000
G1 F1800.000 E2.55509
G92 E0
G1 X64.618 Y111.439 F7800.000
G1 F1800.000 E1.00000
G1 X66.805 Y111.439 F540.000 E1.06266
G1 X71.186 Y119.026 E1.31368
G1 X66.805 Y126.613 E1.56470
G1 X65.528 Y126.613 E1.60131
G1 X65.888 Y123.880 E1.68032
G1 X65.888 Y116.120 E1.90263
G1 X65.575 Y113.749 E1.97117
G1 X64.654 Y111.525 E2.04013
G1 X65.196 Y111.678 F7800.000
G1 F1800.000 E1.04013
G92 E0
G1 X64.424 Y128.760 F7800.000
G1 F1800.000 E1.00000
G1 X66.805 Y128.760 F540.000 E1.06822
G1 X69.131 Y132.787 E1.20148
G1 X60.323 Y132.787 E1.45383
G1 X60.213 Y132.235 E1.46996
G1 X61.342 Y131.768 E1.50498
G1 X63.224 Y130.324 E1.57293
G1 X64.367 Y128.834 E1.62674
G1 X64.885 Y129.182 F7800.000
G1 F1800.000 E0.62674
G92 E0
G1 X52.166 Y101.258 F7800.000
G1 F1800.000 E1.00000
G1 X48.288 Y101.258 F540.000 E1.11113
G1 X48.288 Y86.234 E1.54161
G1 X48.472 Y84.834 E1.58207
G1 X52.166 Y84.834 E1.68791
G1 X56.907 Y93.046 E1.95960
G1 X52.213 Y101.177 E2.22861
G1 X51.805 Y100.633 F7800.000
G1 X48.913 Y100.633 F540.000 E2.31150
G1 X48.913 Y86.275 E2.72290
G1 X49.020 Y85.459 E2.74649
G1 X51.805 Y85.459 E2.82629
G1 X56.186 Y93.046 E3.07731
G1 X51.852 Y100.552 E3.32565
G1 X51.327 Y100.232 F7800.000
G1 F1800.000 E2.32565
G92 E0
G1 X52.166 Y83.937 F7800.000
G1 F1800.000 E1.00000
G1 X48.546 Y83.937 F540.000 E1.10373
G1 X49.581 Y81.437 E1.18127
G1 X51.125 Y79.425 E1.25393
G1 X53.137 Y77.881 E1.32660
G1 X54.489 Y77.321 E1.36852
G1 X55.392 Y78.351 E1.40774
G1 X52.213 Y83.856 E1.58988
G1 X51.805 Y83.312 F7800.000
G1 X49.481 Y83.312 F540.000 E1.65648
G1 X50.127 Y81.752 E1.70486
G1 X51.571 Y79.871 E1.77281
G1 X53.452 Y78.427 E1.84077
G1 X54.314 Y78.070 E1.86750
G1 X54.626 Y78.426 E1.88106
G1 X51.852 Y83.231 E2.04004
G1 X51.327 Y82.911 F7800.000
G1 F1800.000 E1.04004
G92 E0
G1 X52.943 Y84.385 F7800.000
G1 F1800.000 E1.00000
G1 X57.444 Y76.588 F540.000 E1.25796
G1 X67.406 Y76.588 E1.54338
G1 X71.907 Y84.385 E1.80134
G1 X67.166 Y92.597 E2.07304
G1 X57.684 Y92.597 E2.34472
G1 X52.990 Y84.466 E2.61373
G1 X53.664 Y84.385 F7800.000
G1 X57.805 Y77.213 F378.000 E2.85102
G1 X67.045 Y77.213 E3.11576
G1 X71.186 Y84.385 E3.35305
G1 X66.805 Y91.972 E3.60407
G1 X58.045 Y91.972 E3.85508
G1 X53.711 Y84.466 E4.10342
G1 X54.251 Y84.171 F7800.000
G1 F1800.000 E3.10342
G92 E0
G1 X68.441 Y76.588 F7800.000
G1 F1800.000 E1.00000
G1 X86.409 Y76.588 F540.000 E1.51483
G1 X82.166 Y83.937 E1.75798
G1 X72.684 Y83.937 E2.02967
G1 X68.488 Y76.669 E2.27013
G1 X69.523 Y77.213 F7800.000
G1 X85.327 Y77.213 F540.000 E2.72294
G1 X81.805 Y83.312 E2.92475
G1 X73.045 Y83.312 E3.17576
G1 X69.570 Y77.294 E3.37488
G1 X70.110 Y77.426 F7800.000
G1 F1800.000 E2.37488
G92 E0
G1 X72.684 Y84.834 F7800.000
G1 F1800.000 E1.00000
G1 X82.166 Y84.834 F540.000 E1.27169
G1 X86.907 Y93.046 E1.54338
G1 X82.166 Y101.258 E1.81507
G1 X72.684 Y101.258 E2.08676
G1 X67.943 Y93.046 E2.35845
G1 X72.637 Y84.915 E2.62746
G1 X73.045 Y85.459 F7800.000
G1 X81.805 Y85.459 F378.000 E2.87847
G1 X86.186 Y93.046 E3.12949
G1 X81.805 Y100.633 E3.38051
G1 X73.045 Y100.633 E3.63152
G1 X68.664 Y93.046 E3.88254
G1 X72.998 Y85.540 E4.13088
G1 X73.523 Y85.860 F7800.000
G1 F1800.000 E3.13088
G92 E0
G1 X82.943 Y84.385 F7800.000
G1 F1800.000 E1.00000
G1 X87.444 Y76.588 F540.000 E1.25796
G1 X97.406 Y76.588 E1.54338
G1 X101.907 Y84.385 E1.80134
G1 X97.166 Y92.597 E2.07304
G1 X87.684 Y92.597 E2.34472
G1 X82.990 Y84.466 E2.61373
G1 X83.664 Y84.385 F7800.000
G1 X87.805 Y77.213 F378.000 E2.85102
G1 X97.045 Y77.213 E3.11576
G1 X101.186 Y84.385 E3.35305
G1 X96.805 Y91.972 E3.60407
G1 X88.045 Y91.972 E3.85508
G1 X83.711 Y84.466 E4.10342
G1 X84.251 Y84.171 F7800.000
G1 F1800.000 E3.10342
G92 E0
G1 X98.441 Y76.588 F7800.000
G1 F1800.000 E1.00000
G1 X116.409 Y76.588 F540.000 E1.51483
G1 X112.166 Y83.937 E1.75798
G1 X102.684 Y83.937 E2.02967
G1 X98.488 Y76.669 E2.27014
G1 X99.523 Y77.213 F7800.000
G1 X115.327 Y77.213 F540.000 E2.72295
G1 X111.805 Y83.312 E2.92475
G1 X103.045 Y83.312 E3.17576
G1 X99.570 Y77.294 E3.37488
G1 X100.110 Y77.426 F7800.000
G1 F1800.000 E2.37488
G92 E0
G1 X102.684 Y84.834 F7800.000
G1 F1800.000 E1.00000
G1 X112.166 Y84.834 F540.000 E1.27169
G1 X116.907 Y93.046 E1.54338
G1 X112.166 Y101.258 E1.81507
G1 X102.684 Y101.258 E2.08676
G1 X97.943 Y93.046 E2.35845
G1 X102.637 Y84.915 E2.62746
G1 X103.045 Y85.459 F7800.000
G1 X111.805 Y85.459 F378.000 E2.87847
G1 X116.186 Y93.046 E3.12949
G1 X111.805 Y100.633 E3.38051
G1 X103.045 Y100.633 E3.63152
G1 X98.664 Y93.046 E3.88254
G1 X102.998 Y85.540 E4.13088
