; generated by Slic3r 0.9.10b on 2013-08-14 at 00:12:35

; layer_height = 0.25
; perimeters = 5
; top_solid_layers = 3
; bottom_solid_layers = 3
; fill_density = 1
; perimeter_speed = 30
; infill_speed = 70
; travel_speed = 130
; nozzle_diameter = 0.35
; filament_diameter = 3
; extrusion_multiplier = .926
; perimeters extrusion width = 0.39mm
; infill extrusion width = 0.39mm
; solid infill extrusion width = 0.39mm
; top infill extrusion width = 0.39mm
; support material extrusion width = 0.39mm
; first layer extrusion width = 0.70mm

G21 ; set units to millimeters
M107
M190 S60 ; wait for bed temperature to be reached
M104 S220 ; set temperature
G28 ; home all axes
G1 Z5 F5000 ; lift nozzle
M109 S220 ; wait for temperature to be reached
G90 ; use absolute coordinates
G92 E0
M82 ; use absolute distances for extrusion
G1 F1800.000 E-1.00000
G92 E0
G1 Z0.350 F7800.000
G1 X90.550 Y90.639
G1 F1800.000 E1.00000
G1 X91.680 Y89.799 F600.000 E1.04034
G1 X92.970 Y89.219 E1.08087
G1 X97.770 Y87.649 E1.22556
G1 X98.790 Y87.409 E1.25559
G1 X99.830 Y87.329 E1.28547
G1 X100.950 Y87.329 E1.31756
G1 X101.830 Y87.379 E1.34282
G1 X104.220 Y87.699 E1.41191
G1 X105.550 Y88.019 E1.45110
G1 X106.790 Y88.609 E1.49044
G1 X107.880 Y89.439 E1.52970
G1 X109.210 Y90.689 E1.58199
G1 X109.810 Y91.339 E1.60734
G1 X110.330 Y92.069 E1.63302
G1 X111.660 Y94.249 E1.70619
G1 X112.310 Y95.679 E1.75119
G1 X112.610 Y97.219 E1.79614
G1 X112.700 Y98.469 E1.83205
G1 X112.710 Y99.219 E1.85354
G1 X112.640 Y99.959 E1.87484
G1 X111.820 Y105.279 E2.02907
G1 X111.470 Y106.609 E2.06847
G1 X110.850 Y107.849 E2.10819
G1 X109.980 Y108.919 E2.14770
G1 X108.920 Y109.799 E2.18718
G1 X107.690 Y110.439 E2.22690
G1 X106.360 Y110.799 E2.26638
G1 X100.800 Y111.729 E2.42790
G1 X97.600 Y112.099 E2.52019
G1 X96.860 Y112.139 E2.54143
G1 X96.260 Y112.139 E2.55862
G1 X94.840 Y111.989 E2.59953
G1 X93.480 Y111.539 E2.64057
G1 X92.260 Y110.799 E2.68146
G1 X91.220 Y109.819 E2.72240
G1 X87.750 Y105.749 E2.87564
G1 X86.750 Y104.179 E2.92897
G1 X86.230 Y102.389 E2.98238
G1 X86.050 Y101.139 E3.01856
G1 X85.990 Y99.939 E3.05299
G1 X86.150 Y98.749 E3.08739
G1 X86.430 Y97.499 E3.12409
G1 X86.630 Y96.779 E3.14550
G1 X86.920 Y96.079 E3.16721
G1 X87.520 Y94.829 E3.20694
G1 X88.080 Y93.879 E3.23854
G1 X89.620 Y91.699 E3.31501
G1 X90.488 Y90.710 E3.35273
G1 F1800.000 E2.35273
G92 E0
G1 X93.766 Y97.702 F7800.000
G1 F1800.000 E1.00000
G1 X93.493 Y97.702 F600.000 E1.00782
G1 X93.487 Y98.952 E1.04363
G1 X92.891 Y98.952 E1.06069
G1 X93.174 Y100.201 E1.09741
G1 X92.611 Y100.201 E1.11355
G1 X92.792 Y101.451 E1.14974
G1 X93.046 Y101.451 E1.15700
G1 F1800.000 E0.15700
G92 E0
G1 X89.508 Y101.735 F7800.000
G1 X90.510 Y105.053
G1 X92.691 Y107.451
G1 X100.060 Y110.221
G1 X98.202 Y105.201
G1 F1800.000 E1.00000
G1 X99.720 Y105.201 F600.000 E1.04348
G1 F1800.000 E0.04348
G92 E0
G1 X105.738 Y100.201 F7800.000
G1 F1800.000 E1.00000
G1 X105.167 Y100.201 F600.000 E1.01636
G1 X105.514 Y98.952 E1.05352
G1 X106.100 Y98.952 E1.07030
G1 X106.006 Y97.702 E1.10621
G1 X105.670 Y97.702 E1.11584
G1 F1800.000 E0.11584
G92 E0
G1 X100.954 Y93.953 F7800.000
G1 F1800.000 E1.00000
G1 X99.832 Y93.953 F600.000 E1.03214
G1 F1800.000 E0.03214
G92 E0
G1 X99.697 Y89.882 F7800.000
G1 X99.902 Y89.877
G1 X103.602 Y90.187
G1 X103.058 Y94.273
G1 F1800.000 E1.00000
G1 X103.346 Y94.273 F600.000 E1.00825
G1 X103.993 Y95.523 E1.04856
G1 X104.671 Y95.523 E1.06798
G1 X104.829 Y96.773 E1.10408
G1 X105.180 Y96.773 E1.11412
G1 F1800.000 E0.11412
G92 E0
G1 X105.274 Y104.271 F7800.000
G1 F1800.000 E1.00000
G1 X104.023 Y104.271 F600.000 E1.03586
G1 F1800.000 E0.03586
G92 E0
G1 X96.862 Y105.521 F7800.000
G1 F1800.000 E1.00000
G1 X96.263 Y105.521 F600.000 E1.01716
G1 X95.881 Y104.271 E1.05460
G1 X95.210 Y104.271 E1.07381
G1 X95.010 Y103.022 E1.11008
G1 X94.783 Y103.022 E1.11659
G1 F1800.000 E0.11659
G92 E0
G1 X95.032 Y95.523 F7800.000
G1 F1800.000 E1.00000
G1 X96.502 Y95.523 F600.000 E1.04212
M106 S255
M104 S215 ; set temperature
G1 F1800.000 E0.04212
G92 E0
G1 Z0.500 F7800.000
G1 X94.864 Y90.267
G1 X99.697 Y89.882
G1 X99.902 Y89.877
G1 X100.000 Y93.800
G1 F1800.000 E1.00000
G1 X100.000 Y93.641 F600.000 E1.00120
G1 F1800.000 E0.00120
G92 E0
G1 X100.000 Y105.474 F7800.000
G1 F1800.000 E1.00000
G1 X100.000 Y105.635 F600.000 E1.00121
G1 F1800.000 E0.00121
G92 E0
G1 Z0.600 F7800.000
G1 X100.000 Y105.635
G1 F1800.000 E1.00000
G1 X100.000 Y105.474 F600.000 E1.00202
G1 F1800.000 E0.00202
G92 E0
G1 X100.000 Y93.800 F7800.000
G1 F1800.000 E1.00000
G1 X100.000 Y93.641 F600.000 E1.00201
G1 F1800.000 E0.00201
G92 E0
G1 Z0.500 F7800.000
G1 X99.902 Y89.877
G1 X99.697 Y89.882
G1 X94.864 Y90.267
G1 X91.249 Y92.766
G1 X95.000 Y95.782
G1 F1800.000 E1.00000
G1 X95.000 Y95.965 F600.000 E1.00139
G1 F1800.000 E0.00139
G92 E0
G1 X105.000 Y104.039 F7800.000
G1 F1800.000 E1.00000
G1 X105.000 Y104.218 F600.000 E1.00135
G1 F1800.000 E0.00135
G92 E0
G1 Z0.600 F7800.000
G1 X105.000 Y104.218
G1 F1800.000 E1.00000
G1 X105.000 Y104.039 F600.000 E1.00225
G1 F1800.000 E0.00225
G92 E0
G1 X95.000 Y95.965 F7800.000
G1 F1800.000 E1.00000
G1 X95.000 Y95.782 F600.000 E1.00231
G1 F1800.000 E0.00231
G92 E0
G1 Z0.850 F7800.000
G1 X91.249 Y92.766
G1 X89.580 Y96.415
G1 X89.508 Y101.735
G1 X90.510 Y105.053
G1 X92.691 Y107.451
G1 X100.060 Y110.221
G1 X99.409 Y105.404
G1 F1800.000 E1.00000
G1 X100.185 Y105.590 F600.000 E1.01005
G1 X101.136 Y105.611 E1.02204
G1 X99.409 Y105.404 F7800.000
G1 X98.567 Y105.108 F600.000 E1.03329
G1 X98.567 Y105.108 F7800.000
G1 X98.346 Y105.036 F600.000 E1.03622
G1 X98.346 Y105.036 F7800.000
G1 X97.731 Y104.775 F600.000 E1.04464
G1 F1800.000 E0.04464
G92 E0
G1 X95.789 Y105.985 F7800.000
G1 X93.992 Y107.194
G1 X91.707 Y107.155
G1 X90.578 Y99.518
G1 X92.926 Y101.494
G1 F1800.000 E1.00000
G1 X92.858 Y100.782 F600.000 E1.00901
G1 X92.858 Y100.782 F7800.000
G1 X92.858 Y100.639 F600.000 E1.01082
G1 X92.858 Y100.639 F7800.000
G1 X92.866 Y100.396 F600.000 E1.01388
G1 X92.866 Y100.396 F7800.000
G1 X92.996 Y99.590 F600.000 E1.02417
G1 X92.996 Y99.590 F7800.000
G1 X93.051 Y99.385 F600.000 E1.02684
G1 X93.051 Y99.385 F7800.000
G1 X93.687 Y97.623 F600.000 E1.05046
G1 F1800.000 E0.05046
G92 E0
G1 X92.002 Y96.386 F7800.000
G1 X92.156 Y92.194
G1 X98.270 Y91.045
G1 X98.920 Y91.003
G1 X107.157 Y92.631
G1 X103.942 Y96.116
G1 X105.788 Y97.242
G1 F1800.000 E1.00000
G1 X105.875 Y98.400 F600.000 E1.01463
G1 X105.771 Y99.150 E1.02418
G1 X105.771 Y99.150 F7800.000
G1 X105.350 Y100.508 F600.000 E1.04210
G1 X104.999 Y101.275 E1.05273
G1 X104.999 Y101.275 F7800.000
G1 X104.995 Y101.298 F600.000 E1.05303
G1 F1800.000 E0.05303
G92 E0
G1 X108.162 Y99.426 F7800.000
G1 X107.157 Y92.631
G1 X98.920 Y91.003
G1 X98.270 Y91.045
G1 X97.505 Y93.293
G1 F1800.000 E1.00000
G1 X98.211 Y93.281 F600.000 E1.00890
G1 X98.211 Y93.281 F7800.000
G1 X98.476 Y93.294 F600.000 E1.01224
G1 X98.476 Y93.294 F7800.000
G1 X99.374 Y93.495 F600.000 E1.02383
G1 X99.374 Y93.495 F7800.000
G1 X100.863 Y94.046 F600.000 E1.04385
G1 F1800.000 E0.04385
G92 E0
G1 X99.902 Y89.877 F7800.000
G1 X99.697 Y89.882
G1 X94.864 Y90.267
G1 X91.249 Y92.766
G1 X89.580 Y96.415
G1 X89.508 Y101.735
G1 X90.510 Y105.053
G1 X92.691 Y107.451
G1 X95.667 Y104.490
G1 F1800.000 E1.00000
G1 X96.142 Y105.117 F600.000 E1.00992
G1 X96.869 Y105.709 E1.02173
G1 X95.667 Y104.490 F7800.000
G1 X95.245 Y103.738 F600.000 E1.03260
G1 X95.245 Y103.738 F7800.000
G1 X95.135 Y103.540 F600.000 E1.03545
G1 X95.135 Y103.540 F7800.000
G1 X94.874 Y102.931 F600.000 E1.04380
G1 F1800.000 E0.04380
G92 E0
G1 X92.613 Y102.466 F7800.000
G1 X94.812 Y99.284
G1 X104.789 Y101.537
G1 X105.859 Y103.339
G1 F1800.000 E1.00000
G1 X105.127 Y104.051 F600.000 E1.01287
G1 X104.402 Y104.433 E1.02321
G1 X104.402 Y104.433 F7800.000
G1 X103.167 Y104.860 F600.000 E1.03968
G1 X103.167 Y104.860 F7800.000
G1 X103.062 Y104.890 F600.000 E1.04105
G1 X103.062 Y104.890 F7800.000
G1 X103.058 Y104.893 F600.000 E1.04112
G1 X103.058 Y104.893 F7800.000
G1 X102.735 Y104.961 F600.000 E1.04528
G1 X102.735 Y104.961 F7800.000
G1 X102.724 Y104.968 F600.000 E1.04543
G1 F1800.000 E0.04543
G92 E0
G1 X105.946 Y106.393 F7800.000
G1 X110.784 Y100.270
G1 X106.037 Y93.737
G1 X100.667 Y90.286
G1 X100.924 Y94.792
G1 X102.964 Y94.203
G1 F1800.000 E1.00000
G1 X103.510 Y94.580 F600.000 E1.00836
G1 X103.510 Y94.580 F7800.000
G1 X103.802 Y94.833 F600.000 E1.01323
G1 X103.802 Y94.833 F7800.000
G1 X104.331 Y95.503 F600.000 E1.02399
G1 X104.331 Y95.503 F7800.000
G1 X105.076 Y96.925 F600.000 E1.04422
G1 F1800.000 E0.04422
G92 E0
G1 X106.037 Y93.737 F7800.000
G1 X100.667 Y90.286
G1 X94.065 Y93.653
G1 X94.086 Y96.697
G1 F1800.000 E1.00000
G1 X94.163 Y96.633 F600.000 E1.00126
G1 X94.163 Y96.633 F7800.000
G1 X94.289 Y96.474 F600.000 E1.00382
G1 X94.289 Y96.474 F7800.000
G1 X94.357 Y96.418 F600.000 E1.00493
G1 X94.357 Y96.418 F7800.000
G1 X94.430 Y96.345 F600.000 E1.00623
G1 X94.430 Y96.345 F7800.000
G1 X94.873 Y95.949 F600.000 E1.01371
G1 X95.518 Y95.593 E1.02301
G1 X95.518 Y95.593 F7800.000
G1 X97.269 Y95.052 F600.000 E1.04611
G1 F1800.000 E0.04611
G92 E0
G1 Z1.100 F7800.000
G1 X94.864 Y90.267
G1 X91.249 Y92.766
G1 X89.580 Y96.415
G1 X89.508 Y101.735
G1 X90.510 Y105.053
G1 X92.691 Y107.451
G1 X100.060 Y110.221
G1 X98.312 Y104.969
G1 F1800.000 E1.00000
G1 X99.452 Y105.424 F600.000 E1.01547
G1 X100.764 Y105.701 E1.03237
G1 X101.667 Y105.676 E1.04376
G1 X102.524 Y105.501 E1.05478
G1 F1800.000 E0.05478
G92 E0
G1 X100.237 Y103.312 F7800.000
G1 X96.938 Y101.924
G1 X96.788 Y104.121
G1 F1800.000 E1.00000
G1 X97.337 Y104.463 F600.000 E1.00815
G1 X97.337 Y104.463 F7800.000
G1 X97.565 Y104.583 F600.000 E1.01140
G1 X97.565 Y104.583 F7800.000
G1 X98.312 Y104.969 F600.000 E1.02200
G1 F1800.000 E0.02200
G92 E0
G1 X100.237 Y103.312 F7800.000
G1 X95.164 Y100.310
G1 X98.003 Y93.782
G1 X93.279 Y94.839
G1 X94.499 Y96.659
G1 F1800.000 E1.00000
G1 X93.521 Y98.191 F600.000 E1.02290
G1 X93.521 Y98.191 F7800.000
G1 X93.306 Y98.591 F600.000 E1.02862
G1 X93.021 Y99.486 E1.04047
G1 X93.021 Y99.486 F7800.000
G1 X92.998 Y99.584 F600.000 E1.04174
G1 X92.998 Y99.584 F7800.000
G1 X92.979 Y99.687 F600.000 E1.04306
G1 X92.979 Y99.687 F7800.000
G1 X92.915 Y99.959 F600.000 E1.04658
G1 X92.915 Y99.959 F7800.000
G1 X92.894 Y100.117 F600.000 E1.04859
G1 X92.894 Y100.117 F7800.000
G1 X92.873 Y100.269 F600.000 E1.05052
G1 X92.873 Y100.269 F7800.000
G1 X92.857 Y100.489 F600.000 E1.05330
G1 X92.857 Y100.489 F7800.000
G1 X92.821 Y101.506 F600.000 E1.06613
G1 X92.821 Y101.506 F7800.000
G1 X92.954 Y102.200 F600.000 E1.07503
G1 X93.280 Y103.042 E1.08642
G1 F1800.000 E0.08642
G92 E0
G1 X90.833 Y103.362 F7800.000
G1 X96.938 Y101.924
G1 X103.568 Y98.580
G1 X104.344 Y102.061
G1 F1800.000 E1.00000
G1 X104.404 Y102.000 F600.000 E1.00108
G1 X104.404 Y102.000 F7800.000
G1 X104.464 Y101.917 F600.000 E1.00237
G1 X104.464 Y101.917 F7800.000
G1 X104.528 Y101.833 F600.000 E1.00370
G1 X104.528 Y101.833 F7800.000
G1 X104.594 Y101.736 F600.000 E1.00518
G1 X104.594 Y101.736 F7800.000
G1 X104.650 Y101.650 F600.000 E1.00648
G1 X104.650 Y101.650 F7800.000
G1 X104.991 Y101.090 F600.000 E1.01474
G1 X104.991 Y101.090 F7800.000
G1 X105.370 Y100.426 F600.000 E1.02437
G1 X105.680 Y99.522 E1.03642
G1 X105.933 Y97.775 E1.05866
G1 X105.933 Y97.775 F7800.000
G1 X105.816 Y96.829 F600.000 E1.07068
G1 X105.493 Y95.883 E1.08327
G1 F1800.000 E0.08327
G92 E0
G1 X103.317 Y94.362 F7800.000
G1 X103.568 Y98.580
G1 X98.512 Y95.578
G1 X101.819 Y94.676
G1 F1800.000 E1.00000
G1 X100.090 Y93.745 F600.000 E1.02476
G1 X99.108 Y93.414 E1.03781
G1 X98.198 Y93.237 E1.04950
G1 X98.198 Y93.237 F7800.000
G1 X97.374 Y93.184 F600.000 E1.05990
G1 X97.374 Y93.184 F7800.000
G1 X96.254 Y93.375 F600.000 E1.07423
G1 X96.254 Y93.375 F7800.000
G1 X96.214 Y93.391 F600.000 E1.07478
G1 F1800.000 E0.07478
G92 E0
G1 X94.864 Y90.267 F7800.000
G1 X91.249 Y92.766
G1 X89.580 Y96.415
G1 X89.508 Y101.735
G1 X90.510 Y105.053
G1 X92.691 Y107.451
G1 X95.115 Y103.389
G1 F1800.000 E1.00000
G1 X95.545 Y104.326 F600.000 E1.01300
G1 X96.353 Y105.369 E1.02963
G1 X97.040 Y105.963 E1.04107
G1 X98.144 Y106.483 E1.05646
G1 F1800.000 E0.05646
G92 E0
G1 X97.497 Y103.180 F7800.000
G1 X94.757 Y96.673
G1 X92.487 Y101.506
G1 X94.641 Y101.715
G1 F1800.000 E1.00000
G1 X94.796 Y102.339 F600.000 E1.00809
G1 X94.796 Y102.339 F7800.000
G1 X94.854 Y102.546 F600.000 E1.01081
G1 X94.854 Y102.546 F7800.000
G1 X95.115 Y103.389 F600.000 E1.02193
G1 F1800.000 E0.02193
G92 E0
G1 X97.497 Y103.180 F7800.000
G1 X103.339 Y102.443
G1 X101.739 Y105.006
G1 F1800.000 E1.00000
G1 X101.779 Y105.011 F600.000 E1.00052
G1 X101.779 Y105.011 F7800.000
G1 X102.131 Y104.969 F600.000 E1.00498
G1 X102.131 Y104.969 F7800.000
G1 X102.538 Y104.892 F600.000 E1.01021
G1 X102.538 Y104.892 F7800.000
G1 X104.125 Y104.558 F600.000 E1.03064
G1 X105.129 Y104.067 E1.04473
G1 X105.590 Y103.739 E1.05187
G1 X105.590 Y103.739 F7800.000
G1 X106.092 Y103.277 F600.000 E1.06046
G1 X106.775 Y102.130 E1.07728
G1 F1800.000 E0.07728
G92 E0
G1 X105.509 Y100.495 F7800.000
G1 X103.339 Y102.443
G1 X102.494 Y96.798
G1 X105.333 Y98.246
G1 F1800.000 E1.00000
G1 X104.916 Y96.704 F600.000 E1.02013
G1 X104.613 Y95.962 E1.03023
G1 X103.864 Y94.874 E1.04688
G1 X103.398 Y94.398 E1.05528
G1 X103.398 Y94.398 F7800.000
G1 X102.613 Y93.851 F600.000 E1.06733
G1 X102.613 Y93.851 F7800.000
G1 X102.405 Y93.743 F600.000 E1.07029
G1 X102.405 Y93.743 F7800.000
G1 X101.841 Y93.483 F600.000 E1.07812
G1 F1800.000 E0.07812
G92 E0
G1 X102.177 Y91.226 F7800.000
G1 X97.864 Y92.499
G1 X97.879 Y92.827
G1 X98.261 Y94.994
G1 F1800.000 E1.00000
G1 X96.560 Y95.259 F600.000 E1.02171
G1 X96.560 Y95.259 F7800.000
G1 X95.782 Y95.478 F600.000 E1.03189
G1 X94.871 Y95.933 E1.04473
G1 X94.098 Y96.519 E1.05695
G1 X93.680 Y97.048 E1.06545
G1 X93.680 Y97.048 F7800.000
G1 X93.353 Y97.621 F600.000 E1.07376
G1 X93.353 Y97.621 F7800.000
G1 X93.290 Y97.759 F600.000 E1.07568
G1 X93.290 Y97.759 F7800.000
G1 X93.210 Y97.870 F600.000 E1.07740
G1 F1800.000 E0.07740
G92 E0
G1 Z1.350 F7800.000
G1 X89.580 Y96.415
G1 X89.508 Y101.735
G1 X90.510 Y105.053
G1 X92.691 Y107.451
G1 X100.060 Y110.221
G1 X104.236 Y109.079
G1 X102.221 Y105.586
G1 F1800.000 E1.00000
G1 X103.081 Y105.346 F600.000 E1.01125
G1 X103.527 Y105.124 E1.01752
G1 X102.221 Y105.586 F7800.000
G1 X101.857 Y105.689 F600.000 E1.02230
G1 X101.561 Y105.631 E1.02610
G1 X101.561 Y105.631 F7800.000
G1 X101.282 Y105.568 F600.000 E1.02970
G1 X101.282 Y105.568 F7800.000
G1 X101.281 Y105.568 F600.000 E1.02971
G1 X101.281 Y105.568 F7800.000
G1 X101.243 Y105.574 F600.000 E1.03020
G1 X100.511 Y105.569 F7800.000
G1 X100.246 Y105.438 F600.000 E1.03393
G1 X99.454 Y105.417 F7800.000
G1 X99.233 Y105.298 F600.000 E1.03709
G1 X98.509 Y105.202 F7800.000
G1 X98.274 Y104.974 F600.000 E1.04122
G1 X97.685 Y104.803 F7800.000
G1 X97.615 Y104.753 F600.000 E1.04230
G1 X97.615 Y104.753 F7800.000
G1 X97.271 Y104.380 F600.000 E1.04870
G1 X96.880 Y104.185 E1.05420
G1 X96.880 Y104.185 F7800.000
G1 X96.641 Y104.009 F600.000 E1.05795
G1 X96.641 Y104.009 F7800.000
G1 X96.154 Y103.591 F600.000 E1.06603
G1 F1800.000 E0.06603
G92 E0
G1 X94.592 Y103.726 F7800.000
G1 X102.679 Y111.014
G1 X101.475 Y110.862
G1 X95.173 Y109.422
G1 X90.732 Y103.268
G1 X93.704 Y103.924
G1 F1800.000 E1.00000
G1 X93.365 Y103.289 F600.000 E1.00907
G1 X93.365 Y103.289 F7800.000
G1 X92.957 Y102.392 F600.000 E1.02150
G1 X92.957 Y102.392 F7800.000
G1 X92.924 Y102.132 F600.000 E1.02480
G1 X92.924 Y102.132 F7800.000
G1 X92.978 Y101.665 F600.000 E1.03072
G1 X92.906 Y101.485 E1.03317
G1 F1800.000 E0.03317
G92 E0
G1 X94.321 Y99.250 F7800.000
G1 X97.280 Y108.353
G1 X95.173 Y109.422
G1 X101.475 Y110.862
G1 X102.679 Y111.014
G1 X103.801 Y110.959
G1 X109.594 Y105.721
G1 X110.276 Y98.173
G1 X103.967 Y99.197
G1 X105.031 Y101.182
G1 F1800.000 E1.00000
G1 X104.956 Y101.407 F600.000 E1.00298
G1 X104.559 Y101.717 E1.00933
G1 X104.380 Y102.033 E1.01391
G1 X103.786 Y102.593 E1.02420
G1 X103.786 Y102.593 F7800.000
G1 X103.717 Y102.658 F600.000 E1.02539
G1 F1800.000 E0.02539
G92 E0
G1 X103.967 Y99.197 F7800.000
G1 X110.276 Y98.173
G1 X109.594 Y105.721
G1 X103.801 Y110.959
G1 X102.679 Y111.014
