; generated by Slic3r 0.9.10b on 2013-09-03 at 23:49:12

; layer_height = 0.4
; perimeters = 3
; top_solid_layers = 3
; bottom_solid_layers = 3
; fill_density = 0.4
; perimeter_speed = 30
; infill_speed = 60
; travel_speed = 130
; nozzle_diameter = 0.5
; filament_diameter = 3
; extrusion_multiplier = .926
; perimeters extrusion width = 0.53mm
; infill extrusion width = 0.53mm
; solid infill extrusion width = 0.53mm
; top infill extrusion width = 0.53mm
; first layer extrusion width = 0.70mm

G21 ; set units to millimeters
M107
M190 S60 ; wait for bed temperature to be reached
M104 S220 ; set temperature
G28 ; home all axes
G1 Z5 F5000 ; lift nozzle
M109 S220 ; wait for temperature to be reached
G90 ; use absolute coordinates
G92 E0
M82 ; use absolute distances for extrusion
G1 F1800.000 E-1.00000
G92 E0
G1 Z0.350 F7800.000
G1 X81.028 Y80.920
G1 F1800.000 E1.00000
G1 X81.618 Y80.380 F600.000 E1.02410
G1 X82.208 Y79.900 E1.04701
G1 X82.958 Y79.350 E1.07503
G1 X83.578 Y78.980 E1.09678
G1 X84.248 Y78.620 E1.11970
G1 X84.878 Y78.320 E1.14072
G1 X85.588 Y78.030 E1.16383
G1 X86.368 Y77.760 E1.18870
G1 X86.738 Y77.660 E1.20024
G1 X87.918 Y77.410 E1.23658
G1 X88.718 Y77.300 E1.26091
G1 X89.108 Y77.270 E1.27270
G1 X90.178 Y77.250 E1.30494
G1 X91.158 Y77.300 E1.33450
G1 X91.918 Y77.390 E1.35756
G1 X92.668 Y77.520 E1.38049
G1 X93.548 Y77.750 E1.40789
G1 X94.268 Y77.980 E1.43067
G1 X95.108 Y78.310 E1.45786
G1 X95.798 Y78.640 E1.48090
G1 X96.248 Y78.880 E1.49626
G1 X97.168 Y79.450 E1.52887
G1 X97.788 Y79.900 E1.55195
G1 X98.318 Y80.330 E1.57251
G1 X98.998 Y80.970 E1.60065
G1 X99.528 Y81.530 E1.62388
G1 X99.978 Y82.060 E1.64482
G1 X100.558 Y82.860 E1.67459
G1 X100.968 Y83.510 E1.69775
G1 X101.218 Y83.950 E1.71299
G1 X101.398 Y84.290 E1.72458
G1 X101.708 Y84.960 E1.74682
G1 X101.988 Y85.670 E1.76982
G1 X102.248 Y86.450 E1.79459
G1 X102.438 Y87.190 E1.81761
G1 X102.568 Y87.840 E1.83758
G1 X102.688 Y88.800 E1.86672
G1 X102.738 Y89.560 E1.88967
G1 X102.748 Y90.350 E1.91347
G1 X102.688 Y91.160 E1.93794
G1 X102.598 Y91.920 E1.96100
G1 X102.468 Y92.670 E1.98393
G1 X102.238 Y93.550 E2.01134
G1 X102.008 Y94.270 E2.03411
G1 X101.748 Y94.940 E2.05576
G1 X101.348 Y95.790 E2.08406
G1 X100.988 Y96.450 E2.10671
G1 X100.538 Y97.170 E2.13229
G1 X100.088 Y97.790 E2.15537
G1 X99.658 Y98.320 E2.17593
G1 X98.958 Y99.070 E2.20684
G1 X98.368 Y99.610 E2.23094
G1 X97.778 Y100.090 E2.25385
G1 X97.028 Y100.640 E2.28187
G1 X96.408 Y101.010 E2.30363
G1 X95.738 Y101.370 E2.32654
G1 X95.008 Y101.720 E2.35093
G1 X94.238 Y102.020 E2.37583
G1 X93.508 Y102.250 E2.39889
G1 X92.818 Y102.430 E2.42037
G1 X92.068 Y102.580 E2.44341
G1 X91.108 Y102.700 E2.47256
G1 X90.348 Y102.740 E2.49549
G1 X89.828 Y102.740 E2.51116
G1 X88.828 Y102.690 E2.54132
G1 X88.068 Y102.600 E2.56438
G1 X87.278 Y102.460 E2.58855
G1 X86.478 Y102.250 E2.61347
G1 X85.748 Y102.020 E2.63653
G1 X84.878 Y101.680 E2.66467
G1 X84.188 Y101.350 E2.68771
G1 X83.678 Y101.080 E2.70510
G1 X83.338 Y100.880 E2.71698
G1 X82.828 Y100.540 E2.73545
G1 X82.218 Y100.100 E2.75811
G1 X81.528 Y99.530 E2.78507
G1 X80.968 Y99.000 E2.80830
G1 X80.328 Y98.320 E2.83644
G1 X79.898 Y97.790 E2.85700
G1 X79.448 Y97.170 E2.88008
G1 X78.878 Y96.250 E2.91268
G1 X78.638 Y95.800 E2.92805
G1 X78.308 Y95.110 E2.95109
G1 X77.968 Y94.240 E2.97923
G1 X77.738 Y93.510 E3.00229
G1 X77.528 Y92.710 E3.02721
G1 X77.388 Y91.920 E3.05138
G1 X77.298 Y91.160 E3.07444
G1 X77.248 Y90.160 E3.10461
G1 X77.258 Y89.430 E3.12660
G1 X77.298 Y88.830 E3.14472
G1 X77.388 Y88.070 E3.16777
G1 X77.528 Y87.280 E3.19195
G1 X77.738 Y86.480 E3.21687
G1 X77.968 Y85.750 E3.23992
G1 X78.308 Y84.880 E3.26807
G1 X78.638 Y84.190 E3.29111
G1 X78.878 Y83.740 E3.30647
G1 X79.348 Y82.960 E3.33391
G1 X79.568 Y82.640 E3.34561
G1 X79.938 Y82.160 E3.36387
G1 X80.428 Y81.570 E3.38697
G1 X80.960 Y80.991 E3.41066
G1 F1800.000 E2.41066
G92 E0
G1 X87.202 Y87.374 F7800.000
G1 F1800.000 E1.00000
G1 X87.497 Y87.093 F600.000 E1.01229
G1 X87.743 Y86.896 E1.02178
G1 X88.150 Y86.638 E1.03630
G1 X88.365 Y86.529 E1.04354
G1 X88.617 Y86.422 E1.05180
G1 X89.044 Y86.284 E1.06531
G1 X89.517 Y86.194 E1.07984
G1 X89.790 Y86.170 E1.08809
G1 X90.239 Y86.171 E1.10159
G1 X90.717 Y86.232 E1.11612
G1 X90.952 Y86.284 E1.12338
G1 X91.410 Y86.433 E1.13789
G1 X91.817 Y86.624 E1.15143
G1 X92.054 Y86.761 E1.15967
G1 X92.253 Y86.897 E1.16693
G1 X92.624 Y87.204 E1.18144
G1 X92.899 Y87.492 E1.19344
G1 X93.102 Y87.745 E1.20321
G1 X93.237 Y87.945 E1.21048
G1 X93.469 Y88.366 E1.22496
G1 X93.565 Y88.588 E1.23226
G1 X93.714 Y89.046 E1.24676
G1 X93.799 Y89.487 E1.26029
G1 X93.827 Y89.759 E1.26854
G1 X93.828 Y90.209 E1.28208
G1 X93.804 Y90.481 E1.29031
G1 X93.714 Y90.955 E1.30485
G1 X93.576 Y91.381 E1.31834
G1 X93.469 Y91.633 E1.32659
G1 X93.237 Y92.056 E1.34111
G1 X92.973 Y92.420 E1.35467
G1 X92.795 Y92.626 E1.36288
G1 X92.443 Y92.956 E1.37739
G1 X92.253 Y93.104 E1.38466
G1 X91.846 Y93.362 E1.39918
G1 X91.631 Y93.471 E1.40643
G1 X91.184 Y93.648 E1.42094
G1 X90.952 Y93.716 E1.42820
G1 X90.479 Y93.806 E1.44271
G1 X90.206 Y93.830 E1.45098
G1 X89.757 Y93.829 E1.46448
G1 X89.279 Y93.768 E1.47900
G1 X89.044 Y93.715 E1.48628
G1 X88.586 Y93.567 E1.50078
G1 X88.319 Y93.447 E1.50960
G1 X87.943 Y93.239 E1.52255
G1 X87.717 Y93.083 E1.53082
G1 X87.372 Y92.796 E1.54432
G1 X87.202 Y92.626 E1.55158
G1 X86.895 Y92.255 E1.56610
G1 X86.759 Y92.055 E1.57337
G1 X86.528 Y91.634 E1.58784
G1 X86.431 Y91.412 E1.59513
G1 X86.283 Y90.955 E1.60963
G1 X86.192 Y90.481 E1.62414
G1 X86.170 Y90.241 E1.63143
G1 X86.169 Y89.760 E1.64590
G1 X86.192 Y89.519 E1.65320
G1 X86.283 Y89.045 E1.66774
G1 X86.350 Y88.815 E1.67497
G1 X86.498 Y88.435 E1.68725
G1 X86.637 Y88.152 E1.69674
G1 X86.895 Y87.745 E1.71126
G1 X87.137 Y87.448 E1.72280
G1 X87.643 Y87.867 F7800.000
G1 X87.822 Y87.683 F600.000 E1.73053
G1 X88.130 Y87.428 E1.74255
G1 X88.467 Y87.214 E1.75458
G1 X88.645 Y87.124 E1.76059
G1 X88.840 Y87.040 E1.76699
G1 X89.208 Y86.921 E1.77863
G1 X89.403 Y86.878 E1.78466
G1 X89.798 Y86.828 E1.79668
G1 X90.011 Y86.822 E1.80308
G1 X90.396 Y86.846 E1.81472
G1 X90.789 Y86.921 E1.82675
G1 X90.980 Y86.977 E1.83277
G1 X91.340 Y87.119 E1.84441
G1 X91.529 Y87.214 E1.85081
G1 X91.701 Y87.316 E1.85682
G1 X92.024 Y87.551 E1.86885
G1 X92.315 Y87.824 E1.88088
G1 X92.455 Y87.984 E1.88727
G1 X92.682 Y88.297 E1.89892
G1 X92.874 Y88.646 E1.91094
G1 X92.954 Y88.830 E1.91696
G1 X93.077 Y89.209 E1.92899
G1 X93.150 Y89.589 E1.94064
G1 X93.171 Y89.801 E1.94703
G1 X93.171 Y90.188 E1.95870
G1 X93.152 Y90.398 E1.96507
G1 X93.121 Y90.596 E1.97109
G1 X93.021 Y90.982 E1.98312
G1 X92.954 Y91.170 E1.98913
G1 X92.784 Y91.531 E2.00116
G1 X92.570 Y91.868 E2.01318
G1 X92.447 Y92.027 E2.01921
G1 X92.174 Y92.317 E2.03123
G1 X91.866 Y92.572 E2.04326
G1 X91.529 Y92.786 E2.05528
G1 X91.352 Y92.876 E2.06130
G1 X90.980 Y93.023 E2.07332
G1 X90.789 Y93.079 E2.07934
G1 X90.594 Y93.122 E2.08536
G1 X90.198 Y93.172 E2.09738
G1 X89.799 Y93.172 E2.10941
G1 X89.600 Y93.154 E2.11543
G1 X89.207 Y93.079 E2.12746
G1 X89.016 Y93.023 E2.13347
G1 X88.807 Y92.947 E2.14016
G1 X88.467 Y92.786 E2.15151
G1 X88.193 Y92.614 E2.16124
G1 X87.972 Y92.449 E2.16955
G1 X87.681 Y92.176 E2.18158
G1 X87.541 Y92.016 E2.18797
G1 X87.314 Y91.703 E2.19962
G1 X87.122 Y91.354 E2.21163
G1 X87.043 Y91.170 E2.21766
G1 X86.919 Y90.791 E2.22968
G1 X86.844 Y90.399 E2.24171
G1 X86.826 Y90.199 E2.24773
G1 X86.826 Y89.801 E2.25974
G1 X86.844 Y89.601 E2.26578
G1 X86.919 Y89.209 E2.27781
G1 X86.975 Y89.018 E2.28382
G1 X87.101 Y88.696 E2.29423
G1 X87.213 Y88.469 E2.30186
G1 X87.426 Y88.132 E2.31388
G1 X87.578 Y87.941 E2.32123
G1 X87.894 Y87.922 F7800.000
G1 X86.270 Y86.499
G1 X86.497 Y86.272 F600.000 E2.33091
G1 X86.992 Y85.863 E2.35026
G1 X87.258 Y85.682 E2.35994
G1 X87.821 Y85.373 E2.37929
G1 X88.116 Y85.245 E2.38897
G1 X88.726 Y85.047 E2.40831
G1 X89.040 Y84.977 E2.41799
G1 X89.677 Y84.896 E2.43734
G1 X90.319 Y84.896 E2.45669
G1 X90.956 Y84.977 E2.47604
G1 X91.270 Y85.047 E2.48572
G1 X91.881 Y85.245 E2.50507
G1 X92.462 Y85.519 E2.52441
G1 X92.738 Y85.682 E2.53409
G1 X93.258 Y86.060 E2.55344
G1 X93.499 Y86.272 E2.56312
G1 X93.726 Y86.499 E2.57280
G1 X94.135 Y86.994 E2.59215
G1 X94.479 Y87.536 E2.61149
G1 X94.625 Y87.823 E2.62117
G1 X94.862 Y88.420 E2.64052
G1 X94.951 Y88.728 E2.65020
G1 X95.021 Y89.042 E2.65988
G1 X95.102 Y89.679 E2.67923
G1 X95.102 Y90.321 E2.69858
G1 X95.072 Y90.641 E2.70825
G1 X94.951 Y91.272 E2.72760
G1 X94.862 Y91.580 E2.73728
G1 X94.753 Y91.883 E2.74696
G1 X94.479 Y92.464 E2.76631
G1 X94.135 Y93.006 E2.78566
G1 X93.726 Y93.501 E2.80500
G1 X93.499 Y93.728 E2.81468
G1 X93.004 Y94.137 E2.83403
G1 X92.738 Y94.318 E2.84371
G1 X92.176 Y94.627 E2.86306
G1 X91.881 Y94.755 E2.87274
G1 X91.270 Y94.953 E2.89209
G1 X90.639 Y95.074 E2.91143
G1 X90.319 Y95.104 E2.92111
G1 X89.677 Y95.104 E2.94046
G1 X89.040 Y95.023 E2.95981
G1 X88.726 Y94.953 E2.96949
G1 X88.116 Y94.755 E2.98884
G1 X87.821 Y94.627 E2.99852
G1 X87.258 Y94.318 E3.01786
G1 X86.992 Y94.137 E3.02754
G1 X86.497 Y93.728 E3.04689
G1 X86.270 Y93.501 E3.05657
G1 X85.861 Y93.006 E3.07592
G1 X85.680 Y92.740 E3.08560
G1 X85.371 Y92.177 E3.10494
G1 X85.243 Y91.883 E3.11462
G1 X85.045 Y91.272 E3.13397
G1 X84.975 Y90.958 E3.14365
G1 X84.894 Y90.321 E3.16300
G1 X84.894 Y89.679 E3.18235
G1 X84.925 Y89.359 E3.19203
G1 X84.975 Y89.042 E3.20171
G1 X85.135 Y88.420 E3.22105
G1 X85.243 Y88.117 E3.23073
G1 X85.517 Y87.536 E3.25008
G1 X85.861 Y86.994 E3.26943
G1 X86.205 Y86.573 E3.28581
G1 X85.791 Y86.049 F7800.000
G1 X86.047 Y85.793 F600.000 E3.29673
G1 X86.606 Y85.331 E3.31857
G1 X86.906 Y85.127 E3.32949
G1 X87.541 Y84.778 E3.35133
G1 X88.215 Y84.511 E3.37316
G1 X88.563 Y84.410 E3.38408
G1 X88.917 Y84.331 E3.39501
G1 X89.636 Y84.240 E3.41684
G1 X90.361 Y84.240 E3.43868
G1 X91.080 Y84.331 E3.46051
G1 X91.433 Y84.410 E3.47144
G1 X92.123 Y84.634 E3.49327
G1 X92.778 Y84.943 E3.51511
G1 X93.091 Y85.127 E3.52603
G1 X93.677 Y85.553 E3.54787
G1 X93.949 Y85.793 E3.55879
G1 X94.445 Y86.321 E3.58063
G1 X94.667 Y86.608 E3.59155
G1 X95.056 Y87.220 E3.61338
G1 X95.220 Y87.543 E3.62431
G1 X95.364 Y87.875 E3.63523
G1 X95.588 Y88.565 E3.65707
G1 X95.724 Y89.277 E3.67890
G1 X95.758 Y89.638 E3.68982
G1 X95.758 Y90.362 E3.71166
G1 X95.724 Y90.723 E3.72258
G1 X95.667 Y91.081 E3.73351
G1 X95.487 Y91.783 E3.75534
G1 X95.364 Y92.125 E3.76626
G1 X95.056 Y92.780 E3.78810
G1 X94.667 Y93.392 E3.80994
G1 X94.205 Y93.951 E3.83177
G1 X93.949 Y94.207 E3.84269
G1 X93.390 Y94.669 E3.86453
G1 X93.091 Y94.873 E3.87545
G1 X92.455 Y95.222 E3.89729
G1 X92.123 Y95.366 E3.90821
G1 X91.433 Y95.590 E3.93005
G1 X90.721 Y95.726 E3.95188
G1 X90.360 Y95.760 E3.96281
G1 X89.636 Y95.760 E3.98464
G1 X89.275 Y95.726 E3.99556
G1 X88.563 Y95.590 E4.01740
G1 X87.874 Y95.366 E4.03923
G1 X87.541 Y95.222 E4.05016
G1 X86.906 Y94.873 E4.07199
G1 X86.606 Y94.669 E4.08292
G1 X86.047 Y94.207 E4.10475
G1 X85.791 Y93.951 E4.11567
G1 X85.329 Y93.392 E4.13751
G1 X85.125 Y93.092 E4.14843
G1 X84.776 Y92.457 E4.17027
G1 X84.632 Y92.125 E4.18119
G1 X84.408 Y91.435 E4.20303
G1 X84.329 Y91.081 E4.21395
G1 X84.238 Y90.362 E4.23579
G1 X84.238 Y89.638 E4.25762
G1 X84.272 Y89.277 E4.26854
G1 X84.329 Y88.919 E4.27947
G1 X84.509 Y88.217 E4.30130
G1 X84.632 Y87.875 E4.31223
G1 X84.941 Y87.220 E4.33406
G1 X85.329 Y86.608 E4.35590
G1 X85.726 Y86.123 E4.37476
G1 X86.144 Y86.132 F7800.000
G1 X87.097 Y93.626
G1 X86.372 Y92.901 F600.000 E4.39028
G1 X86.679 Y92.741 E4.39551
G1 X85.703 Y91.765 E4.41639
G1 X86.001 Y91.597 E4.42156
G1 X85.481 Y91.077 E4.43267
G1 X85.796 Y90.926 E4.43795
G1 X85.383 Y90.512 E4.44679
G1 X85.712 Y90.375 E4.45218
G1 X85.353 Y90.016 E4.45984
G1 X85.697 Y89.893 E4.46535
G1 X85.375 Y89.572 E4.47223
G1 X85.728 Y89.458 E4.47783
G1 X85.430 Y89.161 E4.48419
G1 X85.799 Y89.063 E4.48996
G1 X85.517 Y88.781 E4.49598
G1 X85.630 Y88.427 E4.50159
G1 X85.897 Y88.694 E4.50731
G1 X86.022 Y88.353 E4.51280
G1 X85.764 Y88.095 E4.51833
G1 X85.917 Y87.782 E4.52360
G1 X86.170 Y88.035 E4.52901
G1 X86.338 Y87.736 E4.53419
G1 X86.091 Y87.489 E4.53948
G1 X86.283 Y87.215 E4.54454
G1 X86.525 Y87.457 E4.54973
G1 X86.732 Y87.198 E4.55475
G1 X86.491 Y86.957 E4.55990
G1 X86.716 Y86.716 E4.56489
G1 X86.957 Y86.956 E4.57004
G1 X87.199 Y86.732 E4.57503
G1 X86.958 Y86.491 E4.58018
G1 X87.216 Y86.282 E4.58520
G1 X87.458 Y86.525 E4.59038
G1 X87.738 Y86.338 E4.59547
G1 X87.490 Y86.091 E4.60076
G1 X87.784 Y85.917 E4.60591
G1 X88.037 Y86.170 E4.61132
G1 X88.355 Y86.023 E4.61663
G1 X88.097 Y85.764 E4.62216
G1 X88.429 Y85.630 E4.62758
G1 X88.697 Y85.898 E4.63330
G1 X89.065 Y85.800 E4.63907
G1 X88.783 Y85.518 E4.64509
G1 X89.163 Y85.431 E4.65098
G1 X89.461 Y85.729 E4.65734
G1 X89.575 Y85.376 E4.66295
G1 X89.897 Y85.698 E4.66983
G1 X90.020 Y85.355 E4.67534
G1 X90.379 Y85.714 E4.68301
G1 X90.516 Y85.385 E4.68840
G1 X90.931 Y85.800 E4.69726
G1 X91.082 Y85.485 E4.70254
G1 X91.604 Y86.007 E4.71370
G1 X91.773 Y85.709 E4.71888
G1 X92.783 Y86.719 E4.74048
G1 X92.923 Y86.393 E4.74585
G1 X93.605 Y87.075 E4.76045
G1 X93.279 Y87.215 E4.76581
G1 X94.289 Y88.225 E4.78742
G1 X93.991 Y88.394 E4.79259
G1 X94.513 Y88.916 E4.80375
G1 X94.198 Y89.067 E4.80903
G1 X94.613 Y89.482 E4.81789
G1 X94.284 Y89.619 E4.82328
G1 X94.643 Y89.978 E4.83095
G1 X94.300 Y90.101 E4.83646
G1 X94.622 Y90.423 E4.84335
G1 X94.269 Y90.537 E4.84895
G1 X94.567 Y90.835 E4.85531
G1 X94.198 Y90.933 E4.86108
G1 X94.480 Y91.215 E4.86710
G1 X94.368 Y91.569 E4.87272
G1 X94.101 Y91.301 E4.87844
G1 X93.975 Y91.643 E4.88393
G1 X94.234 Y91.902 E4.88947
G1 X94.081 Y92.214 E4.89474
G1 X93.828 Y91.961 E4.90015
G1 X93.660 Y92.260 E4.90533
G1 X93.908 Y92.508 E4.91062
G1 X93.716 Y92.782 E4.91568
G1 X93.473 Y92.540 E4.92087
G1 X93.266 Y92.799 E4.92589
G1 X93.507 Y93.040 E4.93104
G1 X93.283 Y93.282 E4.93603
G1 X93.042 Y93.041 E4.94118
G1 X92.800 Y93.266 E4.94617
G1 X93.041 Y93.507 E4.95132
G1 X92.783 Y93.715 E4.95634
G1 X92.541 Y93.473 E4.96152
G1 X92.262 Y93.660 E4.96661
G1 X92.509 Y93.907 E4.97189
G1 X92.216 Y94.081 E4.97704
G1 X91.963 Y93.828 E4.98245
G1 X91.645 Y93.976 E4.98776
G1 X91.903 Y94.235 E4.99329
G1 X91.571 Y94.368 E4.99871
G1 X91.304 Y94.101 E5.00443
G1 X90.935 Y94.199 E5.01019
G1 X91.217 Y94.481 E5.01621
G1 X90.838 Y94.568 E5.02209
G1 X90.540 Y94.270 E5.02845
G1 X90.427 Y94.623 E5.03406
G1 X90.105 Y94.301 E5.04094
G1 X89.982 Y94.645 E5.04645
G1 X89.623 Y94.286 E5.05411
G1 X89.486 Y94.615 E5.05950
G1 X89.073 Y94.202 E5.06834
G1 X88.921 Y94.517 E5.07362
G1 X88.402 Y93.997 E5.08473
G1 X88.233 Y94.295 E5.08990
G1 X87.257 Y93.319 E5.11078
M106 S255
M104 S215 ; set temperature
G1 F1800.000 E4.11078
G92 E0
G1 Z0.750 F7800.000
G1 X87.355 Y93.199
G1 F1800.000 E1.00000
G1 X87.158 Y93.025 F600.000 E1.00715
G1 X86.801 Y92.645 E1.02135
G1 X86.520 Y92.260 E1.03432
G1 X86.362 Y91.999 E1.04263
G1 X86.186 Y91.635 E1.05365
G1 X86.052 Y91.282 E1.06392
G1 X85.969 Y90.986 E1.07230
G1 X85.881 Y90.520 E1.08520
G1 X85.857 Y90.261 E1.09230
G1 X85.857 Y89.739 E1.10650
G1 X85.922 Y89.222 E1.12068
G1 X85.992 Y88.923 E1.12905
G1 X86.140 Y88.472 E1.14197
G1 X86.362 Y88.001 E1.15616
G1 X86.606 Y87.613 E1.16864
G1 X86.801 Y87.355 E1.17744
G1 X87.157 Y86.975 E1.19163
G1 X87.355 Y86.801 E1.19879
G1 X87.775 Y86.496 E1.21292
G1 X87.999 Y86.364 E1.22002
G1 X88.471 Y86.142 E1.23421
G1 X88.837 Y86.018 E1.24475
G1 X89.221 Y85.924 E1.25550
G1 X89.738 Y85.858 E1.26969
G1 X90.047 Y85.852 E1.27810
G1 X90.518 Y85.883 E1.29098
G1 X91.030 Y85.981 E1.30517
G1 X91.281 Y86.053 E1.31227
G1 X91.526 Y86.142 E1.31936
G1 X91.997 Y86.364 E1.33355
G1 X92.437 Y86.643 E1.34774
G1 X92.644 Y86.803 E1.35486
G1 X93.023 Y87.159 E1.36903
G1 X93.196 Y87.355 E1.37614
G1 X93.502 Y87.776 E1.39032
G1 X93.635 Y88.001 E1.39742
G1 X93.833 Y88.419 E1.41002
G1 X93.945 Y88.718 E1.41870
G1 X94.074 Y89.222 E1.43289
G1 X94.115 Y89.480 E1.44000
G1 X94.148 Y90.000 E1.45418
G1 X94.121 Y90.456 E1.46663
G1 X94.074 Y90.778 E1.47547
G1 X93.945 Y91.282 E1.48966
G1 X93.856 Y91.528 E1.49677
G1 X93.635 Y91.999 E1.51095
G1 X93.502 Y92.224 E1.51805
G1 X93.196 Y92.645 E1.53224
G1 X92.872 Y92.992 E1.54516
G1 X92.643 Y93.197 E1.55352
G1 X92.222 Y93.504 E1.56771
G1 X91.997 Y93.637 E1.57482
G1 X91.526 Y93.858 E1.58900
