; generated by Slic3r 0.9.10b on 2013-08-29 at 00:47:21

; layer_height = 0.25
; perimeters = 3
; top_solid_layers = 3
; bottom_solid_layers = 3
; fill_density = 1
; perimeter_speed = 30
; infill_speed = 60
; travel_speed = 130
; nozzle_diameter = 0.5
; filament_diameter = 3
; extrusion_multiplier = .926
; perimeters extrusion width = 0.84mm
; infill extrusion width = 0.84mm
; solid infill extrusion width = 0.84mm
; top infill extrusion width = 0.84mm
; first layer extrusion width = 0.70mm

G21 ; set units to millimeters
M107
M190 S60 ; wait for bed temperature to be reached
M104 S220 ; set temperature
G28 ; home all axes
G1 Z5 F5000 ; lift nozzle
M109 S220 ; wait for temperature to be reached
G90 ; use absolute coordinates
G92 E0
M82 ; use absolute distances for extrusion
G1 F1800.000 E-1.00000
G92 E0
G1 Z0.350 F7800.000
G1 X80.970 Y80.990
G1 F1800.000 E1.00000
G1 X81.530 Y80.460 F600.000 E1.02323
G1 X82.200 Y79.900 E1.04954
G1 X82.820 Y79.450 E1.07262
G1 X83.580 Y78.980 E1.09954
G1 X84.250 Y78.620 E1.12245
G1 X84.980 Y78.270 E1.14684
G1 X85.750 Y77.970 E1.17174
G1 X86.480 Y77.740 E1.19480
G1 X87.280 Y77.530 E1.21972
G1 X88.260 Y77.360 E1.24969
G1 X88.890 Y77.290 E1.26878
G1 X90.000 Y77.240 E1.30226
G1 X91.160 Y77.300 E1.33725
G1 X91.920 Y77.390 E1.36031
G1 X92.710 Y77.530 E1.38448
G1 X93.510 Y77.740 E1.40940
G1 X94.240 Y77.970 E1.43246
G1 X94.940 Y78.240 E1.45506
G1 X95.790 Y78.640 E1.48336
G1 X96.450 Y79.000 E1.50601
G1 X97.030 Y79.350 E1.52642
G1 X97.350 Y79.570 E1.53812
G1 X97.830 Y79.940 E1.55638
G1 X98.420 Y80.430 E1.57949
G1 X99.070 Y81.030 E1.60614
G1 X99.610 Y81.620 E1.63024
G1 X100.090 Y82.210 E1.65315
G1 X100.560 Y82.860 E1.67732
G1 X100.970 Y83.510 E1.70047
G1 X101.360 Y84.230 E1.72514
G1 X101.890 Y85.380 E1.76329
G1 X102.030 Y85.750 E1.77521
G1 X102.250 Y86.450 E1.79731
G1 X102.440 Y87.190 E1.82033
G1 X102.600 Y88.070 E1.84728
G1 X102.730 Y89.270 E1.88364
G1 X102.750 Y89.660 E1.89541
G1 X102.750 Y90.350 E1.91620
G1 X102.690 Y91.160 E1.94067
G1 X102.600 Y91.920 E1.96372
G1 X102.460 Y92.710 E1.98789
G1 X102.250 Y93.510 E2.01281
G1 X102.020 Y94.240 E2.03587
G1 X101.750 Y94.940 E2.05848
G1 X101.350 Y95.790 E2.08678
G1 X100.990 Y96.450 E2.10943
G1 X100.470 Y97.280 E2.13894
G1 X100.020 Y97.890 E2.16177
G1 X99.530 Y98.470 E2.18465
G1 X99.020 Y99.000 E2.20681
G1 X98.460 Y99.530 E2.23004
G1 X97.790 Y100.090 E2.25635
G1 X97.170 Y100.540 E2.27943
G1 X96.410 Y101.010 E2.30635
G1 X95.740 Y101.370 E2.32926
G1 X95.010 Y101.720 E2.35365
G1 X94.240 Y102.020 E2.37855
G1 X93.510 Y102.250 E2.40161
G1 X92.710 Y102.460 E2.42653
G1 X91.920 Y102.600 E2.45070
G1 X91.160 Y102.690 E2.47376
G1 X90.330 Y102.750 E2.49883
G1 X89.550 Y102.740 E2.52233
G1 X88.790 Y102.690 E2.54528
G1 X88.190 Y102.630 E2.56344
G1 X87.810 Y102.570 E2.57503
G1 X87.280 Y102.460 E2.59134
G1 X86.480 Y102.250 E2.61626
G1 X85.750 Y102.020 E2.63932
G1 X84.880 Y101.680 E2.66746
G1 X84.190 Y101.350 E2.69050
G1 X83.740 Y101.110 E2.70587
G1 X82.820 Y100.540 E2.73847
G1 X82.200 Y100.090 E2.76155
G1 X81.670 Y99.660 E2.78212
G1 X80.990 Y99.020 E2.81025
G1 X80.460 Y98.460 E2.83348
G1 X79.900 Y97.790 E2.85979
G1 X79.450 Y97.170 E2.88287
G1 X78.880 Y96.250 E2.91547
G1 X78.640 Y95.800 E2.93084
G1 X78.310 Y95.110 E2.95388
G1 X77.970 Y94.240 E2.98202
G1 X77.740 Y93.510 E3.00508
G1 X77.530 Y92.710 E3.03000
G1 X77.360 Y91.800 E3.05789
G1 X77.290 Y91.110 E3.07879
G1 X77.250 Y90.350 E3.10171
G1 X77.250 Y89.650 E3.12280
G1 X77.290 Y88.880 E3.14603
G1 X77.360 Y88.190 E3.16693
G1 X77.420 Y87.810 E3.17852
G1 X77.610 Y86.940 E3.20535
G1 X77.750 Y86.440 E3.22099
G1 X77.980 Y85.720 E3.24376
G1 X78.270 Y84.980 E3.26771
G1 X78.620 Y84.250 E3.29210
G1 X78.980 Y83.580 E3.31501
G1 X79.450 Y82.820 E3.34193
G1 X79.900 Y82.200 E3.36502
G1 X80.330 Y81.670 E3.38558
G1 X80.901 Y81.061 E3.41074
G1 F1800.000 E2.41074
G92 E0
G1 X87.192 Y87.363 F7800.000
G1 F1800.000 E1.00000
G1 X87.364 Y87.192 F600.000 E1.00730
G1 X87.736 Y86.884 E1.02186
G1 X88.144 Y86.625 E1.03644
G1 X88.542 Y86.436 E1.04970
G1 X88.810 Y86.337 E1.05830
G1 X89.278 Y86.216 E1.07287
G1 X89.517 Y86.179 E1.08016
G1 X90.000 Y86.148 E1.09473
G1 X90.450 Y86.175 E1.10831
G1 X90.722 Y86.216 E1.11660
G1 X90.958 Y86.269 E1.12389
G1 X91.418 Y86.419 E1.13846
G1 X91.856 Y86.625 E1.15304
G1 X92.064 Y86.748 E1.16033
G1 X92.455 Y87.032 E1.17489
G1 X92.637 Y87.192 E1.18219
G1 X92.808 Y87.363 E1.18948
G1 X93.116 Y87.736 E1.20405
G1 X93.375 Y88.144 E1.21863
G1 X93.485 Y88.360 E1.22592
G1 X93.663 Y88.810 E1.24049
G1 X93.731 Y89.042 E1.24779
G1 X93.821 Y89.517 E1.26235
G1 X93.845 Y89.791 E1.27064
G1 X93.844 Y90.242 E1.28422
G1 X93.784 Y90.722 E1.29879
G1 X93.722 Y90.989 E1.30704
G1 X93.581 Y91.418 E1.32065
G1 X93.485 Y91.640 E1.32795
G1 X93.253 Y92.063 E1.34250
G1 X93.116 Y92.264 E1.34981
G1 X92.808 Y92.637 E1.36438
G1 X92.455 Y92.968 E1.37895
G1 X92.264 Y93.116 E1.38624
G1 X91.856 Y93.375 E1.40081
G1 X91.610 Y93.498 E1.40910
G1 X91.190 Y93.663 E1.42269
G1 X90.722 Y93.784 E1.43725
G1 X90.483 Y93.821 E1.44454
G1 X90.000 Y93.852 E1.45911
G1 X89.550 Y93.825 E1.47269
G1 X89.278 Y93.784 E1.48098
G1 X88.841 Y93.673 E1.49456
G1 X88.582 Y93.581 E1.50284
G1 X88.360 Y93.485 E1.51013
G1 X87.936 Y93.252 E1.52470
G1 X87.545 Y92.968 E1.53928
G1 X87.363 Y92.808 E1.54657
G1 X87.032 Y92.455 E1.56114
G1 X86.884 Y92.264 E1.56843
G1 X86.731 Y92.036 E1.57671
G1 X86.515 Y91.640 E1.59029
G1 X86.419 Y91.418 E1.59758
G1 X86.269 Y90.958 E1.61215
G1 X86.179 Y90.483 E1.62671
G1 X86.156 Y90.242 E1.63402
G1 X86.156 Y89.760 E1.64853
G1 X86.179 Y89.517 E1.65588
G1 X86.230 Y89.217 E1.66507
G1 X86.337 Y88.810 E1.67775
G1 X86.418 Y88.582 E1.68502
G1 X86.625 Y88.144 E1.69961
G1 X86.884 Y87.736 E1.71418
G1 X87.127 Y87.437 E1.72579
G1 X87.634 Y87.856 F7800.000
G1 X87.813 Y87.671 F600.000 E1.73355
G1 X88.122 Y87.416 E1.74563
G1 X88.461 Y87.201 E1.75772
G1 X88.640 Y87.110 E1.76377
G1 X89.001 Y86.966 E1.77547
G1 X89.206 Y86.906 E1.78190
G1 X89.600 Y86.831 E1.79398
G1 X89.800 Y86.812 E1.80003
G1 X90.188 Y86.811 E1.81173
G1 X90.400 Y86.831 E1.81816
G1 X90.794 Y86.906 E1.83025
G1 X90.987 Y86.962 E1.83629
G1 X91.176 Y87.030 E1.84234
G1 X91.539 Y87.201 E1.85442
G1 X91.712 Y87.303 E1.86047
G1 X92.036 Y87.539 E1.87255
G1 X92.329 Y87.813 E1.88464
G1 X92.461 Y87.964 E1.89069
G1 X92.642 Y88.207 E1.89983
G1 X92.799 Y88.461 E1.90882
G1 X92.936 Y88.745 E1.91831
G1 X93.038 Y89.013 E1.92695
G1 X93.094 Y89.206 E1.93300
G1 X93.169 Y89.600 E1.94508
G1 X93.189 Y89.812 E1.95151
G1 X93.188 Y90.201 E1.96321
G1 X93.138 Y90.599 E1.97530
G1 X93.091 Y90.806 E1.98170
G1 X92.970 Y91.176 E1.99343
G1 X92.799 Y91.539 E2.00552
G1 X92.690 Y91.722 E2.01193
G1 X92.462 Y92.036 E2.02364
G1 X92.329 Y92.187 E2.02969
G1 X92.036 Y92.461 E2.04178
G1 X91.878 Y92.584 E2.04783
G1 X91.539 Y92.799 E2.05991
G1 X91.176 Y92.970 E2.07200
G1 X90.987 Y93.038 E2.07805
G1 X90.599 Y93.138 E2.09013
G1 X90.400 Y93.169 E2.09617
G1 X90.200 Y93.188 E2.10223
G1 X89.800 Y93.188 E2.11430
G1 X89.600 Y93.169 E2.12036
G1 X89.206 Y93.094 E2.13244
G1 X88.824 Y92.970 E2.14453
G1 X88.610 Y92.875 E2.15157
G1 X88.288 Y92.697 E2.16266
G1 X87.964 Y92.461 E2.17474
G1 X87.813 Y92.329 E2.18079
G1 X87.539 Y92.036 E2.19287
G1 X87.303 Y91.712 E2.20496
G1 X87.110 Y91.360 E2.21705
G1 X87.030 Y91.176 E2.22309
G1 X86.906 Y90.795 E2.23518
G1 X86.831 Y90.401 E2.24726
G1 X86.812 Y90.201 E2.25331
G1 X86.812 Y89.800 E2.26537
G1 X86.831 Y89.600 E2.27144
G1 X86.871 Y89.361 E2.27873
G1 X86.962 Y89.013 E2.28957
G1 X87.030 Y88.824 E2.29562
G1 X87.201 Y88.461 E2.30771
G1 X87.416 Y88.122 E2.31979
G1 X87.569 Y87.930 E2.32720
G1 X87.885 Y87.912 F7800.000
G1 X86.272 Y86.499
G1 X86.499 Y86.272 F600.000 E2.33688
G1 X86.994 Y85.863 E2.35623
G1 X87.260 Y85.682 E2.36591
G1 X87.823 Y85.373 E2.38525
G1 X88.420 Y85.136 E2.40460
G1 X89.042 Y84.977 E2.42395
G1 X89.311 Y84.934 E2.43215
G1 X89.658 Y84.934 E2.44263
G1 X89.697 Y84.896 E2.44426
G1 X90.000 Y84.886 E2.45340
G1 X90.321 Y84.896 E2.46308
G1 X90.958 Y84.977 E2.48243
G1 X91.580 Y85.136 E2.50178
G1 X91.883 Y85.245 E2.51146
G1 X92.177 Y85.373 E2.52114
G1 X92.740 Y85.682 E2.54049
G1 X93.006 Y85.863 E2.55016
G1 X93.501 Y86.272 E2.56951
G1 X93.728 Y86.499 E2.57919
G1 X94.137 Y86.994 E2.59854
G1 X94.318 Y87.260 E2.60822
G1 X94.627 Y87.823 E2.62757
G1 X94.864 Y88.420 E2.64692
G1 X94.953 Y88.728 E2.65659
G1 X95.023 Y89.042 E2.66627
G1 X95.104 Y89.679 E2.68562
G1 X95.104 Y90.321 E2.70497
G1 X95.023 Y90.958 E2.72432
G1 X94.953 Y91.272 E2.73400
G1 X94.755 Y91.883 E2.75334
G1 X94.481 Y92.464 E2.77269
G1 X94.318 Y92.740 E2.78237
G1 X93.940 Y93.260 E2.80172
G1 X93.728 Y93.501 E2.81140
G1 X93.260 Y93.940 E2.83075
G1 X93.006 Y94.137 E2.84043
G1 X92.740 Y94.318 E2.85011
G1 X92.177 Y94.627 E2.86945
G1 X91.883 Y94.755 E2.87913
G1 X91.272 Y94.953 E2.89848
G1 X90.641 Y95.074 E2.91783
G1 X90.321 Y95.104 E2.92751
G1 X89.679 Y95.104 E2.94686
G1 X89.042 Y95.023 E2.96620
G1 X88.728 Y94.953 E2.97588
G1 X88.117 Y94.755 E2.99523
G1 X87.536 Y94.481 E3.01458
G1 X87.260 Y94.318 E3.02426
G1 X86.740 Y93.940 E3.04361
G1 X86.499 Y93.728 E3.05328
G1 X86.272 Y93.501 E3.06296
G1 X85.863 Y93.006 E3.08231
G1 X85.682 Y92.740 E3.09199
G1 X85.373 Y92.177 E3.11134
G1 X85.245 Y91.883 E3.12102
G1 X85.047 Y91.272 E3.14037
G1 X84.926 Y90.641 E3.15971
G1 X84.896 Y90.321 E3.16939
G1 X84.896 Y89.679 E3.18874
G1 X84.926 Y89.359 E3.19842
G1 X84.977 Y89.042 E3.20810
G1 X85.136 Y88.420 E3.22745
G1 X85.373 Y87.823 E3.24680
G1 X85.519 Y87.536 E3.25647
G1 X85.863 Y86.994 E3.27582
G1 X86.207 Y86.573 E3.29220
G1 X85.793 Y86.049 F7800.000
G1 X86.054 Y85.788 F600.000 E3.30333
G1 X86.608 Y85.331 E3.32496
G1 X86.908 Y85.127 E3.33588
G1 X87.543 Y84.778 E3.35772
G1 X88.217 Y84.511 E3.37956
G1 X88.919 Y84.331 E3.40139
G1 X89.638 Y84.240 E3.42323
G1 X90.000 Y84.229 E3.43415
G1 X90.362 Y84.240 E3.44507
G1 X91.081 Y84.331 E3.46691
G1 X91.470 Y84.420 E3.47893
G1 X92.125 Y84.634 E3.49966
G1 X92.457 Y84.778 E3.51059
G1 X93.092 Y85.127 E3.53242
G1 X93.392 Y85.331 E3.54335
G1 X93.951 Y85.793 E3.56518
G1 X94.447 Y86.321 E3.58702
G1 X94.873 Y86.908 E3.60885
G1 X95.057 Y87.220 E3.61978
G1 X95.366 Y87.875 E3.64161
G1 X95.590 Y88.565 E3.66345
G1 X95.669 Y88.919 E3.67437
G1 X95.760 Y89.638 E3.69621
G1 X95.771 Y90.000 E3.70713
G1 X95.760 Y90.362 E3.71805
G1 X95.669 Y91.081 E3.73989
G1 X95.590 Y91.435 E3.75081
G1 X95.366 Y92.125 E3.77265
G1 X95.057 Y92.780 E3.79448
G1 X94.873 Y93.092 E3.80540
G1 X94.447 Y93.679 E3.82724
G1 X94.207 Y93.951 E3.83816
G1 X93.679 Y94.447 E3.86000
G1 X93.392 Y94.669 E3.87092
G1 X93.092 Y94.873 E3.88185
G1 X92.457 Y95.222 E3.90368
G1 X92.125 Y95.366 E3.91460
G1 X91.435 Y95.590 E3.93644
G1 X90.723 Y95.726 E3.95827
G1 X90.362 Y95.760 E3.96920
G1 X89.638 Y95.760 E3.99103
G1 X89.277 Y95.726 E4.00196
G1 X88.565 Y95.590 E4.02379
G1 X87.875 Y95.366 E4.04563
G1 X87.220 Y95.057 E4.06746
G1 X86.908 Y94.873 E4.07839
G1 X86.509 Y94.593 E4.09306
G1 X86.049 Y94.207 E4.11114
G1 X85.793 Y93.951 E4.12206
G1 X85.331 Y93.392 E4.14390
G1 X85.127 Y93.092 E4.15482
G1 X84.778 Y92.457 E4.17666
G1 X84.634 Y92.125 E4.18758
G1 X84.410 Y91.435 E4.20942
G1 X84.331 Y91.081 E4.22034
G1 X84.240 Y90.362 E4.24218
G1 X84.229 Y90.000 E4.25310
G1 X84.274 Y89.277 E4.27493
G1 X84.331 Y88.919 E4.28586
G1 X84.511 Y88.217 E4.30769
G1 X84.778 Y87.543 E4.32953
G1 X84.943 Y87.220 E4.34045
G1 X85.331 Y86.608 E4.36229
G1 X85.728 Y86.123 E4.38115
G1 X86.152 Y86.134 F7800.000
G1 X87.092 Y93.620
G1 X86.380 Y92.908 F600.000 E4.39638
G1 X86.598 Y92.660 E4.40138
G1 X85.706 Y91.768 E4.42045
G1 X85.976 Y91.572 E4.42550
G1 X85.484 Y91.079 E4.43603
G1 X85.778 Y90.907 E4.44118
G1 X85.385 Y90.514 E4.44958
G1 X85.696 Y90.359 E4.45484
G1 X85.355 Y90.018 E4.46213
G1 X85.683 Y89.880 E4.46751
G1 X85.377 Y89.573 E4.47406
G1 X85.716 Y89.446 E4.47953
G1 X85.432 Y89.162 E4.48560
G1 X85.787 Y89.051 E4.49123
G1 X85.519 Y88.783 E4.49696
G1 X85.631 Y88.429 E4.50258
G1 X85.886 Y88.683 E4.50802
G1 X86.012 Y88.343 E4.51351
G1 X85.765 Y88.096 E4.51878
G1 X85.918 Y87.784 E4.52405
G1 X86.160 Y88.025 E4.52921
G1 X86.328 Y87.726 E4.53439
G1 X86.092 Y87.491 E4.53943
G1 X86.283 Y87.216 E4.54449
G1 X86.515 Y87.447 E4.54944
G1 X86.722 Y87.188 E4.55445
G1 X86.492 Y86.958 E4.55937
G1 X86.717 Y86.717 E4.56436
G1 X86.946 Y86.946 E4.56926
G1 X87.188 Y86.722 E4.57425
G1 X86.958 Y86.492 E4.57917
G1 X87.216 Y86.283 E4.58418
G1 X87.447 Y86.515 E4.58913
G1 X87.726 Y86.328 E4.59421
G1 X87.491 Y86.092 E4.59925
G1 X87.784 Y85.918 E4.60440
G1 X88.025 Y86.160 E4.60955
G1 X88.343 Y86.012 E4.61486
G1 X88.096 Y85.765 E4.62014
G1 X88.429 Y85.631 E4.62556
G1 X88.683 Y85.886 E4.63100
G1 X88.783 Y85.519 E4.63675
G1 X89.051 Y85.787 E4.64248
G1 X89.162 Y85.432 E4.64811
G1 X89.446 Y85.716 E4.65418
G1 X89.599 Y85.403 E4.65945
G1 X89.880 Y85.683 E4.66545
G1 X90.018 Y85.355 E4.67083
G1 X90.359 Y85.696 E4.67812
G1 X90.514 Y85.385 E4.68338
G1 X90.907 Y85.778 E4.69177
G1 X91.080 Y85.484 E4.69693
G1 X91.572 Y85.976 E4.70745
G1 X91.768 Y85.706 E4.71250
G1 X92.660 Y86.598 E4.73158
G1 X92.908 Y86.380 E4.73657
G1 X93.620 Y87.092 E4.75179
G1 X93.402 Y87.340 E4.75679
G1 X94.294 Y88.232 E4.77586
G1 X94.024 Y88.428 E4.78091
G1 X94.516 Y88.920 E4.79144
G1 X94.222 Y89.093 E4.79659
G1 X94.615 Y89.486 E4.80499
G1 X94.304 Y89.641 E4.81025
G1 X94.645 Y89.982 E4.81754
G1 X94.317 Y90.120 E4.82292
G1 X94.623 Y90.427 E4.82947
G1 X94.284 Y90.554 E4.83495
G1 X94.568 Y90.838 E4.84101
G1 X94.213 Y90.949 E4.84664
G1 X94.481 Y91.217 E4.85238
G1 X94.369 Y91.571 E4.85799
G1 X94.114 Y91.317 E4.86343
G1 X93.988 Y91.657 E4.86892
G1 X94.235 Y91.904 E4.87420
G1 X94.082 Y92.216 E4.87946
G1 X93.840 Y91.975 E4.88462
G1 X93.672 Y92.274 E4.88980
G1 X93.908 Y92.509 E4.89484
G1 X93.717 Y92.784 E4.89991
G1 X93.485 Y92.553 E4.90485
G1 X93.278 Y92.812 E4.90987
G1 X93.508 Y93.042 E4.91478
G1 X93.283 Y93.283 E4.91977
G1 X93.054 Y93.054 E4.92468
G1 X92.812 Y93.278 E4.92967
G1 X93.042 Y93.508 E4.93458
G1 X92.784 Y93.717 E4.93959
G1 X92.553 Y93.485 E4.94454
G1 X92.274 Y93.672 E4.94962
G1 X92.509 Y93.908 E4.95466
G1 X92.216 Y94.082 E4.95981
G1 X91.975 Y93.840 E4.96497
G1 X91.657 Y93.988 E4.97027
G1 X91.904 Y94.235 E4.97555
G1 X91.571 Y94.369 E4.98097
G1 X91.317 Y94.114 E4.98641
G1 X91.217 Y94.481 E4.99216
G1 X90.949 Y94.213 E4.99790
G1 X90.838 Y94.568 E5.00353
G1 X90.554 Y94.284 E5.00959
G1 X90.427 Y94.623 E5.01506
G1 X90.120 Y94.317 E5.02162
G1 X89.982 Y94.645 E5.02700
G1 X89.641 Y94.304 E5.03429
G1 X89.486 Y94.615 E5.03955
G1 X89.093 Y94.222 E5.04794
G1 X88.921 Y94.516 E5.05310
G1 X88.428 Y94.024 E5.06362
G1 X88.232 Y94.294 E5.06867
G1 X87.340 Y93.402 E5.08774
M106 S255
M104 S215 ; set temperature
G1 F1800.000 E4.08774
G92 E0
G1 Z0.600 F7800.000
G1 X87.456 Y93.143
G1 F1800.000 E1.00000
G1 X87.052 Y92.769 F600.000 E1.01418
G1 X86.630 Y92.290 E1.03058
G1 X86.240 Y91.489 E1.05351
G1 X86.083 Y91.006 E1.06658
G1 X85.987 Y90.507 E1.07964
G1 X85.964 Y90.254 E1.08618
G1 X85.964 Y89.746 E1.09924
G1 X85.987 Y89.493 E1.10578
G1 X86.083 Y88.994 E1.11884
G1 X86.240 Y88.511 E1.13191
G1 X86.340 Y88.278 E1.13844
G1 X86.585 Y87.833 E1.15151
G1 X86.884 Y87.422 E1.16457
G1 X87.052 Y87.231 E1.17111
G1 X87.422 Y86.884 E1.18416
G1 X87.623 Y86.728 E1.19071
G1 X88.052 Y86.456 E1.20377
G1 X88.460 Y86.262 E1.21541
G1 X88.750 Y86.154 E1.22337
G1 X88.994 Y86.083 E1.22991
G1 X89.493 Y85.987 E1.24297
G1 X90.000 Y85.956 E1.25603
G1 X90.254 Y85.964 E1.26257
G1 X90.758 Y86.027 E1.27563
G1 X91.006 Y86.083 E1.28217
G1 X91.489 Y86.240 E1.29523
G1 X91.722 Y86.340 E1.30177
G1 X92.167 Y86.585 E1.31483
G1 X92.560 Y86.868 E1.32727
G1 X92.769 Y87.052 E1.33444
G1 X93.116 Y87.422 E1.34749
G1 X93.415 Y87.833 E1.36056
G1 X93.546 Y88.055 E1.36721
G1 X93.760 Y88.511 E1.38016
G1 X93.846 Y88.750 E1.38670
G1 X93.927 Y89.036 E1.39433
G1 X94.013 Y89.493 E1.40630
G1 X94.044 Y90.001 E1.41940
G1 X94.033 Y90.294 E1.42694
G1 X93.973 Y90.758 E1.43896
G1 X93.846 Y91.250 E1.45203
G1 X93.715 Y91.593 E1.46148
G1 X93.544 Y91.948 E1.47162
G1 X93.415 Y92.167 E1.47816
G1 X93.116 Y92.578 E1.49123
G1 X92.769 Y92.948 E1.50429
G1 X92.576 Y93.118 E1.51088
G1 X92.167 Y93.415 E1.52389
G1 X91.948 Y93.544 E1.53042
G1 X91.683 Y93.677 E1.53806
G1 X91.250 Y93.846 E1.55002
G1 X91.006 Y93.917 E1.55656
