; generated by Slic3r 0.9.10b on 2013-09-05 at 00:06:02

; layer_height = 0.25
; perimeters = 3
; top_solid_layers = 3
; bottom_solid_layers = 3
; fill_density = 1
; perimeter_speed = 30
; infill_speed = 60
; travel_speed = 130
; nozzle_diameter = 0.5
; filament_diameter = 3
; extrusion_multiplier = .926
; perimeters extrusion width = 0.84mm
; infill extrusion width = 0.84mm
; solid infill extrusion width = 0.84mm
; top infill extrusion width = 0.84mm
; first layer extrusion width = 0.70mm

G21 ; set units to millimeters
M107
M190 S60 ; wait for bed temperature to be reached
M104 S220 ; set temperature
G28 ; home all axes
G1 Z5 F5000 ; lift nozzle
M109 S220 ; wait for temperature to be reached
G90 ; use absolute coordinates
G92 E0
M82 ; use absolute distances for extrusion
G1 F1800.000 E-1.00000
G92 E0
G1 Z0.350 F7800.000
G1 X78.010 Y78.280
G1 F1800.000 E1.00000
G1 X78.280 Y78.010 F540.000 E1.01150
G1 X79.010 Y77.350 E1.04115
G1 X79.600 Y76.860 E1.06426
G1 X80.720 Y76.050 E1.10590
G1 X81.370 Y75.640 E1.12906
G1 X82.290 Y75.120 E1.16089
G1 X83.320 Y74.630 E1.19526
G1 X84.550 Y74.160 E1.23493
G1 X85.280 Y73.930 E1.25799
G1 X86.390 Y73.640 E1.29255
G1 X87.140 Y73.490 E1.31559
G1 X88.410 Y73.310 E1.35424
G1 X89.700 Y73.250 E1.39315
G1 X90.540 Y73.260 E1.41845
G1 X91.310 Y73.300 E1.44168
G1 X92.420 Y73.410 E1.47529
G1 X92.800 Y73.470 E1.48688
G1 X93.980 Y73.720 E1.52322
G1 X94.760 Y73.940 E1.54764
G1 X95.480 Y74.170 E1.57041
G1 X96.570 Y74.580 E1.60549
G1 X97.700 Y75.120 E1.64322
G1 X98.360 Y75.480 E1.66587
G1 X99.520 Y76.220 E1.70733
G1 X100.140 Y76.670 E1.73041
G1 X100.990 Y77.360 E1.76339
G1 X101.910 Y78.220 E1.80133
G1 X102.440 Y78.780 E1.82456
G1 X103.320 Y79.850 E1.86630
G1 X103.770 Y80.470 E1.88938
G1 X104.390 Y81.410 E1.92331
G1 X104.580 Y81.740 E1.93478
G1 X105.280 Y83.150 E1.98221
G1 X105.690 Y84.130 E2.01421
G1 X105.820 Y84.490 E2.02574
G1 X106.120 Y85.460 E2.05633
G1 X106.310 Y86.200 E2.07935
G1 X106.570 Y87.600 E2.12225
G1 X106.660 Y88.360 E2.14531
G1 X106.730 Y89.340 E2.17491
G1 X106.740 Y89.730 E2.18666
G1 X106.730 Y90.560 E2.21167
G1 X106.690 Y91.320 E2.23460
G1 X106.580 Y92.420 E2.26790
G1 X106.350 Y93.660 E2.30590
G1 X106.260 Y94.030 E2.31737
G1 X105.830 Y95.440 E2.36178
G1 X105.280 Y96.840 E2.40710
G1 X104.580 Y98.250 E2.45453
G1 X104.390 Y98.580 E2.46600
G1 X103.710 Y99.620 E2.50343
G1 X103.130 Y100.390 E2.53248
G1 X102.640 Y100.980 E2.55558
G1 X101.770 Y101.910 E2.59395
G1 X101.210 Y102.440 E2.61718
G1 X100.360 Y103.160 E2.65074
G1 X99.300 Y103.930 E2.69021
G1 X98.300 Y104.540 E2.72550
G1 X97.630 Y104.900 E2.74842
G1 X96.670 Y105.360 E2.78049
G1 X95.440 Y105.830 E2.82016
G1 X94.710 Y106.060 E2.84322
G1 X93.600 Y106.350 E2.87778
G1 X92.850 Y106.500 E2.90083
G1 X91.580 Y106.680 E2.93947
G1 X91.190 Y106.710 E2.95125
G1 X90.370 Y106.740 E2.97598
G1 X89.610 Y106.740 E2.99887
G1 X88.360 Y106.660 E3.03661
G1 X87.600 Y106.570 E3.05967
G1 X86.390 Y106.360 E3.09667
G1 X85.230 Y106.050 E3.13284
G1 X84.510 Y105.820 E3.15561
G1 X83.150 Y105.280 E3.19970
G1 X81.740 Y104.580 E3.24712
G1 X81.410 Y104.390 E3.25860
G1 X80.470 Y103.770 E3.29252
G1 X79.850 Y103.320 E3.31560
G1 X79.000 Y102.630 E3.34859
G1 X78.080 Y101.770 E3.38653
G1 X77.550 Y101.210 E3.40976
G1 X76.830 Y100.360 E3.44332
G1 X76.060 Y99.300 E3.48279
G1 X75.450 Y98.300 E3.51808
G1 X75.090 Y97.630 E3.54100
G1 X74.630 Y96.670 E3.57307
G1 X74.160 Y95.440 E3.61274
G1 X73.730 Y94.030 E3.65715
G1 X73.640 Y93.660 E3.66862
G1 X73.420 Y92.390 E3.70745
G1 X73.330 Y91.630 E3.73051
G1 X73.250 Y90.380 E3.76825
G1 X73.250 Y89.610 E3.79144
G1 X73.330 Y88.360 E3.82918
G1 X73.420 Y87.600 E3.85224
G1 X73.630 Y86.390 E3.88924
G1 X73.940 Y85.230 E3.92541
G1 X74.170 Y84.510 E3.94818
G1 X74.580 Y83.420 E3.98327
G1 X75.120 Y82.290 E4.02100
G1 X75.480 Y81.630 E4.04365
G1 X76.220 Y80.470 E4.08510
G1 X76.670 Y79.850 E4.10818
G1 X77.360 Y79.000 E4.14117
G1 X77.944 Y78.353 E4.16742
G1 F1800.000 E3.16742
G92 E0
G1 X87.204 Y87.374 F7800.000
G1 F1800.000 E1.00000
G1 X87.500 Y87.093 F540.000 E1.01230
G1 X87.745 Y86.897 E1.02177
G1 X88.107 Y86.665 E1.03473
G1 X88.367 Y86.529 E1.04355
G1 X88.588 Y86.433 E1.05080
G1 X89.046 Y86.284 E1.06532
G1 X89.519 Y86.194 E1.07983
G1 X89.759 Y86.171 E1.08709
G1 X90.241 Y86.171 E1.10161
G1 X90.481 Y86.194 E1.10887
G1 X90.954 Y86.284 E1.12338
G1 X91.412 Y86.433 E1.13789
G1 X91.848 Y86.638 E1.15241
G1 X92.056 Y86.761 E1.15967
G1 X92.255 Y86.897 E1.16693
G1 X92.626 Y87.204 E1.18144
G1 X92.845 Y87.429 E1.19092
G1 X93.103 Y87.745 E1.20322
G1 X93.362 Y88.152 E1.21773
G1 X93.471 Y88.367 E1.22499
G1 X93.567 Y88.588 E1.23225
G1 X93.716 Y89.046 E1.24676
G1 X93.777 Y89.334 E1.25564
G1 X93.829 Y89.759 E1.26854
G1 X93.833 Y90.083 E1.27829
G1 X93.806 Y90.481 E1.29031
G1 X93.716 Y90.954 E1.30482
G1 X93.630 Y91.236 E1.31369
G1 X93.471 Y91.633 E1.32660
G1 X93.239 Y92.055 E1.34111
G1 X93.103 Y92.255 E1.34837
G1 X92.796 Y92.626 E1.36288
G1 X92.500 Y92.907 E1.37519
G1 X92.255 Y93.103 E1.38465
G1 X92.055 Y93.239 E1.39192
G1 X91.633 Y93.471 E1.40643
G1 X91.185 Y93.648 E1.42094
G1 X90.954 Y93.716 E1.42820
G1 X90.481 Y93.806 E1.44272
G1 X90.000 Y93.836 E1.45723
G1 X89.759 Y93.829 E1.46449
G1 X89.281 Y93.768 E1.47900
G1 X88.815 Y93.648 E1.49352
G1 X88.588 Y93.567 E1.50078
G1 X88.367 Y93.471 E1.50804
G1 X87.945 Y93.239 E1.52255
G1 X87.745 Y93.103 E1.52981
G1 X87.374 Y92.796 E1.54433
G1 X87.204 Y92.626 E1.55159
G1 X86.897 Y92.255 E1.56610
G1 X86.665 Y91.893 E1.57906
G1 X86.529 Y91.633 E1.58787
G1 X86.433 Y91.412 E1.59513
G1 X86.284 Y90.954 E1.60965
G1 X86.232 Y90.719 E1.61691
G1 X86.171 Y90.241 E1.63142
G1 X86.171 Y89.759 E1.64594
G1 X86.194 Y89.519 E1.65320
G1 X86.246 Y89.219 E1.66238
G1 X86.352 Y88.815 E1.67497
G1 X86.529 Y88.367 E1.68948
G1 X86.638 Y88.152 E1.69674
G1 X86.897 Y87.745 E1.71126
G1 X87.138 Y87.448 E1.72280
G1 X87.645 Y87.867 F7800.000
G1 X87.824 Y87.683 F540.000 E1.73053
G1 X88.132 Y87.428 E1.74256
G1 X88.442 Y87.230 E1.75365
G1 X88.647 Y87.124 E1.76060
G1 X88.830 Y87.045 E1.76662
G1 X89.209 Y86.921 E1.77864
G1 X89.602 Y86.846 E1.79067
G1 X89.800 Y86.828 E1.79669
G1 X90.200 Y86.828 E1.80871
G1 X90.398 Y86.846 E1.81473
G1 X90.697 Y86.900 E1.82388
G1 X90.982 Y86.977 E1.83277
G1 X91.191 Y87.053 E1.83946
G1 X91.531 Y87.214 E1.85081
G1 X91.805 Y87.386 E1.86054
G1 X92.026 Y87.551 E1.86885
G1 X92.176 Y87.683 E1.87487
G1 X92.449 Y87.974 E1.88689
G1 X92.572 Y88.132 E1.89291
G1 X92.786 Y88.469 E1.90494
G1 X92.876 Y88.647 E1.91095
G1 X93.023 Y89.018 E1.92298
G1 X93.122 Y89.404 E1.93501
G1 X93.162 Y89.687 E1.94360
G1 X93.179 Y90.000 E1.95305
G1 X93.154 Y90.398 E1.96507
G1 X93.102 Y90.688 E1.97394
G1 X93.023 Y90.982 E1.98311
G1 X92.921 Y91.249 E1.99172
G1 X92.786 Y91.531 E2.00116
G1 X92.572 Y91.868 E2.01318
G1 X92.449 Y92.026 E2.01920
G1 X92.176 Y92.317 E2.03122
G1 X91.966 Y92.496 E2.03953
G1 X91.703 Y92.684 E2.04927
G1 X91.353 Y92.876 E2.06129
G1 X90.982 Y93.023 E2.07332
G1 X90.790 Y93.079 E2.07933
G1 X90.596 Y93.122 E2.08535
G1 X90.200 Y93.172 E2.09738
G1 X89.800 Y93.172 E2.10940
G1 X89.602 Y93.154 E2.11542
G1 X89.303 Y93.100 E2.12457
G1 X89.018 Y93.023 E2.13346
G1 X88.830 Y92.955 E2.13948
G1 X88.469 Y92.786 E2.15150
G1 X88.297 Y92.684 E2.15752
G1 X87.974 Y92.449 E2.16955
G1 X87.824 Y92.317 E2.17556
G1 X87.551 Y92.026 E2.18759
G1 X87.316 Y91.703 E2.19961
G1 X87.190 Y91.484 E2.20722
G1 X87.045 Y91.170 E2.21766
G1 X86.921 Y90.791 E2.22968
G1 X86.878 Y90.596 E2.23570
G1 X86.828 Y90.200 E2.24773
G1 X86.828 Y89.800 E2.25975
G1 X86.846 Y89.602 E2.26577
G1 X86.887 Y89.364 E2.27304
G1 X86.977 Y89.018 E2.28381
G1 X87.124 Y88.647 E2.29584
G1 X87.214 Y88.469 E2.30185
G1 X87.428 Y88.132 E2.31388
G1 X87.580 Y87.941 E2.32122
G1 X87.896 Y87.923 F7800.000
G1 X86.272 Y86.499
G1 X86.499 Y86.272 F540.000 E2.33090
G1 X86.994 Y85.863 E2.35025
G1 X87.536 Y85.519 E2.36960
G1 X87.823 Y85.373 E2.37928
G1 X88.420 Y85.136 E2.39863
G1 X89.042 Y84.977 E2.41797
G1 X89.679 Y84.896 E2.43732
G1 X90.000 Y84.886 E2.44700
G1 X90.641 Y84.926 E2.46635
G1 X90.958 Y84.977 E2.47603
G1 X91.272 Y85.047 E2.48571
G1 X91.883 Y85.245 E2.50505
G1 X92.177 Y85.373 E2.51473
G1 X92.740 Y85.682 E2.53408
G1 X93.260 Y86.060 E2.55343
G1 X93.501 Y86.272 E2.56311
G1 X93.940 Y86.740 E2.58246
G1 X94.137 Y86.994 E2.59214
G1 X94.481 Y87.536 E2.61148
G1 X94.755 Y88.117 E2.63083
G1 X94.953 Y88.728 E2.65018
G1 X95.023 Y89.042 E2.65986
G1 X95.104 Y89.679 E2.67921
G1 X95.114 Y90.000 E2.68889
G1 X95.074 Y90.641 E2.70823
G1 X95.023 Y90.958 E2.71791
G1 X94.953 Y91.272 E2.72759
G1 X94.755 Y91.883 E2.74694
G1 X94.481 Y92.464 E2.76629
G1 X94.318 Y92.740 E2.77597
G1 X94.137 Y93.006 E2.78565
G1 X93.728 Y93.501 E2.80499
G1 X93.260 Y93.940 E2.82434
G1 X93.006 Y94.137 E2.83402
G1 X92.740 Y94.318 E2.84370
G1 X92.177 Y94.627 E2.86305
G1 X91.883 Y94.755 E2.87273
G1 X91.272 Y94.953 E2.89208
G1 X90.641 Y95.074 E2.91142
G1 X90.321 Y95.104 E2.92110
G1 X89.679 Y95.104 E2.94045
G1 X89.042 Y95.023 E2.95980
G1 X88.728 Y94.953 E2.96948
G1 X88.117 Y94.755 E2.98883
G1 X87.536 Y94.481 E3.00817
G1 X87.260 Y94.318 E3.01785
G1 X86.740 Y93.940 E3.03720
G1 X86.499 Y93.728 E3.04688
G1 X86.060 Y93.260 E3.06623
G1 X85.863 Y93.006 E3.07591
G1 X85.519 Y92.464 E3.09526
G1 X85.373 Y92.177 E3.10494
G1 X85.245 Y91.883 E3.11461
G1 X85.047 Y91.272 E3.13396
G1 X84.977 Y90.958 E3.14364
G1 X84.896 Y90.321 E3.16299
G1 X84.896 Y89.679 E3.18234
G1 X84.926 Y89.359 E3.19202
G1 X84.977 Y89.042 E3.20170
G1 X85.136 Y88.420 E3.22104
G1 X85.245 Y88.117 E3.23072
G1 X85.519 Y87.536 E3.25007
G1 X85.863 Y86.994 E3.26942
G1 X86.207 Y86.573 E3.28580
G1 X85.793 Y86.049 F7800.000
G1 X86.049 Y85.793 F540.000 E3.29672
G1 X86.608 Y85.331 E3.31856
G1 X87.220 Y84.943 E3.34039
G1 X87.543 Y84.778 E3.35132
G1 X88.217 Y84.511 E3.37315
G1 X88.919 Y84.331 E3.39499
G1 X89.277 Y84.274 E3.40591
G1 X90.000 Y84.229 E3.42775
G1 X90.723 Y84.274 E3.44958
G1 X91.081 Y84.331 E3.46050
G1 X91.435 Y84.410 E3.47143
G1 X92.125 Y84.634 E3.49326
G1 X92.457 Y84.778 E3.50419
G1 X93.092 Y85.127 E3.52602
G1 X93.392 Y85.331 E3.53694
G1 X93.951 Y85.793 E3.55878
G1 X94.447 Y86.321 E3.58062
G1 X94.669 Y86.608 E3.59154
G1 X95.057 Y87.220 E3.61337
G1 X95.366 Y87.875 E3.63521
G1 X95.489 Y88.217 E3.64613
G1 X95.669 Y88.919 E3.66797
G1 X95.726 Y89.277 E3.67889
G1 X95.771 Y90.000 E3.70073
G1 X95.726 Y90.723 E3.72256
G1 X95.669 Y91.081 E3.73348
G1 X95.590 Y91.435 E3.74441
G1 X95.366 Y92.125 E3.76624
G1 X95.057 Y92.780 E3.78808
G1 X94.873 Y93.092 E3.79900
G1 X94.669 Y93.392 E3.80993
G1 X94.207 Y93.951 E3.83176
G1 X93.679 Y94.447 E3.85360
G1 X93.392 Y94.669 E3.86452
G1 X93.092 Y94.873 E3.87544
G1 X92.457 Y95.222 E3.89728
G1 X92.125 Y95.366 E3.90820
G1 X91.435 Y95.590 E3.93004
G1 X90.723 Y95.726 E3.95187
G1 X90.362 Y95.760 E3.96280
G1 X89.638 Y95.760 E3.98463
G1 X88.919 Y95.669 E4.00647
G1 X88.565 Y95.590 E4.01739
G1 X87.875 Y95.366 E4.03922
G1 X87.220 Y95.057 E4.06106
G1 X86.908 Y94.873 E4.07198
G1 X86.321 Y94.447 E4.09382
G1 X86.049 Y94.207 E4.10474
G1 X85.553 Y93.679 E4.12658
G1 X85.331 Y93.392 E4.13750
G1 X84.943 Y92.780 E4.15934
G1 X84.778 Y92.457 E4.17026
G1 X84.634 Y92.125 E4.18118
G1 X84.410 Y91.435 E4.20302
G1 X84.331 Y91.081 E4.21394
G1 X84.240 Y90.362 E4.23578
G1 X84.229 Y90.000 E4.24670
G1 X84.274 Y89.277 E4.26853
G1 X84.331 Y88.919 E4.27946
G1 X84.511 Y88.217 E4.30129
G1 X84.634 Y87.875 E4.31222
G1 X84.943 Y87.220 E4.33405
G1 X85.331 Y86.608 E4.35589
G1 X85.728 Y86.123 E4.37475
G1 X86.146 Y86.132 F7800.000
G1 X87.092 Y93.620
G1 X86.380 Y92.908 F360.000 E4.38998
G1 X86.692 Y92.754 E4.39525
G1 X85.706 Y91.768 E4.41632
G1 X86.004 Y91.600 E4.42149
G1 X85.484 Y91.079 E4.43261
G1 X85.799 Y90.928 E4.43789
G1 X85.385 Y90.514 E4.44674
G1 X85.714 Y90.377 E4.45213
G1 X85.355 Y90.018 E4.45979
G1 X85.699 Y89.895 E4.46530
G1 X85.377 Y89.573 E4.47218
G1 X85.729 Y89.460 E4.47778
G1 X85.432 Y89.162 E4.48414
G1 X85.800 Y89.064 E4.48990
G1 X85.519 Y88.783 E4.49592
G1 X85.631 Y88.429 E4.50154
G1 X85.898 Y88.696 E4.50725
G1 X86.024 Y88.355 E4.51275
G1 X85.765 Y88.096 E4.51828
G1 X85.918 Y87.784 E4.52355
G1 X86.171 Y88.037 E4.52896
G1 X86.339 Y87.738 E4.53413
G1 X86.092 Y87.491 E4.53942
G1 X86.283 Y87.216 E4.54448
G1 X86.526 Y87.459 E4.54967
G1 X86.733 Y87.199 E4.55469
G1 X86.492 Y86.958 E4.55984
G1 X86.717 Y86.717 E4.56483
G1 X86.958 Y86.958 E4.56997
G1 X87.199 Y86.733 E4.57496
G1 X86.958 Y86.492 E4.58012
G1 X87.216 Y86.283 E4.58513
G1 X87.459 Y86.526 E4.59031
G1 X87.738 Y86.339 E4.59540
G1 X87.491 Y86.092 E4.60068
G1 X87.784 Y85.918 E4.60583
G1 X88.037 Y86.171 E4.61124
G1 X88.355 Y86.024 E4.61655
G1 X88.096 Y85.765 E4.62208
G1 X88.429 Y85.631 E4.62750
G1 X88.696 Y85.898 E4.63321
G1 X89.064 Y85.800 E4.63898
G1 X88.783 Y85.519 E4.64500
G1 X89.162 Y85.432 E4.65088
G1 X89.460 Y85.729 E4.65724
G1 X89.573 Y85.377 E4.66284
G1 X89.895 Y85.699 E4.66972
G1 X90.018 Y85.355 E4.67523
G1 X90.377 Y85.714 E4.68290
G1 X90.514 Y85.385 E4.68829
G1 X90.928 Y85.799 E4.69713
G1 X91.080 Y85.484 E4.70241
G1 X91.600 Y86.004 E4.71353
G1 X91.768 Y85.706 E4.71871
G1 X92.754 Y86.692 E4.73979
G1 X92.908 Y86.380 E4.74505
G1 X93.620 Y87.092 E4.76027
G1 X93.308 Y87.246 E4.76553
G1 X94.294 Y88.232 E4.78661
G1 X93.996 Y88.400 E4.79178
G1 X94.516 Y88.920 E4.80291
G1 X94.201 Y89.072 E4.80819
G1 X94.615 Y89.486 E4.81703
G1 X94.286 Y89.623 E4.82242
G1 X94.645 Y89.982 E4.83008
G1 X94.301 Y90.105 E4.83559
G1 X94.623 Y90.427 E4.84247
G1 X94.271 Y90.540 E4.84808
G1 X94.568 Y90.838 E4.85443
G1 X94.200 Y90.936 E4.86020
G1 X94.481 Y91.217 E4.86622
G1 X94.369 Y91.571 E4.87183
G1 X94.102 Y91.304 E4.87755
G1 X93.976 Y91.645 E4.88304
G1 X94.235 Y91.904 E4.88857
G1 X94.082 Y92.216 E4.89384
G1 X93.829 Y91.963 E4.89925
G1 X93.661 Y92.262 E4.90443
G1 X93.908 Y92.509 E4.90972
G1 X93.717 Y92.784 E4.91478
G1 X93.474 Y92.541 E4.91996
G1 X93.267 Y92.801 E4.92498
G1 X93.508 Y93.042 E4.93013
G1 X93.283 Y93.283 E4.93512
G1 X93.042 Y93.042 E4.94027
G1 X92.801 Y93.267 E4.94526
G1 X93.042 Y93.508 E4.95041
G1 X92.784 Y93.717 E4.95542
G1 X92.541 Y93.474 E4.96061
G1 X92.262 Y93.661 E4.96569
G1 X92.509 Y93.908 E4.97098
G1 X92.216 Y94.082 E4.97612
G1 X91.963 Y93.829 E4.98153
G1 X91.645 Y93.976 E4.98684
G1 X91.904 Y94.235 E4.99237
G1 X91.571 Y94.369 E4.99779
G1 X91.304 Y94.102 E5.00351
G1 X90.936 Y94.200 E5.00927
G1 X91.217 Y94.481 E5.01529
G1 X90.838 Y94.568 E5.02118
G1 X90.540 Y94.271 E5.02753
G1 X90.427 Y94.623 E5.03314
G1 X90.105 Y94.301 E5.04002
G1 X89.982 Y94.645 E5.04553
G1 X89.623 Y94.286 E5.05319
G1 X89.486 Y94.615 E5.05858
G1 X89.072 Y94.201 E5.06742
G1 X88.921 Y94.516 E5.07270
G1 X88.400 Y93.996 E5.08383
G1 X88.232 Y94.294 E5.08900
G1 X87.246 Y93.308 E5.11007
M106 S255
M104 S215 ; set temperature
G1 F1800.000 E4.11007
G92 E0
G1 Z0.600 F7800.000
G1 X87.432 Y93.104
G1 F1800.000 E1.00000
G1 X87.063 Y92.758 F600.000 E1.01301
G1 X86.896 Y92.568 E1.01953
G1 X86.741 Y92.368 E1.02603
G1 X86.470 Y91.941 E1.03905
G1 X86.354 Y91.715 E1.04557
G1 X86.168 Y91.245 E1.05857
G1 X86.043 Y90.755 E1.07158
G1 X86.003 Y90.505 E1.07810
G1 X85.979 Y90.253 E1.08461
G1 X85.979 Y89.748 E1.09760
G1 X86.043 Y89.245 E1.11063
G1 X86.099 Y88.995 E1.11723
G1 X86.254 Y88.517 E1.13015
G1 X86.470 Y88.059 E1.14317
G1 X86.600 Y87.839 E1.14973
G1 X86.895 Y87.432 E1.16268
G1 X87.063 Y87.242 E1.16920
G1 X87.432 Y86.896 E1.18222
G1 X87.665 Y86.718 E1.18975
G1 X88.059 Y86.470 E1.20174
G1 X88.285 Y86.355 E1.20825
G1 X88.755 Y86.168 E1.22126
G1 X89.245 Y86.043 E1.23427
G1 X89.535 Y85.999 E1.24181
G1 X90.000 Y85.971 E1.25381
G1 X90.505 Y86.003 E1.26682
G1 X91.002 Y86.098 E1.27983
G1 X91.245 Y86.168 E1.28633
G1 X91.531 Y86.275 E1.29418
G1 X91.941 Y86.470 E1.30586
G1 X92.159 Y86.599 E1.31237
G1 X92.568 Y86.896 E1.32538
G1 X92.937 Y87.242 E1.33839
G1 X93.104 Y87.432 E1.34490
G1 X93.401 Y87.841 E1.35791
G1 X93.530 Y88.059 E1.36443
G1 X93.746 Y88.517 E1.37743
G1 X93.902 Y88.998 E1.39046
G1 X93.991 Y89.456 E1.40245
G1 X94.021 Y89.747 E1.40998
G1 X94.021 Y90.252 E1.42298
G1 X93.997 Y90.505 E1.42951
G1 X93.910 Y90.966 E1.44157
G1 X93.831 Y91.245 E1.44902
G1 X93.677 Y91.643 E1.46000
G1 X93.530 Y91.941 E1.46854
G1 X93.399 Y92.162 E1.47515
G1 X93.104 Y92.568 E1.48807
G1 X92.758 Y92.937 E1.50108
G1 X92.568 Y93.104 E1.50759
