; generated by Slic3r 0.9.10b on 2013-09-10 at 23:24:43

; layer_height = 0.25
; perimeters = 3
; top_solid_layers = 3
; bottom_solid_layers = 3
; fill_density = 1
; perimeter_speed = 30
; infill_speed = 60
; travel_speed = 130
; nozzle_diameter = 0.35
; filament_diameter = 3
; extrusion_multiplier = .926
; perimeters extrusion width = 0.39mm
; infill extrusion width = 0.39mm
; solid infill extrusion width = 0.39mm
; top infill extrusion width = 0.39mm
; first layer extrusion width = 0.70mm

G21 ; set units to millimeters
M107
M190 S60 ; wait for bed temperature to be reached
M104 S220 ; set temperature
G28 ; home all axes
G1 Z5 F5000 ; lift nozzle
M109 S220 ; wait for temperature to be reached
G90 ; use absolute coordinates
G92 E0
M82 ; use absolute distances for extrusion
G1 F1800.000 E-1.00000
G92 E0
G1 Z0.350 F7800.000
G1 X79.930 Y62.220
G1 F1800.000 E1.00000
G1 X80.620 Y61.400 F600.000 E1.03071
G1 X81.140 Y60.870 E1.05198
G1 X81.590 Y60.450 E1.06962
G1 X82.180 Y59.960 E1.09159
G1 X82.660 Y59.600 E1.10878
G1 X83.590 Y59.000 E1.14049
G1 X84.650 Y58.450 E1.17471
G1 X85.000 Y58.290 E1.18573
G1 X85.760 Y58.000 E1.20904
G1 X86.490 Y57.770 E1.23097
G1 X87.180 Y57.590 E1.25140
G1 X87.930 Y57.440 E1.27331
G1 X88.720 Y57.330 E1.29617
G1 X89.810 Y57.280 E1.32743
G1 X90.330 Y57.280 E1.34233
G1 X91.100 Y57.320 E1.36442
G1 X92.060 Y57.440 E1.39214
G1 X92.810 Y57.590 E1.41406
G1 X93.730 Y57.840 E1.44137
G1 X94.350 Y58.050 E1.46013
G1 X95.050 Y58.330 E1.48173
G1 X95.730 Y58.640 E1.50314
G1 X96.400 Y59.000 E1.52493
G1 X97.010 Y59.380 E1.54552
G1 X97.910 Y60.030 E1.57733
G1 X98.430 Y60.480 E1.59703
G1 X98.990 Y61.010 E1.61913
G1 X99.630 Y61.690 E1.64588
G1 X100.060 Y62.220 E1.66544
G1 X100.510 Y62.840 E1.68739
G1 X100.990 Y63.590 E1.71290
G1 X101.540 Y64.650 E1.74711
G1 X101.700 Y65.000 E1.75814
G1 X101.990 Y65.760 E1.78145
G1 X102.340 Y66.910 E1.81589
G1 X102.430 Y67.280 E1.82680
G1 X102.590 Y68.200 E1.85355
G1 X102.660 Y68.800 E1.87086
G1 X102.710 Y69.570 E1.89297
G1 X102.710 Y70.430 E1.91761
G1 X102.660 Y71.190 E1.93943
G1 X102.590 Y71.790 E1.95674
G1 X102.440 Y72.670 E1.98232
G1 X102.350 Y73.050 E1.99351
G1 X101.980 Y74.260 E2.02976
G1 X101.700 Y74.990 E2.05216
G1 X101.540 Y75.340 E2.06319
G1 X100.990 Y76.400 E2.09740
G1 X100.510 Y77.150 E2.12292
G1 X100.060 Y77.770 E2.14487
G1 X99.370 Y78.590 E2.17557
G1 X98.850 Y79.120 E2.19684
G1 X98.400 Y79.540 E2.21448
G1 X97.810 Y80.030 E2.23646
G1 X97.330 Y80.390 E2.25365
G1 X96.400 Y80.990 E2.28536
G1 X95.340 Y81.540 E2.31957
G1 X94.990 Y81.700 E2.33060
G1 X94.230 Y81.990 E2.35391
G1 X93.500 Y82.220 E2.37583
G1 X92.810 Y82.400 E2.39627
G1 X92.060 Y82.550 E2.41818
G1 X91.270 Y82.660 E2.44103
G1 X90.880 Y82.690 E2.45224
G1 X90.370 Y82.700 E2.46686
G1 X89.610 Y82.700 E2.48863
G1 X88.830 Y82.660 E2.51101
G1 X88.070 Y82.570 E2.53294
G1 X87.320 Y82.440 E2.55475
G1 X86.450 Y82.210 E2.58053
G1 X85.730 Y81.980 E2.60218
G1 X84.890 Y81.650 E2.62804
G1 X84.200 Y81.320 E2.64996
G1 X83.420 Y80.890 E2.67548
G1 X82.840 Y80.510 E2.69534
G1 X82.220 Y80.060 E2.71729
G1 X81.400 Y79.370 E2.74800
G1 X81.010 Y78.990 E2.76360
G1 X80.480 Y78.430 E2.78569
G1 X80.030 Y77.910 E2.80539
G1 X79.800 Y77.610 E2.81623
G1 X79.380 Y77.010 E2.83721
G1 X79.000 Y76.400 E2.85780
G1 X78.640 Y75.730 E2.87959
G1 X78.350 Y75.100 E2.89946
G1 X78.060 Y74.390 E2.92144
G1 X77.790 Y73.610 E2.94509
G1 X77.690 Y73.240 E2.95607
G1 X77.550 Y72.660 E2.97316
G1 X77.420 Y71.920 E2.99469
G1 X77.330 Y71.170 E3.01633
G1 X77.290 Y70.550 E3.03414
G1 X77.280 Y69.640 E3.06021
G1 X77.320 Y68.880 E3.08202
G1 X77.440 Y67.930 E3.10945
G1 X77.590 Y67.180 E3.13136
G1 X77.770 Y66.490 E3.15180
G1 X78.000 Y65.760 E3.17373
G1 X78.270 Y65.060 E3.19522
G1 X78.430 Y64.700 E3.20651
G1 X78.660 Y64.220 E3.22176
G1 X79.020 Y63.560 E3.24330
G1 X79.480 Y62.840 E3.26778
G1 X79.875 Y62.296 E3.28704
G1 F1800.000 E2.28704
G92 E0
G1 X86.936 Y67.774 F7800.000
G1 F1800.000 E1.00000
G1 X87.239 Y67.407 F600.000 E1.01363
G1 X87.407 Y67.239 E1.02044
G1 X87.586 Y67.081 E1.02726
G1 X87.970 Y66.802 E1.04089
G1 X88.203 Y66.666 E1.04861
G1 X88.606 Y66.478 E1.06134
G1 X89.058 Y66.331 E1.07496
G1 X89.321 Y66.274 E1.08268
G1 X89.762 Y66.220 E1.09541
G1 X90.238 Y66.220 E1.10904
G1 X90.475 Y66.242 E1.11587
G1 X90.942 Y66.331 E1.12948
G1 X91.171 Y66.398 E1.13631
G1 X91.613 Y66.573 E1.14993
G1 X91.825 Y66.681 E1.15675
G1 X92.226 Y66.935 E1.17037
G1 X92.414 Y67.081 E1.17720
G1 X92.761 Y67.407 E1.19083
G1 X92.938 Y67.611 E1.19855
G1 X93.198 Y67.970 E1.21127
G1 X93.319 Y68.175 E1.21809
G1 X93.522 Y68.605 E1.23171
G1 X93.602 Y68.830 E1.23854
G1 X93.721 Y69.290 E1.25217
G1 X93.780 Y69.762 E1.26579
G1 X93.780 Y70.237 E1.27941
G1 X93.753 Y70.506 E1.28714
G1 X93.669 Y70.942 E1.29987
G1 X93.602 Y71.170 E1.30669
G1 X93.427 Y71.613 E1.32033
G1 X93.198 Y72.029 E1.33394
G1 X93.064 Y72.226 E1.34077
G1 X92.761 Y72.593 E1.35439
G1 X92.593 Y72.761 E1.36121
G1 X92.226 Y73.064 E1.37484
G1 X92.030 Y73.198 E1.38166
G1 X91.824 Y73.319 E1.38849
G1 X91.394 Y73.522 E1.40212
G1 X90.942 Y73.669 E1.41573
G1 X90.709 Y73.721 E1.42256
G1 X90.238 Y73.780 E1.43618
G1 X89.762 Y73.780 E1.44980
G1 X89.494 Y73.753 E1.45753
G1 X89.058 Y73.669 E1.47025
G1 X88.829 Y73.602 E1.47708
G1 X88.387 Y73.427 E1.49070
G1 X88.004 Y73.218 E1.50321
G1 X87.773 Y73.064 E1.51116
G1 X87.407 Y72.761 E1.52479
G1 X87.239 Y72.593 E1.53159
G1 X87.062 Y72.389 E1.53931
G1 X86.802 Y72.030 E1.55201
G1 X86.681 Y71.825 E1.55886
G1 X86.478 Y71.394 E1.57249
G1 X86.363 Y71.052 E1.58284
G1 X86.279 Y70.710 E1.59293
G1 X86.227 Y70.318 E1.60424
G1 X86.212 Y70.000 E1.61338
G1 X86.242 Y69.525 E1.62701
G1 X86.279 Y69.290 E1.63382
G1 X86.398 Y68.829 E1.64745
G1 X86.478 Y68.605 E1.65428
G1 X86.681 Y68.175 E1.66790
G1 X86.883 Y67.851 E1.67884
G1 X87.424 Y68.167 F7800.000
G1 X87.564 Y67.983 F600.000 E1.68548
G1 X87.835 Y67.695 E1.69682
G1 X87.984 Y67.563 E1.70251
G1 X88.305 Y67.330 E1.71389
G1 X88.836 Y67.059 E1.73095
G1 X89.407 Y66.893 E1.74800
G1 X90.000 Y66.837 E1.76506
G1 X90.593 Y66.893 E1.78211
G1 X90.977 Y66.992 E1.79349
G1 X91.184 Y67.068 E1.79981
G1 X91.524 Y67.229 E1.81056
G1 X91.859 Y67.441 E1.82194
G1 X92.305 Y67.835 E1.83900
G1 X92.670 Y68.305 E1.85605
G1 X92.940 Y68.836 E1.87310
G1 X93.107 Y69.407 E1.89016
G1 X93.156 Y69.801 E1.90154
G1 X93.156 Y70.198 E1.91291
G1 X93.063 Y70.786 E1.92997
G1 X92.862 Y71.347 E1.94703
G1 X92.559 Y71.859 E1.96408
G1 X92.165 Y72.305 E1.98114
G1 X91.695 Y72.670 E1.99819
G1 X91.164 Y72.941 E2.01526
G1 X90.592 Y73.107 E2.03231
G1 X90.199 Y73.156 E2.04368
G1 X89.801 Y73.156 E2.05506
G1 X89.214 Y73.063 E2.07212
G1 X88.654 Y72.862 E2.08917
G1 X88.141 Y72.559 E2.10623
G1 X87.695 Y72.165 E2.12328
G1 X87.330 Y71.695 E2.14033
G1 X87.229 Y71.524 E2.14603
G1 X87.059 Y71.164 E2.15741
G1 X86.893 Y70.593 E2.17446
G1 X86.837 Y70.000 E2.19152
G1 X86.893 Y69.407 E2.20857
G1 X87.060 Y68.836 E2.22563
G1 X87.229 Y68.476 E2.23701
G1 X87.371 Y68.245 E2.24480
G1 X87.654 Y68.190 F7800.000
G1 X85.824 Y66.966
G1 X86.022 Y66.709 F600.000 E2.25409
G1 X86.466 Y66.237 E2.27267
G1 X86.710 Y66.022 E2.28196
G1 X87.234 Y65.641 E2.30053
G1 X87.802 Y65.329 E2.31910
G1 X88.100 Y65.200 E2.32840
G1 X88.405 Y65.090 E2.33769
G1 X89.033 Y64.929 E2.35626
G1 X89.676 Y64.848 E2.37484
G1 X90.000 Y64.838 E2.38413
G1 X90.647 Y64.879 E2.40270
G1 X91.284 Y65.000 E2.42128
G1 X91.595 Y65.090 E2.43057
G1 X92.198 Y65.329 E2.44914
G1 X92.766 Y65.641 E2.46772
G1 X93.034 Y65.824 E2.47701
G1 X93.291 Y66.022 E2.48630
G1 X93.763 Y66.466 E2.50487
G1 X94.176 Y66.966 E2.52345
G1 X94.359 Y67.234 E2.53274
G1 X94.524 Y67.513 E2.54203
G1 X94.800 Y68.100 E2.56061
G1 X95.000 Y68.716 E2.57918
G1 X95.071 Y69.033 E2.58847
G1 X95.152 Y69.676 E2.60705
G1 X95.162 Y70.000 E2.61634
G1 X95.121 Y70.647 E2.63491
G1 X95.071 Y70.967 E2.64420
G1 X94.910 Y71.595 E2.66278
G1 X94.671 Y72.198 E2.68135
G1 X94.524 Y72.487 E2.69064
G1 X94.176 Y73.034 E2.70922
G1 X93.978 Y73.291 E2.71851
G1 X93.534 Y73.763 E2.73708
G1 X93.290 Y73.978 E2.74638
G1 X92.766 Y74.359 E2.76495
G1 X92.198 Y74.671 E2.78352
G1 X91.900 Y74.800 E2.79281
G1 X91.595 Y74.910 E2.80211
G1 X90.967 Y75.071 E2.82068
G1 X90.324 Y75.152 E2.83925
G1 X90.000 Y75.162 E2.84855
G1 X89.353 Y75.121 E2.86712
G1 X89.033 Y75.071 E2.87641
G1 X88.716 Y75.000 E2.88570
G1 X88.100 Y74.800 E2.90428
G1 X87.513 Y74.524 E2.92285
G1 X86.966 Y74.176 E2.94143
G1 X86.709 Y73.978 E2.95072
G1 X86.237 Y73.534 E2.96929
G1 X86.022 Y73.291 E2.97858
G1 X85.641 Y72.766 E2.99716
G1 X85.329 Y72.198 E3.01573
G1 X85.200 Y71.900 E3.02502
G1 X85.000 Y71.284 E3.04360
G1 X84.929 Y70.967 E3.05289
G1 X84.848 Y70.324 E3.07146
G1 X84.838 Y70.000 E3.08076
G1 X84.879 Y69.353 E3.09933
G1 X84.929 Y69.033 E3.10862
G1 X85.000 Y68.716 E3.11791
G1 X85.200 Y68.100 E3.13649
G1 X85.476 Y67.513 E3.15506
G1 X85.771 Y67.043 E3.17095
G1 X85.318 Y66.598 F7800.000
G1 X85.781 Y66.038 F600.000 E3.19178
G1 X86.038 Y65.781 E3.20219
G1 X86.311 Y65.541 E3.21261
G1 X86.899 Y65.114 E3.23343
G1 X87.536 Y64.763 E3.25426
G1 X87.870 Y64.619 E3.26467
G1 X88.212 Y64.496 E3.27509
G1 X88.916 Y64.315 E3.29591
G1 X89.637 Y64.224 E3.31674
G1 X90.000 Y64.213 E3.32715
G1 X90.725 Y64.258 E3.34798
G1 X91.439 Y64.394 E3.36880
G1 X91.788 Y64.496 E3.37922
G1 X92.464 Y64.763 E3.40004
G1 X93.101 Y65.114 E3.42087
G1 X93.402 Y65.318 E3.43128
G1 X93.689 Y65.541 E3.44170
G1 X94.219 Y66.038 E3.46252
G1 X94.682 Y66.598 E3.48335
G1 X94.886 Y66.899 E3.49376
G1 X95.237 Y67.536 E3.51459
G1 X95.381 Y67.869 E3.52500
G1 X95.606 Y68.561 E3.54583
G1 X95.685 Y68.916 E3.55625
G1 X95.776 Y69.637 E3.57707
G1 X95.787 Y70.000 E3.58749
G1 X95.742 Y70.725 E3.60831
G1 X95.685 Y71.084 E3.61873
G1 X95.504 Y71.788 E3.63955
G1 X95.237 Y72.464 E3.66037
G1 X95.072 Y72.788 E3.67079
G1 X94.682 Y73.402 E3.69161
G1 X94.459 Y73.689 E3.70203
G1 X93.962 Y74.219 E3.72286
G1 X93.689 Y74.459 E3.73327
G1 X93.101 Y74.886 E3.75410
G1 X92.464 Y75.237 E3.77492
G1 X92.130 Y75.381 E3.78534
G1 X91.439 Y75.606 E3.80616
G1 X91.084 Y75.685 E3.81658
G1 X90.363 Y75.776 E3.83740
G1 X90.000 Y75.787 E3.84782
G1 X89.275 Y75.742 E3.86864
G1 X88.916 Y75.685 E3.87906
G1 X88.561 Y75.606 E3.88948
G1 X87.870 Y75.381 E3.91030
G1 X87.212 Y75.072 E3.93112
G1 X86.598 Y74.682 E3.95195
G1 X86.311 Y74.459 E3.96236
G1 X85.781 Y73.962 E3.98319
G1 X85.541 Y73.689 E3.99360
G1 X85.114 Y73.101 E4.01443
G1 X84.763 Y72.464 E4.03525
G1 X84.619 Y72.130 E4.04567
G1 X84.394 Y71.439 E4.06649
G1 X84.315 Y71.084 E4.07691
G1 X84.224 Y70.363 E4.09773
G1 X84.213 Y70.000 E4.10815
G1 X84.258 Y69.275 E4.12897
G1 X84.315 Y68.916 E4.13939
G1 X84.394 Y68.561 E4.14981
G1 X84.619 Y67.870 E4.17063
G1 X84.928 Y67.212 E4.19145
G1 X85.265 Y66.676 E4.20960
G1 X85.938 Y66.677 F7800.000
G1 F1800.000 E3.20960
G92 E0
G1 X88.482 Y74.234 F7800.000
G1 F1800.000 E1.00000
G1 X88.401 Y74.152 F600.000 E1.00330
G1 X89.560 Y74.427 E1.03748
G1 X89.615 Y74.481 E1.03968
G1 X90.445 Y74.426 E1.06354
G1 X90.490 Y74.471 E1.06537
G1 X91.190 Y74.287 E1.08614
G1 X91.229 Y74.326 E1.08775
G1 X91.839 Y74.051 E1.10694
G1 X91.876 Y74.088 E1.10845
G1 X92.412 Y73.739 E1.12679
G1 X92.447 Y73.774 E1.12822
G1 X92.917 Y73.359 E1.14620
G1 X92.951 Y73.394 E1.14761
G1 X93.394 Y72.951 E1.16556
G1 X93.359 Y72.916 E1.16697
G1 X93.774 Y72.447 E1.18495
G1 X93.739 Y72.412 E1.18638
G1 X94.088 Y71.876 E1.20472
G1 X94.051 Y71.839 E1.20624
G1 X94.326 Y71.229 E1.22542
G1 X94.287 Y71.190 E1.22703
G1 X94.471 Y70.490 E1.24780
G1 X94.426 Y70.445 E1.24963
G1 X94.481 Y69.615 E1.27349
G1 X94.427 Y69.560 E1.27570
G1 X94.234 Y68.482 E1.30711
G1 X94.152 Y68.401 E1.31041
G1 X91.599 Y65.848 F7800.000
G1 X91.518 Y65.766 F600.000 E1.31371
G1 X90.440 Y65.573 E1.34512
G1 X90.385 Y65.519 E1.34733
G1 X89.555 Y65.574 E1.37119
G1 X89.510 Y65.529 E1.37302
G1 X88.810 Y65.713 E1.39379
G1 X88.771 Y65.674 E1.39539
G1 X88.161 Y65.949 E1.41458
G1 X88.124 Y65.912 E1.41610
G1 X87.588 Y66.261 E1.43444
G1 X87.553 Y66.226 E1.43587
G1 X87.083 Y66.641 E1.45385
G1 X87.049 Y66.606 E1.45526
G1 X86.606 Y67.049 E1.47321
G1 X86.641 Y67.083 E1.47462
G1 X86.226 Y67.553 E1.49260
G1 X86.261 Y67.588 E1.49403
G1 X85.912 Y68.124 E1.51237
G1 X85.949 Y68.161 E1.51388
G1 X85.674 Y68.771 E1.53307
G1 X85.713 Y68.810 E1.53468
G1 X85.529 Y69.510 E1.55545
G1 X85.574 Y69.555 E1.55728
G1 X85.519 Y70.385 E1.58114
G1 X85.573 Y70.440 E1.58334
G1 X85.766 Y71.518 E1.61475
G1 X85.848 Y71.599 E1.61806
M106 S255
M104 S215 ; set temperature
G1 F1800.000 E0.61806
G92 E0
G1 Z0.600 F7800.000
G1 X86.443 Y71.369
G1 F1800.000 E1.00000
G1 X86.307 Y70.948 F600.000 E1.00557
G1 X86.217 Y70.478 E1.01161
G1 X86.187 Y70.000 E1.01764
G1 X86.195 Y69.761 E1.02066
G1 X86.255 Y69.286 E1.02669
G1 X86.307 Y69.052 E1.02971
G1 X86.390 Y68.778 E1.03332
G1 X86.550 Y68.377 E1.03877
G1 X86.659 Y68.163 E1.04178
G1 X86.916 Y67.759 E1.04782
G1 X87.086 Y67.543 E1.05128
G1 X87.390 Y67.221 E1.05687
G1 X87.646 Y67.004 E1.06110
G1 X87.957 Y66.781 E1.06592
G1 X88.196 Y66.642 E1.06940
G1 X88.596 Y66.455 E1.07498
G1 X88.822 Y66.374 E1.07800
G1 X89.286 Y66.255 E1.08403
G1 X89.522 Y66.217 E1.08705
G1 X90.000 Y66.187 E1.09308
G1 X90.239 Y66.195 E1.09610
G1 X90.714 Y66.255 E1.10214
G1 X90.948 Y66.307 E1.10516
G1 X91.404 Y66.455 E1.11119
G1 X91.837 Y66.659 E1.11723
G1 X92.241 Y66.916 E1.12326
G1 X92.610 Y67.221 E1.12929
G1 X92.779 Y67.390 E1.13231
G1 X93.084 Y67.759 E1.13835
G1 X93.219 Y67.957 E1.14137
G1 X93.434 Y68.345 E1.14696
G1 X93.545 Y68.597 E1.15042
G1 X93.626 Y68.822 E1.15344
G1 X93.745 Y69.286 E1.15947
G1 X93.783 Y69.522 E1.16250
G1 X93.813 Y70.000 E1.16853
G1 X93.787 Y70.425 E1.17390
G1 X93.745 Y70.714 E1.17758
G1 X93.683 Y70.982 E1.18104
G1 X93.545 Y71.403 E1.18663
G1 X93.450 Y71.623 E1.18965
G1 X93.219 Y72.043 E1.19568
G1 X93.084 Y72.241 E1.19870
G1 X92.779 Y72.610 E1.20474
G1 X92.610 Y72.779 E1.20776
G1 X92.241 Y73.084 E1.21379
G1 X91.837 Y73.341 E1.21983
G1 X91.404 Y73.545 E1.22586
G1 X91.178 Y73.626 E1.22888
G1 X90.714 Y73.745 E1.23492
G1 X90.478 Y73.783 E1.23793
G1 X90.000 Y73.813 E1.24397
G1 X89.522 Y73.783 E1.25000
G1 X89.286 Y73.745 E1.25302
G1 X88.822 Y73.626 E1.25906
G1 X88.596 Y73.545 E1.26208
G1 X88.332 Y73.427 E1.26572
G1 X87.957 Y73.219 E1.27113
G1 X87.730 Y73.062 E1.27461
G1 X87.390 Y72.779 E1.28018
G1 X87.063 Y72.431 E1.28621
G1 X86.916 Y72.241 E1.28923
G1 X86.659 Y71.837 E1.29527
G1 X86.463 Y71.423 E1.30104
G1 X86.813 Y71.262 F7800.000
G1 X86.680 Y70.852 F600.000 E1.30646
G1 X86.633 Y70.642 E1.30918
G1 X86.599 Y70.429 E1.31189
G1 X86.572 Y70.000 E1.31732
G1 X86.579 Y69.785 E1.32003
G1 X86.633 Y69.358 E1.32546
G1 X86.740 Y68.941 E1.33088
G1 X86.851 Y68.652 E1.33478
G1 X86.996 Y68.349 E1.33902
G1 X87.227 Y67.985 E1.34444
G1 X87.374 Y67.798 E1.34745
G1 X87.654 Y67.501 E1.35258
G1 X87.815 Y67.359 E1.35530
G1 X88.163 Y67.106 E1.36072
G1 X88.371 Y66.985 E1.36375
G1 X88.738 Y66.813 E1.36886
G1 X88.941 Y66.740 E1.37157
G1 X89.358 Y66.633 E1.37700
G1 X89.570 Y66.599 E1.37971
G1 X90.000 Y66.572 E1.38514
G1 X90.215 Y66.579 E1.38785
G1 X90.642 Y66.633 E1.39328
G1 X90.852 Y66.680 E1.39599
G1 X91.262 Y66.813 E1.40142
G1 X91.651 Y66.996 E1.40684
G1 X92.015 Y67.227 E1.41227
G1 X92.233 Y67.401 E1.41579
G1 X92.499 Y67.654 E1.42041
G1 X92.773 Y67.985 E1.42583
G1 X92.894 Y68.163 E1.42855
G1 X93.091 Y68.520 E1.43368
G1 X93.187 Y68.738 E1.43668
G1 X93.260 Y68.941 E1.43940
G1 X93.367 Y69.358 E1.44482
G1 X93.401 Y69.571 E1.44754
G1 X93.428 Y70.000 E1.45296
G1 X93.404 Y70.389 E1.45788
G1 X93.367 Y70.642 E1.46110
G1 X93.313 Y70.875 E1.46411
G1 X93.187 Y71.262 E1.46924
G1 X93.101 Y71.459 E1.47195
G1 X92.894 Y71.837 E1.47738
G1 X92.773 Y72.015 E1.48009
G1 X92.499 Y72.346 E1.48552
G1 X92.346 Y72.499 E1.48823
G1 X92.015 Y72.773 E1.49366
G1 X91.651 Y73.004 E1.49908
G1 X91.262 Y73.187 E1.50451
G1 X91.059 Y73.260 E1.50722
G1 X90.642 Y73.367 E1.51265
G1 X90.430 Y73.401 E1.51536
G1 X90.000 Y73.428 E1.52079
G1 X89.570 Y73.401 E1.52621
G1 X89.358 Y73.367 E1.52892
G1 X88.941 Y73.260 E1.53435
G1 X88.738 Y73.187 E1.53706
G1 X88.507 Y73.084 E1.54025
G1 X88.164 Y72.894 E1.54520
G1 X87.985 Y72.773 E1.54792
G1 X87.654 Y72.499 E1.55334
G1 X87.359 Y72.185 E1.55876
G1 X87.227 Y72.015 E1.56148
G1 X86.996 Y71.651 E1.56690
G1 X86.836 Y71.315 E1.57160
G1 X87.180 Y71.142 F7800.000
