; generated by Slic3r 0.9.10b on 2013-09-12 at 22:54:51

; layer_height = 0.25
; perimeters = 3
; top_solid_layers = 3
; bottom_solid_layers = 3
; fill_density = 1
; perimeter_speed = 30
; infill_speed = 60
; travel_speed = 130
; nozzle_diameter = 0.35
; filament_diameter = 3
; extrusion_multiplier = .926
; perimeters extrusion width = 0.39mm
; infill extrusion width = 0.39mm
; solid infill extrusion width = 0.39mm
; top infill extrusion width = 0.39mm
; first layer extrusion width = 0.70mm

G21 ; set units to millimeters
M107
M190 S60 ; wait for bed temperature to be reached
M104 S220 ; set temperature
G28 ; home all axes
G1 Z5 F5000 ; lift nozzle
M109 S220 ; wait for temperature to be reached
G90 ; use absolute coordinates
G92 E0
M82 ; use absolute distances for extrusion
G1 F1800.000 E-1.00000
G92 E0
G1 Z0.350 F7800.000
G1 X79.403 Y55.417
G1 F1800.000 E1.00000
G1 X80.663 Y53.877 F540.000 E1.05701
G1 X81.363 Y53.147 E1.08599
G1 X82.843 Y51.817 E1.14300
G1 X83.663 Y51.187 E1.17263
G1 X85.343 Y50.097 E1.23001
G1 X86.263 Y49.607 E1.25987
G1 X88.083 Y48.797 E1.31695
G1 X89.083 Y48.437 E1.34740
G1 X91.013 Y47.927 E1.40460
G1 X92.033 Y47.747 E1.43427
G1 X94.133 Y47.537 E1.49474
G1 X95.013 Y47.517 E1.51996
G1 X97.003 Y47.617 E1.57705
G1 X98.063 Y47.757 E1.60768
G1 X100.013 Y48.177 E1.66484
G1 X101.013 Y48.477 E1.69475
G1 X102.873 Y49.197 E1.75189
G1 X103.803 Y49.647 E1.78150
G1 X105.613 Y50.697 E1.84145
G1 X106.363 Y51.217 E1.86760
G1 X107.913 Y52.467 E1.92465
G1 X108.693 Y53.217 E1.95565
G1 X110.023 Y54.707 E2.01288
G1 X110.643 Y55.517 E2.04210
G1 X111.723 Y57.187 E2.09909
G1 X112.213 Y58.097 E2.12870
G1 X113.023 Y59.917 E2.18578
G1 X113.383 Y60.917 E2.21623
G1 X113.893 Y62.847 E2.27342
G1 X114.073 Y63.837 E2.30225
G1 X114.283 Y65.817 E2.35930
G1 X114.303 Y66.887 E2.38996
G1 X114.193 Y68.877 E2.44707
G1 X114.063 Y69.897 E2.47653
G1 X113.643 Y71.847 E2.53368
G1 X113.353 Y72.817 E2.56269
G1 X112.643 Y74.677 E2.61973
G1 X112.243 Y75.537 E2.64691
G1 X105.993 Y86.777 E3.01539
G1 X105.253 Y87.967 E3.05554
G1 X104.753 Y88.657 E3.07996
G1 X104.173 Y89.267 E3.10407
G1 X103.413 Y89.977 E3.13387
G1 X102.723 Y90.547 E3.15951
G1 X101.953 Y91.007 E3.18521
G1 X101.033 Y91.487 E3.21494
G1 X100.293 Y91.827 E3.23828
G1 X99.503 Y92.067 E3.26193
G1 X98.493 Y92.307 E3.29168
G1 X97.673 Y92.447 E3.31551
G1 X96.833 Y92.477 E3.33959
G1 X95.803 Y92.457 E3.36911
G1 X94.933 Y92.387 E3.39412
G1 X94.083 Y92.197 E3.41907
G1 X93.083 Y91.907 E3.44891
G1 X92.273 Y91.617 E3.47356
G1 X91.493 Y91.207 E3.49880
G1 X90.603 Y90.667 E3.52863
G1 X89.913 Y90.187 E3.55271
G1 X89.293 Y89.627 E3.57665
G1 X88.573 Y88.887 E3.60623
G1 X79.903 Y78.877 E3.98566
G1 X79.363 Y78.167 E4.01122
G1 X78.273 Y76.497 E4.06835
G1 X77.773 Y75.567 E4.09861
G1 X76.963 Y73.747 E4.15568
G1 X76.603 Y72.747 E4.18614
G1 X76.093 Y70.817 E4.24333
G1 X75.913 Y69.797 E4.27301
G1 X75.713 Y67.817 E4.33003
G1 X75.683 Y66.817 E4.35869
G1 X75.783 Y64.827 E4.41578
G1 X75.923 Y63.767 E4.44642
G1 X76.343 Y61.817 E4.50357
G1 X76.643 Y60.817 E4.53348
G1 X77.363 Y58.957 E4.59063
G1 X77.793 Y58.057 E4.61920
G1 X78.783 Y56.327 E4.67631
G1 X79.350 Y55.494 E4.70518
G1 F1800.000 E3.70518
G92 E0
G1 X85.968 Y60.843 F7800.000
G1 F1800.000 E1.00000
G1 X87.018 Y59.626 F378.000 E1.04606
G1 X88.244 Y58.606 E1.09175
G1 X89.085 Y57.808 E1.12497
G1 X89.599 Y57.580 E1.14108
G1 X90.292 Y57.764 E1.16163
G1 X90.977 Y57.850 E1.18140
G1 X91.496 Y58.133 E1.19837
G1 X92.067 Y58.580 E1.21913
G1 X92.577 Y58.878 E1.23607
G1 X92.942 Y59.294 E1.25191
G1 X93.089 Y59.834 E1.26797
G1 X93.131 Y60.287 E1.28101
G1 X93.244 Y60.818 E1.29655
G1 X93.502 Y61.542 E1.31856
G1 X93.454 Y62.205 E1.33761
G1 X93.287 Y62.834 E1.35625
G1 X93.119 Y63.588 E1.37840
G1 X92.798 Y64.275 E1.40013
G1 X92.184 Y64.888 E1.42499
G1 X91.857 Y65.168 E1.43732
G1 X91.431 Y65.357 E1.45067
G1 X90.856 Y65.521 E1.46782
G1 X90.478 Y65.663 E1.47937
G1 X89.808 Y65.607 E1.49861
G1 X89.536 Y65.335 E1.50965
G1 X89.394 Y65.335 E1.51372
G1 X89.142 Y65.134 E1.52296
G1 X88.560 Y64.901 E1.54092
G1 X87.309 Y64.193 E1.58211
G1 X86.819 Y63.853 E1.59919
G1 X86.639 Y64.755 E1.62555
G1 X85.968 Y64.688 E1.64487
G1 X85.373 Y64.688 E1.66192
G1 X85.345 Y64.878 E1.66741
G1 X85.981 Y65.068 E1.68642
G1 X86.502 Y65.068 E1.70136
G1 X86.856 Y64.980 E1.71182
G1 X87.188 Y65.046 E1.72150
G1 X87.562 Y65.295 E1.73438
G1 X88.483 Y65.573 E1.76194
G1 X88.615 Y65.969 E1.77391
G1 X88.484 Y66.232 E1.78232
G1 X88.295 Y66.374 E1.78908
G1 X88.100 Y66.616 E1.79800
G1 X87.678 Y66.757 E1.81073
G1 X87.351 Y66.944 E1.82155
G1 X86.543 Y66.944 E1.84468
G1 X86.195 Y66.635 E1.85802
G1 X86.029 Y66.788 E1.86449
G1 X86.450 Y67.349 E1.88458
G1 X85.806 Y67.670 E1.90519
G1 X85.276 Y67.670 E1.92040
G1 X85.762 Y68.156 E1.94011
G1 X85.762 Y68.812 E1.95890
G1 X85.892 Y68.842 E1.96272
G1 X86.456 Y67.717 E1.99879
G1 X86.910 Y67.376 E2.01504
G1 X87.456 Y67.331 E2.03075
G1 X88.384 Y67.082 E2.05827
G1 X88.536 Y66.899 E2.06509
G1 X89.086 Y66.400 E2.08636
G1 X89.710 Y66.400 E2.10423
G1 X90.194 Y66.198 E2.11928
G1 X90.687 Y66.198 E2.13339
G1 X91.532 Y66.121 E2.15771
G1 X91.646 Y66.089 E2.16111
G1 X91.772 Y65.806 E2.16998
G1 X92.147 Y65.431 E2.18516
G1 X92.837 Y65.431 E2.20491
G1 X93.114 Y65.801 E2.21815
G1 X93.114 Y66.243 E2.23081
G1 X92.531 Y67.745 E2.27698
G1 X92.325 Y68.403 E2.29674
G1 X92.098 Y68.857 E2.31127
G1 X91.772 Y69.275 E2.32647
G1 X91.335 Y69.614 E2.34231
G1 X90.763 Y69.805 E2.35960
G1 X89.950 Y69.863 E2.38296
G1 X89.928 Y69.952 E2.38557
G1 X90.307 Y70.179 E2.39823
G1 X90.538 Y70.256 E2.40520
G1 X91.010 Y70.491 E2.42030
G1 X91.111 Y70.894 E2.43220
G1 X90.755 Y71.659 E2.45637
G1 X90.677 Y72.009 E2.46665
G1 X90.491 Y72.475 E2.48102
G1 X90.202 Y72.860 E2.49481
G1 X89.871 Y73.136 E2.50716
G1 X89.561 Y73.197 E2.51622
G1 X89.257 Y73.197 E2.52493
G1 X89.015 Y73.921 E2.54677
G1 X88.858 Y74.314 E2.55891
G1 X88.958 Y74.387 E2.56245
G1 X89.496 Y73.939 E2.58252
G1 X90.016 Y73.783 E2.59807
G1 X90.228 Y73.783 E2.60414
G1 X90.301 Y73.725 E2.60680
G1 X90.480 Y73.396 E2.61754
G1 X90.516 Y73.144 E2.62482
G1 X90.675 Y72.561 E2.64216
G1 X91.059 Y72.330 E2.65498
G1 X91.197 Y72.330 E2.65892
G1 X91.197 Y71.491 E2.68297
G1 X91.439 Y70.910 E2.70099
G1 X91.743 Y70.519 E2.71520
G1 X92.542 Y69.402 E2.75455
G1 X93.006 Y68.668 E2.77943
G1 X93.459 Y67.517 E2.81487
G1 X93.829 Y67.086 E2.83116
G1 X94.194 Y67.086 E2.84162
G1 X94.689 Y67.439 E2.85904
G1 X94.689 Y68.333 E2.88467
G1 X94.653 Y69.106 E2.90685
G1 X94.913 Y69.626 E2.92350
G1 X94.720 Y70.301 E2.94362
G1 X94.272 Y72.089 E2.99643
G1 X94.004 Y72.848 E3.01949
G1 X93.480 Y73.415 E3.04160
G1 X93.048 Y73.925 E3.06076
G1 X92.511 Y74.668 E3.08703
G1 X92.301 Y74.858 E3.09513
G1 X92.315 Y75.028 E3.10002
G1 X92.303 Y75.010 E3.10064
G1 X91.520 Y75.323 E3.12480
G1 X90.777 Y75.482 E3.14656
G1 X90.767 Y75.557 E3.14871
G1 X91.338 Y75.842 E3.16698
G1 X91.338 Y76.341 E3.18130
G1 X90.908 Y76.914 E3.20183
G1 X90.347 Y76.759 E3.21849
G1 X89.652 Y76.203 E3.24399
G1 X90.370 Y75.964 E3.26569
G1 X90.765 Y75.570 E3.28168
G1 X90.722 Y75.487 E3.28434
G1 X90.096 Y75.601 E3.30257
G1 X89.376 Y76.095 E3.32757
G1 X88.796 Y75.902 E3.34511
G1 X88.436 Y75.542 E3.35968
G1 X88.564 Y75.222 E3.36958
G1 X88.338 Y75.112 E3.37677
G1 X88.096 Y75.536 E3.39075
G1 X87.802 Y75.095 E3.40592
G1 X87.696 Y75.069 E3.40904
G1 X87.419 Y74.861 E3.41896
G1 X87.034 Y73.996 E3.44610
G1 X86.864 Y74.132 E3.45235
G1 X86.373 Y73.740 E3.47034
G1 X86.271 Y73.128 E3.48812
G1 X86.142 Y73.274 E3.49369
G1 X85.505 Y72.319 E3.52656
G1 X85.091 Y71.545 E3.55173
G1 X85.366 Y71.087 E3.56702
G1 X85.841 Y70.945 E3.58123
G1 X86.123 Y70.757 E3.59094
G1 X86.551 Y70.757 E3.60320
G1 X86.793 Y70.838 E3.61052
G1 X87.297 Y70.838 E3.62497
G1 X87.297 Y71.393 E3.64088
G1 X87.504 Y71.419 E3.64686
G1 X87.596 Y71.053 E3.65767
G1 X87.974 Y71.756 E3.68053
G1 X88.172 Y71.690 E3.68651
G1 X88.233 Y71.613 E3.68932
G1 X88.248 Y71.555 E3.69103
G1 X88.248 Y71.342 E3.69713
G1 X88.229 Y71.249 E3.69986
G1 X88.005 Y70.981 E3.70986
G1 X88.005 Y70.637 E3.71972
G1 X88.284 Y70.289 E3.73251
G1 X88.247 Y70.251 E3.73404
G1 X88.897 Y70.197 E3.75273
G1 X89.862 Y69.863 E3.78200
G1 X88.716 Y69.372 E3.81773
G1 X88.583 Y69.768 E3.82969
G1 X87.781 Y70.414 E3.85919
G1 X87.363 Y70.414 E3.87117
G1 X87.136 Y70.376 E3.87776
G1 X86.758 Y70.414 E3.88865
G1 X86.347 Y70.411 E3.90044
G1 X85.774 Y70.543 E3.91726
G1 X85.778 Y70.578 E3.91827
G1 X85.012 Y71.008 E3.94346
G1 X84.453 Y70.050 E3.97524
G1 X84.564 Y69.939 E3.97974
G1 X84.276 Y69.221 E4.00192
G1 X84.128 Y68.924 E4.01142
G1 X84.128 Y67.973 E4.03867
G1 X84.237 Y67.973 E4.04180
G1 X84.078 Y67.183 E4.06488
G1 X84.168 Y66.870 E4.07421
G1 X84.168 Y66.396 E4.08779
G1 X84.408 Y65.917 E4.10315
G1 X84.176 Y65.859 E4.10998
G1 X84.326 Y64.665 E4.14446
G1 X84.625 Y64.665 E4.15304
G1 X84.438 Y64.291 E4.16502
G1 X84.591 Y63.680 E4.18307
G1 X84.888 Y62.834 E4.20874
G1 X85.923 Y60.925 E4.27096
G1 X86.588 Y60.916 F7800.000
G1 F1800.000 E3.27096
G92 E0
G1 X94.934 Y59.510 F7800.000
G1 F1800.000 E1.00000
G1 X94.972 Y58.974 F540.000 E1.01542
G1 X94.849 Y58.686 E1.02438
G1 X94.902 Y58.152 E1.03976
G1 X95.094 Y57.721 E1.05327
G1 X95.442 Y57.176 E1.07181
G1 X95.805 Y57.020 E1.08314
G1 X96.399 Y56.723 E1.10217
G1 X97.304 Y56.533 E1.12865
G1 X97.949 Y56.809 E1.14876
G1 X98.913 Y57.130 E1.17785
G1 X99.710 Y57.423 E1.20221
G1 X100.279 Y57.748 E1.22096
G1 X101.365 Y58.165 E1.25430
G1 X102.024 Y58.780 E1.28012
G1 X103.105 Y59.940 E1.32555
G1 X103.778 Y60.443 E1.34963
G1 X104.140 Y61.031 E1.36941
G1 X104.527 Y61.804 E1.39416
G1 X103.282 Y61.657 E1.43007
G1 X102.539 Y61.693 E1.45137
G1 X102.144 Y61.908 E1.46427
G1 X101.091 Y62.376 E1.49729
G1 X101.339 Y61.550 E1.52200
G1 X101.599 Y60.357 E1.55697
G1 X101.551 Y60.229 E1.56091
G1 X101.358 Y60.122 E1.56723
G1 X101.045 Y60.122 E1.57620
G1 X100.930 Y60.352 E1.58356
G1 X100.778 Y61.266 E1.61013
G1 X100.645 Y62.505 E1.64582
G1 X99.978 Y63.123 E1.67188
G1 X99.314 Y63.597 E1.69526
G1 X98.685 Y63.597 E1.71329
G1 X98.101 Y63.430 E1.73069
G1 X97.033 Y63.307 E1.76149
G1 X96.335 Y63.029 E1.78300
G1 X95.900 Y62.637 E1.79978
G1 X95.509 Y62.345 E1.81376
G1 X95.390 Y61.986 E1.82459
G1 X95.260 Y61.209 E1.84716
G1 X95.260 Y60.754 E1.86020
G1 X95.227 Y60.423 E1.86974
G1 X95.074 Y60.118 E1.87951
G1 X94.955 Y59.602 E1.89469
G1 X95.392 Y59.228 F7800.000
G1 F1800.000 E0.89469
G92 E0
G1 X100.279 Y63.685 F7800.000
G1 F1800.000 E1.00000
G1 X100.583 Y63.534 F540.000 E1.00973
G1 X101.031 Y63.161 E1.02641
G1 X101.604 Y62.588 E1.04964
G1 X102.696 Y62.270 E1.08223
G1 X103.479 Y62.270 E1.10466
G1 X104.349 Y62.318 E1.12960
G1 X104.754 Y62.781 E1.14723
G1 X105.207 Y63.912 E1.18214
G1 X104.417 Y63.597 E1.20651
G1 X103.435 Y63.814 E1.23532
G1 X102.831 Y64.027 E1.25369
G1 X102.471 Y64.387 E1.26825
G1 X102.173 Y64.983 E1.28735
G1 X101.388 Y64.742 E1.31087
G1 X99.992 Y64.259 E1.35319
G1 X100.237 Y63.769 E1.36889
G1 X100.596 Y63.808 F7800.000
G1 X99.923 Y64.770
G1 X100.300 Y65.021 F378.000 E1.38186
G1 X100.447 Y65.609 E1.39923
G1 X100.788 Y66.562 E1.42825
G1 X101.012 Y66.505 E1.43489
G1 X100.785 Y65.072 E1.47647
G1 X101.659 Y65.617 E1.50598
G1 X102.003 Y65.731 E1.51636
G1 X102.409 Y65.912 E1.52909
G1 X102.880 Y66.241 E1.54555
G1 X103.056 Y66.476 E1.55397
G1 X103.330 Y67.158 E1.57504
G1 X103.613 Y66.308 E1.60071
G1 X104.058 Y66.012 E1.61603
G1 X104.066 Y66.038 E1.61681
G1 X105.160 Y65.768 E1.64910
G1 X105.134 Y65.567 E1.65492
G1 X104.584 Y65.567 E1.67067
G1 X104.204 Y65.719 E1.68242
G1 X103.594 Y65.820 E1.70013
G1 X103.010 Y65.570 E1.71834
G1 X103.095 Y64.890 E1.73796
G1 X103.470 Y64.579 E1.75193
G1 X104.213 Y64.273 E1.77496
G1 X104.785 Y64.082 E1.79224
G1 X105.228 Y64.163 E1.80514
G1 X105.261 Y64.048 E1.80857
G1 X105.313 Y64.178 E1.81260
G1 X105.518 Y64.216 E1.81857
G1 X105.594 Y64.591 E1.82954
G1 X105.906 Y65.278 E1.85116
G1 X105.299 Y65.581 E1.87059
G1 X105.330 Y65.711 E1.87442
G1 X106.012 Y65.711 E1.89396
G1 X106.012 Y66.187 E1.90760
G1 X106.141 Y66.701 E1.92278
G1 X106.066 Y67.110 E1.93469
G1 X106.229 Y67.435 E1.94509
G1 X106.116 Y67.467 E1.94844
G1 X105.931 Y68.207 E1.97031
G1 X105.931 Y68.818 E1.98780
G1 X105.790 Y69.333 E2.00311
G1 X105.548 Y69.817 E2.01862
G1 X105.365 Y69.780 E2.02396
G1 X105.445 Y70.416 E2.04231
G1 X105.445 Y70.820 E2.05387
G1 X105.263 Y71.272 E2.06783
G1 X105.121 Y71.697 E2.08068
G1 X104.294 Y72.523 E2.11418
G1 X104.432 Y72.614 E2.11890
G1 X103.645 Y73.792 E2.15950
G1 X103.759 Y73.868 E2.16341
G1 X103.311 Y74.315 E2.18154
G1 X102.475 Y74.983 E2.21219
G1 X102.344 Y74.852 E2.21749
G1 X102.092 Y75.440 E2.23583
G1 X101.743 Y75.614 E2.24698
G1 X101.569 Y75.893 E2.25641
G1 X101.100 Y76.361 E2.27539
G1 X100.944 Y76.011 E2.28638
G1 X100.390 Y76.786 E2.31369
G1 X99.884 Y76.281 E2.33418
G1 X99.955 Y76.162 E2.33814
G1 X99.439 Y75.750 E2.35706
G1 X98.220 Y75.004 E2.39800
G1 X97.851 Y74.840 E2.40956
G1 X97.372 Y74.535 E2.42584
G1 X96.452 Y73.826 E2.45913
G1 X95.920 Y73.250 E2.48160
G1 X95.626 Y72.706 E2.49930
G1 X95.377 Y72.357 E2.51159
G1 X95.377 Y71.915 E2.52426
G1 X95.502 Y70.749 E2.55784
G1 X95.683 Y69.980 E2.58049
G1 X95.863 Y69.728 E2.58937
G1 X95.863 Y69.204 E2.60437
G1 X95.784 Y68.692 E2.61921
G1 X95.746 Y68.274 E2.63126
G1 X95.584 Y67.788 E2.64592
G1 X95.898 Y67.370 E2.66090
G1 X96.290 Y67.370 E2.67212
G1 X96.631 Y67.541 E2.68306
G1 X96.890 Y67.756 E2.69268
G1 X97.535 Y68.173 E2.71468
G1 X98.087 Y68.393 E2.73172
G1 X98.192 Y69.251 E2.75649
G1 X98.151 Y69.780 E2.77169
G1 X98.232 Y70.429 E2.79042
G1 X98.190 Y70.934 E2.80494
G1 X98.190 Y71.345 E2.81673
G1 X98.109 Y71.918 E2.83331
G1 X98.109 Y72.106 E2.83870
G1 X98.864 Y72.106 E2.86032
G1 X99.170 Y72.310 E2.87084
G1 X99.739 Y72.594 E2.88909
G1 X100.242 Y72.942 E2.90660
G1 X100.711 Y73.076 E2.92057
G1 X100.763 Y72.996 E2.92329
G1 X100.322 Y72.468 E2.94300
G1 X99.983 Y72.129 E2.95673
G1 X99.305 Y71.930 E2.97698
G1 X98.822 Y71.508 E2.99535
G1 X98.822 Y71.138 E3.00596
G1 X98.860 Y70.909 E3.01261
G1 X98.822 Y70.490 E3.02467
G1 X98.822 Y70.040 E3.03756
G1 X99.008 Y69.110 E3.06475
G1 X99.787 Y69.715 E3.09301
G1 X99.912 Y69.840 E3.09807
G1 X100.624 Y69.840 E3.11847
G1 X100.950 Y69.905 E3.12799
G1 X101.371 Y70.325 E3.14505
G1 X101.531 Y70.203 E3.15080
G1 X100.939 Y69.169 E3.18494
G1 X100.736 Y69.169 E3.19075
G1 X99.962 Y69.072 E3.21310
G1 X99.832 Y68.943 E3.21835
G1 X99.737 Y68.886 E3.22154
G1 X99.584 Y68.886 E3.22591
G1 X98.026 Y67.499 E3.28568
G1 X97.614 Y67.293 E3.29889
G1 X97.377 Y67.246 E3.30578
G1 X97.016 Y66.957 E3.31903
G1 X96.962 Y66.526 E3.33148
G1 X96.901 Y66.279 E3.33876
G1 X96.627 Y65.903 E3.35210
G1 X96.207 Y65.440 E3.37001
G1 X96.017 Y65.137 E3.38026
G1 X95.644 Y64.817 E3.39432
G1 X95.729 Y64.054 E3.41634
G1 X96.520 Y63.922 E3.43931
G1 X97.012 Y64.069 E3.45401
G1 X97.328 Y64.205 E3.46388
G1 X97.611 Y64.366 E3.47319
G1 X98.008 Y64.531 E3.48551
G1 X98.363 Y64.499 E3.49572
G1 X98.875 Y64.406 E3.51066
G1 X99.834 Y64.739 E3.53974
G1 X99.932 Y65.222 F7800.000
G1 F1800.000 E2.53974
G92 E0
G1 X95.260 Y73.483 F7800.000
G1 F1800.000 E1.00000
G1 X95.756 Y73.885 F540.000 E1.01829
G1 X96.134 Y74.150 E1.03152
G1 X96.628 Y74.418 E1.04762
G1 X96.894 Y74.791 E1.06073
G1 X97.093 Y75.286 E1.07603
G1 X97.093 Y76.467 E1.10986
G1 X97.128 Y76.887 E1.12194
G1 X97.411 Y77.524 E1.14190
G1 X96.022 Y77.957 E1.18360
G1 X96.022 Y77.791 E1.18835
G1 X95.652 Y77.939 E1.19977
G1 X95.414 Y78.058 E1.20739
G1 X95.056 Y78.007 E1.21775
G1 X94.336 Y78.007 E1.23839
G1 X93.550 Y77.941 E1.26098
G1 X93.550 Y77.837 E1.26397
G1 X92.496 Y77.627 E1.29475
G1 X92.496 Y77.359 E1.30242
G1 X91.639 Y77.359 E1.32697
G1 X91.318 Y76.932 E1.34228
G1 X91.517 Y76.436 E1.35757
G1 X91.349 Y76.342 E1.36310
G1 X92.327 Y75.169 E1.40687
G1 X92.348 Y75.423 E1.41419
G1 X92.440 Y75.443 E1.41687
G1 X92.725 Y74.945 E1.43333
G1 X93.121 Y74.593 E1.44851
G1 X93.449 Y74.265 E1.46180
G1 X93.893 Y74.265 E1.47452
G1 X94.122 Y74.723 E1.48918
G1 X94.168 Y74.994 E1.49707
G1 X94.341 Y75.600 E1.51513
G1 X94.284 Y75.885 E1.52345
G1 X94.145 Y76.208 E1.53352
G1 X94.752 Y76.208 E1.55090
G1 X95.172 Y76.313 E1.56330
G1 X94.586 Y75.410 E1.59415
G1 X94.510 Y75.034 E1.60511
G1 X94.537 Y75.024 E1.60594
G1 X94.300 Y74.233 E1.62961
G1 X94.227 Y74.081 E1.63443
G1 X94.294 Y73.746 E1.64421
