; generated by Slic3r 0.9.10b on 2013-07-28 at 18:51:01

; layer_height = 0.25
; perimeters = 3
; top_solid_layers = 3
; bottom_solid_layers = 3
; fill_density = 0.1
; perimeter_speed = 30
; infill_speed = 60
; travel_speed = 130
; nozzle_diameter = 0.35
; filament_diameter = 3
; extrusion_multiplier = .926
; perimeters extrusion width = 0.39mm
; infill extrusion width = 0.39mm
; solid infill extrusion width = 0.39mm
; top infill extrusion width = 0.39mm
; first layer extrusion width = 0.70mm

G21 ; set units to millimeters
M107
M190 S60 ; wait for bed temperature to be reached
M104 S220 ; set temperature
G28 ; home all axes
G1 Z5 F5000 ; lift nozzle
M109 S220 ; wait for temperature to be reached
G90 ; use absolute coordinates
G92 E0
M82 ; use absolute distances for extrusion
G1 F1800.000 E-1.00000
G92 E0
G1 Z0.350 F7800.000
G1 X94.822 Y94.794
G1 F1800.000 E1.00000
G1 X95.362 Y94.364 F600.000 E1.01978
G1 X95.982 Y93.924 E1.04156
G1 X97.042 Y93.334 E1.07632
G1 X98.182 Y92.944 E1.11084
G1 X99.872 Y92.544 E1.16060
G1 X101.262 Y92.374 E1.20072
G1 X102.662 Y92.494 E1.24098
G1 X104.002 Y92.894 E1.28105
G1 X105.222 Y93.584 E1.32121
G1 X106.272 Y94.504 E1.36121
G1 X107.102 Y95.624 E1.40115
G1 X107.692 Y96.934 E1.44231
G1 X108.012 Y98.404 E1.48542
G1 X107.982 Y99.904 E1.52840
G1 X107.612 Y101.364 E1.57156
G1 X106.922 Y102.694 E1.61449
G1 X106.532 Y103.234 E1.63357
G1 X106.102 Y103.704 E1.65182
G1 X105.322 Y104.494 E1.68363
G1 X104.572 Y105.174 E1.71264
G1 X103.992 Y105.624 E1.73367
G1 X103.482 Y105.974 E1.75139
G1 X102.702 Y106.434 E1.77734
G1 X101.862 Y106.784 E1.80341
G1 X100.922 Y107.104 E1.83186
G1 X99.452 Y107.424 E1.87497
G1 X97.932 Y107.404 E1.91852
G1 X96.462 Y107.034 E1.96195
G1 X95.122 Y106.344 E2.00514
G1 X93.972 Y105.394 E2.04787
G1 X93.082 Y104.234 E2.08976
G1 X92.472 Y102.874 E2.13247
G1 X92.232 Y101.984 E2.15888
G1 X92.132 Y101.064 E2.18540
G1 X92.122 Y100.824 E2.19228
G1 X92.202 Y99.514 E2.22988
G1 X92.522 Y98.254 E2.26713
G1 X92.732 Y97.684 E2.28453
G1 X93.582 Y96.094 E2.33619
G1 X94.757 Y94.862 E2.38498
G1 F1800.000 E1.38498
G92 E0
G1 X99.474 Y100.261 F7800.000
G1 F1800.000 E1.00000
G1 X99.355 Y100.143 F600.000 E1.00228
G1 X99.591 Y99.960 E1.00631
G1 X99.747 Y100.117 E1.00931
G1 X99.958 Y99.910 E1.01332
G1 X99.818 Y99.769 E1.01601
M106 S255
M104 S215 ; set temperature
G1 F1800.000 E0.01601
G92 E0
G1 Z0.600 F7800.000
G1 X99.700 Y99.772
G1 F1800.000 E1.00000
G1 X99.761 Y99.652 F600.000 E1.00169
G1 X99.959 Y99.557 E1.00447
G1 X100.082 Y99.593 E1.00609
G1 X100.122 Y99.653 E1.00699
G1 X100.424 Y99.693 E1.01084
G1 X100.291 Y99.855 E1.01349
G1 X100.140 Y99.997 E1.01610
G1 X99.988 Y100.011 E1.01802
G1 X99.950 Y100.115 E1.01941
G1 X99.808 Y100.201 E1.02151
G1 X99.638 Y100.344 E1.02430
G1 X99.280 Y100.401 E1.02887
G1 X99.088 Y100.403 E1.03129
G1 X99.090 Y100.270 E1.03297
G1 X99.147 Y100.144 E1.03471
G1 X99.202 Y100.097 E1.03562
G1 X99.254 Y100.099 E1.03628
G1 X99.383 Y99.958 E1.03869
G1 X99.485 Y99.929 E1.04003
G1 X99.572 Y99.810 E1.04188
G1 X99.644 Y99.789 E1.04284
G1 X99.831 Y99.801 F7800.000
G1 X100.597 Y99.503
G1 X100.629 Y99.368 F600.000 E1.04460
G1 X100.647 Y99.451 F7800.000
G1 X100.723 Y99.432 F600.000 E1.04558
G1 X100.597 Y99.503 F7800.000
G1 X100.439 Y99.505 F600.000 E1.04757
G1 F1800.000 E0.04757
G92 E0
M107
M104 S0 ; turn off temperature
G28 X0  ; home X axis
M84     ; disable motors
; filament used = 1.4mm (0.0cm3)
